(G-CODE GENERATED BY FLATCAM v8.99 - www.flatcam.org - Version Date: 2019/12/15)

(Name: corte contprno)
(Type: G-code from Geometry)
(Units: MM)

(Created on Thursday, 11 February 2021 at 14:43)

(TOOL DIAMETER: 3.17 mm)
(Feedrate: 450.0 mm/min)
(Feedrate_Z: 450.0 mm/min)
(Feedrate rapids 1500.0 mm/min)

(Z_Cut: -1.65 mm)
(DepthPerCut: 0.55 mm <=>3 passes)
(Z_Move: 15.0 mm)
(Z Toolchange: 15.0 mm)
(X,Y Toolchange: 0.0000, 0.0000 mm)
(Z Start: None mm)
(Z End: 90.0 mm)
(Steps per circle: 64)
(Preprocessor Geometry: default)

(X range:   -1.1551 ...   92.2851  mm)
(Y range:   -1.1351 ...   99.7851  mm)

(Spindle Speed: 12000 RPM)
G21
G90
G94




G01 F450.00
G00 Z15.0000

M03 S12000
G00 X13.4149 Y12.5128
G01 F450.00
G01 Z-0.5500
G01 F450.00
G01 X13.4151 Y1.5000
G01 X13.4141 Y1.4336
G01 X13.4113 Y1.3688
G01 X13.4073 Y1.3129
G01 X13.4028 Y1.2638
G01 X13.3954 Y1.2009
G01 X13.3882 Y1.1510
G01 X13.3807 Y1.1055
G01 X13.3696 Y1.0465
G01 X13.3582 Y0.9931
G01 X13.3421 Y0.9272
G01 X13.3253 Y0.8659
G01 X13.3097 Y0.8141
G01 X13.2897 Y0.7536
G01 X13.2747 Y0.7117
G01 X13.2593 Y0.6710
G01 X13.2377 Y0.6175
G01 X13.2164 Y0.5682
G01 X13.1890 Y0.5091
G01 X13.1660 Y0.4627
G01 X13.1376 Y0.4087
G01 X13.1055 Y0.3516
G01 X13.0784 Y0.3063
G01 X13.0555 Y0.2695
G01 X13.0228 Y0.2199
G01 X12.9878 Y0.1696
G01 X12.9554 Y0.1255
G01 X12.9216 Y0.0818
G01 X12.8867 Y0.0387
G01 X12.8509 Y-0.0033
G01 X12.8149 Y-0.0434
G01 X12.7711 Y-0.0901
G01 X12.7323 Y-0.1292
G01 X12.6962 Y-0.1639
G01 X12.6546 Y-0.2021
G01 X12.6130 Y-0.2385
G01 X12.5816 Y-0.2647
G01 X12.5482 Y-0.2917
G01 X12.5045 Y-0.3254
G01 X12.4606 Y-0.3577
G01 X12.4300 Y-0.3791
G01 X12.3917 Y-0.4051
G01 X12.3464 Y-0.4344
G01 X12.3015 Y-0.4619
G01 X12.2683 Y-0.4813
G01 X12.2214 Y-0.5075
G01 X12.1769 Y-0.5311
G01 X12.1343 Y-0.5525
G01 X12.0863 Y-0.5753
G01 X12.0465 Y-0.5932
G01 X12.0018 Y-0.6121
G01 X11.9463 Y-0.6342
G01 X11.9051 Y-0.6495
G01 X11.8672 Y-0.6628
G01 X11.8159 Y-0.6797
G01 X11.7641 Y-0.6953
G01 X11.7147 Y-0.7090
G01 X11.6758 Y-0.7189
G01 X11.6338 Y-0.7288
G01 X11.5836 Y-0.7396
G01 X11.5342 Y-0.7490
G01 X11.4929 Y-0.7560
G01 X11.4409 Y-0.7638
G01 X11.4001 Y-0.7691
G01 X11.3510 Y-0.7743
G01 X11.2992 Y-0.7787
G01 X11.2464 Y-0.7821
G01 X11.1935 Y-0.7842
G01 X11.1300 Y-0.7851
G01 X1.1045 Y-0.7849
G01 X1.0516 Y-0.7837
G01 X0.9868 Y-0.7805
G01 X0.9319 Y-0.7764
G01 X0.8750 Y-0.7708
G01 X0.8191 Y-0.7638
G01 X0.7573 Y-0.7544
G01 X0.7010 Y-0.7444
G01 X0.6389 Y-0.7317
G01 X0.5842 Y-0.7189
G01 X0.5333 Y-0.7058
G01 X0.4812 Y-0.6910
G01 X0.4178 Y-0.6712
G01 X0.3639 Y-0.6527
G01 X0.3291 Y-0.6401
G01 X0.3012 Y-0.6294
G01 X0.2472 Y-0.6076
G01 X0.2135 Y-0.5932
G01 X0.1858 Y-0.5808
G01 X0.1365 Y-0.5578
G01 X0.0808 Y-0.5299
G01 X0.0253 Y-0.5002
G01 X-0.0289 Y-0.4694
G01 X-0.0864 Y-0.4344
G01 X-0.1317 Y-0.4051
G01 X-0.1795 Y-0.3726
G01 X-0.2214 Y-0.3426
G01 X-0.2588 Y-0.3146
G01 X-0.3107 Y-0.2736
G01 X-0.3530 Y-0.2385
G01 X-0.4040 Y-0.1936
G01 X-0.4438 Y-0.1567
G01 X-0.4872 Y-0.1144
G01 X-0.5325 Y-0.0676
G01 X-0.5721 Y-0.0246
G01 X-0.6083 Y0.0168
G01 X-0.6347 Y0.0484
G01 X-0.6616 Y0.0818
G01 X-0.6954 Y0.1255
G01 X-0.7278 Y0.1696
G01 X-0.7491 Y0.2000
G01 X-0.7753 Y0.2385
G01 X-0.8044 Y0.2836
G01 X-0.8318 Y0.3283
G01 X-0.8513 Y0.3617
G01 X-0.8776 Y0.4087
G01 X-0.9011 Y0.4531
G01 X-0.9224 Y0.4955
G01 X-0.9453 Y0.5437
G01 X-0.9631 Y0.5833
G01 X-0.9821 Y0.6282
G01 X-1.0042 Y0.6837
G01 X-1.0195 Y0.7249
G01 X-1.0328 Y0.7628
G01 X-1.0497 Y0.8141
G01 X-1.0653 Y0.8659
G01 X-1.0790 Y0.9153
G01 X-1.0889 Y0.9542
G01 X-1.0988 Y0.9962
G01 X-1.1096 Y1.0465
G01 X-1.1190 Y1.0958
G01 X-1.1260 Y1.1371
G01 X-1.1338 Y1.1890
G01 X-1.1391 Y1.2300
G01 X-1.1443 Y1.2790
G01 X-1.1481 Y1.3220
G01 X-1.1521 Y1.3837
G01 X-1.1542 Y1.4365
G01 X-1.1551 Y1.5000
G01 X-1.1549 Y12.5255
G01 X-1.1537 Y12.5783
G01 X-1.1505 Y12.6433
G01 X-1.1464 Y12.6984
G01 X-1.1408 Y12.7550
G01 X-1.1338 Y12.8108
G01 X-1.1244 Y12.8727
G01 X-1.1144 Y12.9291
G01 X-1.1017 Y12.9910
G01 X-1.0889 Y13.0458
G01 X-1.0758 Y13.0967
G01 X-1.0610 Y13.1487
G01 X-1.0411 Y13.2125
G01 X-1.0227 Y13.2662
G01 X-1.0101 Y13.3008
G01 X-0.9993 Y13.3289
G01 X-0.9776 Y13.3827
G01 X-0.9510 Y13.4439
G01 X-0.9278 Y13.4935
G01 X-0.8999 Y13.5492
G01 X-0.8702 Y13.6047
G01 X-0.8394 Y13.6589
G01 X-0.8044 Y13.7164
G01 X-0.7750 Y13.7618
G01 X-0.7425 Y13.8096
G01 X-0.7126 Y13.8514
G01 X-0.6846 Y13.8887
G01 X-0.6436 Y13.9407
G01 X-0.6083 Y13.9832
G01 X-0.5826 Y14.0128
G01 X-0.5634 Y14.0342
G01 X-0.5267 Y14.0737
G01 X-0.4844 Y14.1172
G01 X-0.4376 Y14.1625
G01 X-0.3946 Y14.2021
G01 X-0.3530 Y14.2384
G01 X-0.3216 Y14.2647
G01 X-0.2881 Y14.2917
G01 X-0.2445 Y14.3254
G01 X-0.2007 Y14.3576
G01 X-0.1700 Y14.3791
G01 X-0.1317 Y14.4051
G01 X-0.0864 Y14.4344
G01 X-0.0416 Y14.4618
G01 X-0.0083 Y14.4813
G01 X0.0386 Y14.5075
G01 X0.0831 Y14.5311
G01 X0.1258 Y14.5525
G01 X0.1737 Y14.5753
G01 X0.2135 Y14.5932
G01 X0.2582 Y14.6121
G01 X0.3137 Y14.6342
G01 X0.3549 Y14.6495
G01 X0.3928 Y14.6628
G01 X0.4441 Y14.6797
G01 X0.4931 Y14.6945
G01 X0.5452 Y14.7090
G01 X0.5842 Y14.7189
G01 X0.6262 Y14.7288
G01 X0.6764 Y14.7396
G01 X0.7258 Y14.7490
G01 X0.7671 Y14.7560
G01 X0.8191 Y14.7638
G01 X0.8599 Y14.7691
G01 X0.9090 Y14.7743
G01 X0.9608 Y14.7787
G01 X1.0136 Y14.7821
G01 X1.0665 Y14.7842
G01 X1.1300 Y14.7851
G01 X11.1300 Y14.7851
G01 X11.1964 Y14.7841
G01 X11.2612 Y14.7813
G01 X11.3281 Y14.7764
G01 X11.3662 Y14.7728
G01 X11.4001 Y14.7691
G01 X11.4527 Y14.7622
G01 X11.5027 Y14.7544
G01 X11.5590 Y14.7444
G01 X11.6084 Y14.7344
G01 X11.6496 Y14.7252
G01 X11.7028 Y14.7121
G01 X11.7522 Y14.6987
G01 X11.8041 Y14.6833
G01 X11.8422 Y14.6712
G01 X11.8962 Y14.6527
G01 X11.9463 Y14.6342
G01 X12.0018 Y14.6121
G01 X12.0465 Y14.5932
G01 X12.0990 Y14.5694
G01 X12.1342 Y14.5525
G01 X12.1888 Y14.5249
G01 X12.2347 Y14.5002
G01 X12.2786 Y14.4754
G01 X12.3237 Y14.4484
G01 X12.3604 Y14.4255
G01 X12.4020 Y14.3983
G01 X12.4490 Y14.3659
G01 X12.4930 Y14.3340
G01 X12.5302 Y14.3058
G01 X12.5707 Y14.2736
G01 X12.6130 Y14.2384
G01 X12.6523 Y14.2041
G01 X12.6901 Y14.1696
G01 X12.7323 Y14.1291
G01 X12.7592 Y14.1023
G01 X12.7939 Y14.0662
G01 X12.8341 Y14.0223
G01 X12.8683 Y13.9832
G01 X12.9036 Y13.9407
G01 X12.9358 Y13.9002
G01 X12.9640 Y13.8630
G01 X12.9943 Y13.8212
G01 X13.0226 Y13.7804
G01 X13.0555 Y13.7304
G01 X13.0784 Y13.6937
G01 X13.1055 Y13.6485
G01 X13.1317 Y13.6022
G01 X13.1599 Y13.5492
G01 X13.1825 Y13.5043
G01 X13.2053 Y13.4563
G01 X13.2230 Y13.4169
G01 X13.2421 Y13.3718
G01 X13.2642 Y13.3163
G01 X13.2827 Y13.2662
G01 X13.3011 Y13.2125
G01 X13.3133 Y13.1741
G01 X13.3287 Y13.1224
G01 X13.3429 Y13.0699
G01 X13.3552 Y13.0196
G01 X13.3644 Y12.9784
G01 X13.3744 Y12.9291
G01 X13.3844 Y12.8727
G01 X13.3922 Y12.8227
G01 X13.3991 Y12.7700
G01 X13.4043 Y12.7210
G01 X13.4087 Y12.6692
G01 X13.4121 Y12.6163
G01 X13.4142 Y12.5635
G01 X13.4149 Y12.5128
G00 X13.4149 Y12.5128
G01 F450.00
G01 Z-1.1000
G01 F450.00
G01 X13.4151 Y1.5000
G01 X13.4141 Y1.4336
G01 X13.4113 Y1.3688
G01 X13.4073 Y1.3129
G01 X13.4028 Y1.2638
G01 X13.3954 Y1.2009
G01 X13.3882 Y1.1510
G01 X13.3807 Y1.1055
G01 X13.3696 Y1.0465
G01 X13.3582 Y0.9931
G01 X13.3421 Y0.9272
G01 X13.3253 Y0.8659
G01 X13.3097 Y0.8141
G01 X13.2897 Y0.7536
G01 X13.2747 Y0.7117
G01 X13.2593 Y0.6710
G01 X13.2377 Y0.6175
G01 X13.2164 Y0.5682
G01 X13.1890 Y0.5091
G01 X13.1660 Y0.4627
G01 X13.1376 Y0.4087
G01 X13.1055 Y0.3516
G01 X13.0784 Y0.3063
G01 X13.0555 Y0.2695
G01 X13.0228 Y0.2199
G01 X12.9878 Y0.1696
G01 X12.9554 Y0.1255
G01 X12.9216 Y0.0818
G01 X12.8867 Y0.0387
G01 X12.8509 Y-0.0033
G01 X12.8149 Y-0.0434
G01 X12.7711 Y-0.0901
G01 X12.7323 Y-0.1292
G01 X12.6962 Y-0.1639
G01 X12.6546 Y-0.2021
G01 X12.6130 Y-0.2385
G01 X12.5816 Y-0.2647
G01 X12.5482 Y-0.2917
G01 X12.5045 Y-0.3254
G01 X12.4606 Y-0.3577
G01 X12.4300 Y-0.3791
G01 X12.3917 Y-0.4051
G01 X12.3464 Y-0.4344
G01 X12.3015 Y-0.4619
G01 X12.2683 Y-0.4813
G01 X12.2214 Y-0.5075
G01 X12.1769 Y-0.5311
G01 X12.1343 Y-0.5525
G01 X12.0863 Y-0.5753
G01 X12.0465 Y-0.5932
G01 X12.0018 Y-0.6121
G01 X11.9463 Y-0.6342
G01 X11.9051 Y-0.6495
G01 X11.8672 Y-0.6628
G01 X11.8159 Y-0.6797
G01 X11.7641 Y-0.6953
G01 X11.7147 Y-0.7090
G01 X11.6758 Y-0.7189
G01 X11.6338 Y-0.7288
G01 X11.5836 Y-0.7396
G01 X11.5342 Y-0.7490
G01 X11.4929 Y-0.7560
G01 X11.4409 Y-0.7638
G01 X11.4001 Y-0.7691
G01 X11.3510 Y-0.7743
G01 X11.2992 Y-0.7787
G01 X11.2464 Y-0.7821
G01 X11.1935 Y-0.7842
G01 X11.1300 Y-0.7851
G01 X1.1045 Y-0.7849
G01 X1.0516 Y-0.7837
G01 X0.9868 Y-0.7805
G01 X0.9319 Y-0.7764
G01 X0.8750 Y-0.7708
G01 X0.8191 Y-0.7638
G01 X0.7573 Y-0.7544
G01 X0.7010 Y-0.7444
G01 X0.6389 Y-0.7317
G01 X0.5842 Y-0.7189
G01 X0.5333 Y-0.7058
G01 X0.4812 Y-0.6910
G01 X0.4178 Y-0.6712
G01 X0.3639 Y-0.6527
G01 X0.3291 Y-0.6401
G01 X0.3012 Y-0.6294
G01 X0.2472 Y-0.6076
G01 X0.2135 Y-0.5932
G01 X0.1858 Y-0.5808
G01 X0.1365 Y-0.5578
G01 X0.0808 Y-0.5299
G01 X0.0253 Y-0.5002
G01 X-0.0289 Y-0.4694
G01 X-0.0864 Y-0.4344
G01 X-0.1317 Y-0.4051
G01 X-0.1795 Y-0.3726
G01 X-0.2214 Y-0.3426
G01 X-0.2588 Y-0.3146
G01 X-0.3107 Y-0.2736
G01 X-0.3530 Y-0.2385
G01 X-0.4040 Y-0.1936
G01 X-0.4438 Y-0.1567
G01 X-0.4872 Y-0.1144
G01 X-0.5325 Y-0.0676
G01 X-0.5721 Y-0.0246
G01 X-0.6083 Y0.0168
G01 X-0.6347 Y0.0484
G01 X-0.6616 Y0.0818
G01 X-0.6954 Y0.1255
G01 X-0.7278 Y0.1696
G01 X-0.7491 Y0.2000
G01 X-0.7753 Y0.2385
G01 X-0.8044 Y0.2836
G01 X-0.8318 Y0.3283
G01 X-0.8513 Y0.3617
G01 X-0.8776 Y0.4087
G01 X-0.9011 Y0.4531
G01 X-0.9224 Y0.4955
G01 X-0.9453 Y0.5437
G01 X-0.9631 Y0.5833
G01 X-0.9821 Y0.6282
G01 X-1.0042 Y0.6837
G01 X-1.0195 Y0.7249
G01 X-1.0328 Y0.7628
G01 X-1.0497 Y0.8141
G01 X-1.0653 Y0.8659
G01 X-1.0790 Y0.9153
G01 X-1.0889 Y0.9542
G01 X-1.0988 Y0.9962
G01 X-1.1096 Y1.0465
G01 X-1.1190 Y1.0958
G01 X-1.1260 Y1.1371
G01 X-1.1338 Y1.1890
G01 X-1.1391 Y1.2300
G01 X-1.1443 Y1.2790
G01 X-1.1481 Y1.3220
G01 X-1.1521 Y1.3837
G01 X-1.1542 Y1.4365
G01 X-1.1551 Y1.5000
G01 X-1.1549 Y12.5255
G01 X-1.1537 Y12.5783
G01 X-1.1505 Y12.6433
G01 X-1.1464 Y12.6984
G01 X-1.1408 Y12.7550
G01 X-1.1338 Y12.8108
G01 X-1.1244 Y12.8727
G01 X-1.1144 Y12.9291
G01 X-1.1017 Y12.9910
G01 X-1.0889 Y13.0458
G01 X-1.0758 Y13.0967
G01 X-1.0610 Y13.1487
G01 X-1.0411 Y13.2125
G01 X-1.0227 Y13.2662
G01 X-1.0101 Y13.3008
G01 X-0.9993 Y13.3289
G01 X-0.9776 Y13.3827
G01 X-0.9510 Y13.4439
G01 X-0.9278 Y13.4935
G01 X-0.8999 Y13.5492
G01 X-0.8702 Y13.6047
G01 X-0.8394 Y13.6589
G01 X-0.8044 Y13.7164
G01 X-0.7750 Y13.7618
G01 X-0.7425 Y13.8096
G01 X-0.7126 Y13.8514
G01 X-0.6846 Y13.8887
G01 X-0.6436 Y13.9407
G01 X-0.6083 Y13.9832
G01 X-0.5826 Y14.0128
G01 X-0.5634 Y14.0342
G01 X-0.5267 Y14.0737
G01 X-0.4844 Y14.1172
G01 X-0.4376 Y14.1625
G01 X-0.3946 Y14.2021
G01 X-0.3530 Y14.2384
G01 X-0.3216 Y14.2647
G01 X-0.2881 Y14.2917
G01 X-0.2445 Y14.3254
G01 X-0.2007 Y14.3576
G01 X-0.1700 Y14.3791
G01 X-0.1317 Y14.4051
G01 X-0.0864 Y14.4344
G01 X-0.0416 Y14.4618
G01 X-0.0083 Y14.4813
G01 X0.0386 Y14.5075
G01 X0.0831 Y14.5311
G01 X0.1258 Y14.5525
G01 X0.1737 Y14.5753
G01 X0.2135 Y14.5932
G01 X0.2582 Y14.6121
G01 X0.3137 Y14.6342
G01 X0.3549 Y14.6495
G01 X0.3928 Y14.6628
G01 X0.4441 Y14.6797
G01 X0.4931 Y14.6945
G01 X0.5452 Y14.7090
G01 X0.5842 Y14.7189
G01 X0.6262 Y14.7288
G01 X0.6764 Y14.7396
G01 X0.7258 Y14.7490
G01 X0.7671 Y14.7560
G01 X0.8191 Y14.7638
G01 X0.8599 Y14.7691
G01 X0.9090 Y14.7743
G01 X0.9608 Y14.7787
G01 X1.0136 Y14.7821
G01 X1.0665 Y14.7842
G01 X1.1300 Y14.7851
G01 X11.1300 Y14.7851
G01 X11.1964 Y14.7841
G01 X11.2612 Y14.7813
G01 X11.3281 Y14.7764
G01 X11.3662 Y14.7728
G01 X11.4001 Y14.7691
G01 X11.4527 Y14.7622
G01 X11.5027 Y14.7544
G01 X11.5590 Y14.7444
G01 X11.6084 Y14.7344
G01 X11.6496 Y14.7252
G01 X11.7028 Y14.7121
G01 X11.7522 Y14.6987
G01 X11.8041 Y14.6833
G01 X11.8422 Y14.6712
G01 X11.8962 Y14.6527
G01 X11.9463 Y14.6342
G01 X12.0018 Y14.6121
G01 X12.0465 Y14.5932
G01 X12.0990 Y14.5694
G01 X12.1342 Y14.5525
G01 X12.1888 Y14.5249
G01 X12.2347 Y14.5002
G01 X12.2786 Y14.4754
G01 X12.3237 Y14.4484
G01 X12.3604 Y14.4255
G01 X12.4020 Y14.3983
G01 X12.4490 Y14.3659
G01 X12.4930 Y14.3340
G01 X12.5302 Y14.3058
G01 X12.5707 Y14.2736
G01 X12.6130 Y14.2384
G01 X12.6523 Y14.2041
G01 X12.6901 Y14.1696
G01 X12.7323 Y14.1291
G01 X12.7592 Y14.1023
G01 X12.7939 Y14.0662
G01 X12.8341 Y14.0223
G01 X12.8683 Y13.9832
G01 X12.9036 Y13.9407
G01 X12.9358 Y13.9002
G01 X12.9640 Y13.8630
G01 X12.9943 Y13.8212
G01 X13.0226 Y13.7804
G01 X13.0555 Y13.7304
G01 X13.0784 Y13.6937
G01 X13.1055 Y13.6485
G01 X13.1317 Y13.6022
G01 X13.1599 Y13.5492
G01 X13.1825 Y13.5043
G01 X13.2053 Y13.4563
G01 X13.2230 Y13.4169
G01 X13.2421 Y13.3718
G01 X13.2642 Y13.3163
G01 X13.2827 Y13.2662
G01 X13.3011 Y13.2125
G01 X13.3133 Y13.1741
G01 X13.3287 Y13.1224
G01 X13.3429 Y13.0699
G01 X13.3552 Y13.0196
G01 X13.3644 Y12.9784
G01 X13.3744 Y12.9291
G01 X13.3844 Y12.8727
G01 X13.3922 Y12.8227
G01 X13.3991 Y12.7700
G01 X13.4043 Y12.7210
G01 X13.4087 Y12.6692
G01 X13.4121 Y12.6163
G01 X13.4142 Y12.5635
G01 X13.4149 Y12.5128
G00 X13.4149 Y12.5128
G01 F450.00
G01 Z-1.6500
G01 F450.00
G01 X13.4151 Y1.5000
G01 X13.4141 Y1.4336
G01 X13.4113 Y1.3688
G01 X13.4073 Y1.3129
G01 X13.4028 Y1.2638
G01 X13.3954 Y1.2009
G01 X13.3882 Y1.1510
G01 X13.3807 Y1.1055
G01 X13.3696 Y1.0465
G01 X13.3582 Y0.9931
G01 X13.3421 Y0.9272
G01 X13.3253 Y0.8659
G01 X13.3097 Y0.8141
G01 X13.2897 Y0.7536
G01 X13.2747 Y0.7117
G01 X13.2593 Y0.6710
G01 X13.2377 Y0.6175
G01 X13.2164 Y0.5682
G01 X13.1890 Y0.5091
G01 X13.1660 Y0.4627
G01 X13.1376 Y0.4087
G01 X13.1055 Y0.3516
G01 X13.0784 Y0.3063
G01 X13.0555 Y0.2695
G01 X13.0228 Y0.2199
G01 X12.9878 Y0.1696
G01 X12.9554 Y0.1255
G01 X12.9216 Y0.0818
G01 X12.8867 Y0.0387
G01 X12.8509 Y-0.0033
G01 X12.8149 Y-0.0434
G01 X12.7711 Y-0.0901
G01 X12.7323 Y-0.1292
G01 X12.6962 Y-0.1639
G01 X12.6546 Y-0.2021
G01 X12.6130 Y-0.2385
G01 X12.5816 Y-0.2647
G01 X12.5482 Y-0.2917
G01 X12.5045 Y-0.3254
G01 X12.4606 Y-0.3577
G01 X12.4300 Y-0.3791
G01 X12.3917 Y-0.4051
G01 X12.3464 Y-0.4344
G01 X12.3015 Y-0.4619
G01 X12.2683 Y-0.4813
G01 X12.2214 Y-0.5075
G01 X12.1769 Y-0.5311
G01 X12.1343 Y-0.5525
G01 X12.0863 Y-0.5753
G01 X12.0465 Y-0.5932
G01 X12.0018 Y-0.6121
G01 X11.9463 Y-0.6342
G01 X11.9051 Y-0.6495
G01 X11.8672 Y-0.6628
G01 X11.8159 Y-0.6797
G01 X11.7641 Y-0.6953
G01 X11.7147 Y-0.7090
G01 X11.6758 Y-0.7189
G01 X11.6338 Y-0.7288
G01 X11.5836 Y-0.7396
G01 X11.5342 Y-0.7490
G01 X11.4929 Y-0.7560
G01 X11.4409 Y-0.7638
G01 X11.4001 Y-0.7691
G01 X11.3510 Y-0.7743
G01 X11.2992 Y-0.7787
G01 X11.2464 Y-0.7821
G01 X11.1935 Y-0.7842
G01 X11.1300 Y-0.7851
G01 X1.1045 Y-0.7849
G01 X1.0516 Y-0.7837
G01 X0.9868 Y-0.7805
G01 X0.9319 Y-0.7764
G01 X0.8750 Y-0.7708
G01 X0.8191 Y-0.7638
G01 X0.7573 Y-0.7544
G01 X0.7010 Y-0.7444
G01 X0.6389 Y-0.7317
G01 X0.5842 Y-0.7189
G01 X0.5333 Y-0.7058
G01 X0.4812 Y-0.6910
G01 X0.4178 Y-0.6712
G01 X0.3639 Y-0.6527
G01 X0.3291 Y-0.6401
G01 X0.3012 Y-0.6294
G01 X0.2472 Y-0.6076
G01 X0.2135 Y-0.5932
G01 X0.1858 Y-0.5808
G01 X0.1365 Y-0.5578
G01 X0.0808 Y-0.5299
G01 X0.0253 Y-0.5002
G01 X-0.0289 Y-0.4694
G01 X-0.0864 Y-0.4344
G01 X-0.1317 Y-0.4051
G01 X-0.1795 Y-0.3726
G01 X-0.2214 Y-0.3426
G01 X-0.2588 Y-0.3146
G01 X-0.3107 Y-0.2736
G01 X-0.3530 Y-0.2385
G01 X-0.4040 Y-0.1936
G01 X-0.4438 Y-0.1567
G01 X-0.4872 Y-0.1144
G01 X-0.5325 Y-0.0676
G01 X-0.5721 Y-0.0246
G01 X-0.6083 Y0.0168
G01 X-0.6347 Y0.0484
G01 X-0.6616 Y0.0818
G01 X-0.6954 Y0.1255
G01 X-0.7278 Y0.1696
G01 X-0.7491 Y0.2000
G01 X-0.7753 Y0.2385
G01 X-0.8044 Y0.2836
G01 X-0.8318 Y0.3283
G01 X-0.8513 Y0.3617
G01 X-0.8776 Y0.4087
G01 X-0.9011 Y0.4531
G01 X-0.9224 Y0.4955
G01 X-0.9453 Y0.5437
G01 X-0.9631 Y0.5833
G01 X-0.9821 Y0.6282
G01 X-1.0042 Y0.6837
G01 X-1.0195 Y0.7249
G01 X-1.0328 Y0.7628
G01 X-1.0497 Y0.8141
G01 X-1.0653 Y0.8659
G01 X-1.0790 Y0.9153
G01 X-1.0889 Y0.9542
G01 X-1.0988 Y0.9962
G01 X-1.1096 Y1.0465
G01 X-1.1190 Y1.0958
G01 X-1.1260 Y1.1371
G01 X-1.1338 Y1.1890
G01 X-1.1391 Y1.2300
G01 X-1.1443 Y1.2790
G01 X-1.1481 Y1.3220
G01 X-1.1521 Y1.3837
G01 X-1.1542 Y1.4365
G01 X-1.1551 Y1.5000
G01 X-1.1549 Y12.5255
G01 X-1.1537 Y12.5783
G01 X-1.1505 Y12.6433
G01 X-1.1464 Y12.6984
G01 X-1.1408 Y12.7550
G01 X-1.1338 Y12.8108
G01 X-1.1244 Y12.8727
G01 X-1.1144 Y12.9291
G01 X-1.1017 Y12.9910
G01 X-1.0889 Y13.0458
G01 X-1.0758 Y13.0967
G01 X-1.0610 Y13.1487
G01 X-1.0411 Y13.2125
G01 X-1.0227 Y13.2662
G01 X-1.0101 Y13.3008
G01 X-0.9993 Y13.3289
G01 X-0.9776 Y13.3827
G01 X-0.9510 Y13.4439
G01 X-0.9278 Y13.4935
G01 X-0.8999 Y13.5492
G01 X-0.8702 Y13.6047
G01 X-0.8394 Y13.6589
G01 X-0.8044 Y13.7164
G01 X-0.7750 Y13.7618
G01 X-0.7425 Y13.8096
G01 X-0.7126 Y13.8514
G01 X-0.6846 Y13.8887
G01 X-0.6436 Y13.9407
G01 X-0.6083 Y13.9832
G01 X-0.5826 Y14.0128
G01 X-0.5634 Y14.0342
G01 X-0.5267 Y14.0737
G01 X-0.4844 Y14.1172
G01 X-0.4376 Y14.1625
G01 X-0.3946 Y14.2021
G01 X-0.3530 Y14.2384
G01 X-0.3216 Y14.2647
G01 X-0.2881 Y14.2917
G01 X-0.2445 Y14.3254
G01 X-0.2007 Y14.3576
G01 X-0.1700 Y14.3791
G01 X-0.1317 Y14.4051
G01 X-0.0864 Y14.4344
G01 X-0.0416 Y14.4618
G01 X-0.0083 Y14.4813
G01 X0.0386 Y14.5075
G01 X0.0831 Y14.5311
G01 X0.1258 Y14.5525
G01 X0.1737 Y14.5753
G01 X0.2135 Y14.5932
G01 X0.2582 Y14.6121
G01 X0.3137 Y14.6342
G01 X0.3549 Y14.6495
G01 X0.3928 Y14.6628
G01 X0.4441 Y14.6797
G01 X0.4931 Y14.6945
G01 X0.5452 Y14.7090
G01 X0.5842 Y14.7189
G01 X0.6262 Y14.7288
G01 X0.6764 Y14.7396
G01 X0.7258 Y14.7490
G01 X0.7671 Y14.7560
G01 X0.8191 Y14.7638
G01 X0.8599 Y14.7691
G01 X0.9090 Y14.7743
G01 X0.9608 Y14.7787
G01 X1.0136 Y14.7821
G01 X1.0665 Y14.7842
G01 X1.1300 Y14.7851
G01 X11.1300 Y14.7851
G01 X11.1964 Y14.7841
G01 X11.2612 Y14.7813
G01 X11.3281 Y14.7764
G01 X11.3662 Y14.7728
G01 X11.4001 Y14.7691
G01 X11.4527 Y14.7622
G01 X11.5027 Y14.7544
G01 X11.5590 Y14.7444
G01 X11.6084 Y14.7344
G01 X11.6496 Y14.7252
G01 X11.7028 Y14.7121
G01 X11.7522 Y14.6987
G01 X11.8041 Y14.6833
G01 X11.8422 Y14.6712
G01 X11.8962 Y14.6527
G01 X11.9463 Y14.6342
G01 X12.0018 Y14.6121
G01 X12.0465 Y14.5932
G01 X12.0990 Y14.5694
G01 X12.1342 Y14.5525
G01 X12.1888 Y14.5249
G01 X12.2347 Y14.5002
G01 X12.2786 Y14.4754
G01 X12.3237 Y14.4484
G01 X12.3604 Y14.4255
G01 X12.4020 Y14.3983
G01 X12.4490 Y14.3659
G01 X12.4930 Y14.3340
G01 X12.5302 Y14.3058
G01 X12.5707 Y14.2736
G01 X12.6130 Y14.2384
G01 X12.6523 Y14.2041
G01 X12.6901 Y14.1696
G01 X12.7323 Y14.1291
G01 X12.7592 Y14.1023
G01 X12.7939 Y14.0662
G01 X12.8341 Y14.0223
G01 X12.8683 Y13.9832
G01 X12.9036 Y13.9407
G01 X12.9358 Y13.9002
G01 X12.9640 Y13.8630
G01 X12.9943 Y13.8212
G01 X13.0226 Y13.7804
G01 X13.0555 Y13.7304
G01 X13.0784 Y13.6937
G01 X13.1055 Y13.6485
G01 X13.1317 Y13.6022
G01 X13.1599 Y13.5492
G01 X13.1825 Y13.5043
G01 X13.2053 Y13.4563
G01 X13.2230 Y13.4169
G01 X13.2421 Y13.3718
G01 X13.2642 Y13.3163
G01 X13.2827 Y13.2662
G01 X13.3011 Y13.2125
G01 X13.3133 Y13.1741
G01 X13.3287 Y13.1224
G01 X13.3429 Y13.0699
G01 X13.3552 Y13.0196
G01 X13.3644 Y12.9784
G01 X13.3744 Y12.9291
G01 X13.3844 Y12.8727
G01 X13.3922 Y12.8227
G01 X13.3991 Y12.7700
G01 X13.4043 Y12.7210
G01 X13.4087 Y12.6692
G01 X13.4121 Y12.6163
G01 X13.4142 Y12.5635
G01 X13.4149 Y12.5128
G00 Z15.0000
G00 X29.4149 Y12.5127
G01 F450.00
G01 Z-0.5500
G01 F450.00
G01 X29.4151 Y1.5000
G01 X29.4141 Y1.4336
G01 X29.4113 Y1.3688
G01 X29.4073 Y1.3129
G01 X29.4028 Y1.2638
G01 X29.3954 Y1.2009
G01 X29.3882 Y1.1510
G01 X29.3807 Y1.1055
G01 X29.3696 Y1.0464
G01 X29.3582 Y0.9931
G01 X29.3421 Y0.9272
G01 X29.3253 Y0.8659
G01 X29.3096 Y0.8140
G01 X29.2897 Y0.7538
G01 X29.2747 Y0.7117
G01 X29.2594 Y0.6712
G01 X29.2376 Y0.6172
G01 X29.2164 Y0.5682
G01 X29.1890 Y0.5091
G01 X29.1611 Y0.4531
G01 X29.1375 Y0.4086
G01 X29.1054 Y0.3514
G01 X29.0784 Y0.3063
G01 X29.0555 Y0.2696
G01 X29.0227 Y0.2197
G01 X28.9876 Y0.1694
G01 X28.9554 Y0.1255
G01 X28.9217 Y0.0819
G01 X28.8866 Y0.0386
G01 X28.8509 Y-0.0033
G01 X28.8149 Y-0.0434
G01 X28.7711 Y-0.0901
G01 X28.7323 Y-0.1292
G01 X28.6962 Y-0.1639
G01 X28.6546 Y-0.2021
G01 X28.6131 Y-0.2383
G01 X28.5816 Y-0.2647
G01 X28.5481 Y-0.2917
G01 X28.5045 Y-0.3254
G01 X28.4606 Y-0.3576
G01 X28.4300 Y-0.3791
G01 X28.3917 Y-0.4051
G01 X28.3464 Y-0.4344
G01 X28.3015 Y-0.4619
G01 X28.2683 Y-0.4813
G01 X28.2214 Y-0.5076
G01 X28.1769 Y-0.5311
G01 X28.1344 Y-0.5525
G01 X28.0863 Y-0.5753
G01 X28.0466 Y-0.5931
G01 X28.0018 Y-0.6121
G01 X27.9463 Y-0.6342
G01 X27.9051 Y-0.6495
G01 X27.8672 Y-0.6628
G01 X27.8159 Y-0.6797
G01 X27.7641 Y-0.6953
G01 X27.7148 Y-0.7090
G01 X27.6758 Y-0.7189
G01 X27.6338 Y-0.7288
G01 X27.5836 Y-0.7396
G01 X27.5342 Y-0.7490
G01 X27.4929 Y-0.7560
G01 X27.4409 Y-0.7638
G01 X27.4001 Y-0.7691
G01 X27.3510 Y-0.7743
G01 X27.2992 Y-0.7787
G01 X27.2464 Y-0.7821
G01 X27.1935 Y-0.7842
G01 X27.1300 Y-0.7851
G01 X17.1045 Y-0.7849
G01 X17.0516 Y-0.7837
G01 X16.9868 Y-0.7805
G01 X16.9319 Y-0.7764
G01 X16.8750 Y-0.7708
G01 X16.8191 Y-0.7638
G01 X16.7573 Y-0.7544
G01 X16.7010 Y-0.7444
G01 X16.6389 Y-0.7317
G01 X16.5842 Y-0.7189
G01 X16.5333 Y-0.7058
G01 X16.4812 Y-0.6910
G01 X16.4178 Y-0.6712
G01 X16.3639 Y-0.6527
G01 X16.3291 Y-0.6401
G01 X16.3012 Y-0.6294
G01 X16.2472 Y-0.6076
G01 X16.2135 Y-0.5932
G01 X16.1858 Y-0.5808
G01 X16.1365 Y-0.5578
G01 X16.0808 Y-0.5299
G01 X16.0253 Y-0.5002
G01 X15.9711 Y-0.4694
G01 X15.9136 Y-0.4344
G01 X15.8683 Y-0.4051
G01 X15.8205 Y-0.3726
G01 X15.7786 Y-0.3426
G01 X15.7412 Y-0.3146
G01 X15.6893 Y-0.2736
G01 X15.6470 Y-0.2385
G01 X15.5960 Y-0.1936
G01 X15.5562 Y-0.1567
G01 X15.5128 Y-0.1144
G01 X15.4675 Y-0.0676
G01 X15.4279 Y-0.0246
G01 X15.3917 Y0.0168
G01 X15.3653 Y0.0484
G01 X15.3384 Y0.0818
G01 X15.3046 Y0.1255
G01 X15.2722 Y0.1696
G01 X15.2509 Y0.2000
G01 X15.2247 Y0.2385
G01 X15.1956 Y0.2836
G01 X15.1682 Y0.3283
G01 X15.1487 Y0.3617
G01 X15.1224 Y0.4087
G01 X15.0989 Y0.4531
G01 X15.0776 Y0.4955
G01 X15.0547 Y0.5437
G01 X15.0369 Y0.5833
G01 X15.0179 Y0.6282
G01 X14.9958 Y0.6837
G01 X14.9805 Y0.7249
G01 X14.9672 Y0.7628
G01 X14.9503 Y0.8141
G01 X14.9347 Y0.8659
G01 X14.9210 Y0.9153
G01 X14.9111 Y0.9542
G01 X14.9012 Y0.9962
G01 X14.8904 Y1.0465
G01 X14.8810 Y1.0958
G01 X14.8740 Y1.1371
G01 X14.8662 Y1.1890
G01 X14.8609 Y1.2300
G01 X14.8557 Y1.2790
G01 X14.8519 Y1.3220
G01 X14.8479 Y1.3837
G01 X14.8458 Y1.4365
G01 X14.8449 Y1.5000
G01 X14.8451 Y12.5255
G01 X14.8463 Y12.5783
G01 X14.8495 Y12.6433
G01 X14.8536 Y12.6984
G01 X14.8592 Y12.7550
G01 X14.8662 Y12.8108
G01 X14.8756 Y12.8727
G01 X14.8856 Y12.9291
G01 X14.8983 Y12.9910
G01 X14.9111 Y13.0458
G01 X14.9242 Y13.0967
G01 X14.9390 Y13.1487
G01 X14.9589 Y13.2125
G01 X14.9773 Y13.2662
G01 X14.9899 Y13.3008
G01 X15.0007 Y13.3289
G01 X15.0224 Y13.3827
G01 X15.0490 Y13.4439
G01 X15.0722 Y13.4935
G01 X15.1001 Y13.5492
G01 X15.1298 Y13.6047
G01 X15.1606 Y13.6589
G01 X15.1956 Y13.7164
G01 X15.2250 Y13.7618
G01 X15.2575 Y13.8096
G01 X15.2874 Y13.8514
G01 X15.3154 Y13.8887
G01 X15.3564 Y13.9407
G01 X15.3917 Y13.9832
G01 X15.4174 Y14.0128
G01 X15.4366 Y14.0342
G01 X15.4733 Y14.0737
G01 X15.5156 Y14.1172
G01 X15.5624 Y14.1625
G01 X15.6054 Y14.2021
G01 X15.6470 Y14.2384
G01 X15.6784 Y14.2647
G01 X15.7119 Y14.2917
G01 X15.7555 Y14.3254
G01 X15.7993 Y14.3576
G01 X15.8300 Y14.3791
G01 X15.8683 Y14.4051
G01 X15.9136 Y14.4344
G01 X15.9584 Y14.4618
G01 X15.9917 Y14.4813
G01 X16.0386 Y14.5075
G01 X16.0831 Y14.5311
G01 X16.1258 Y14.5525
G01 X16.1737 Y14.5753
G01 X16.2135 Y14.5932
G01 X16.2582 Y14.6121
G01 X16.3137 Y14.6342
G01 X16.3549 Y14.6495
G01 X16.3928 Y14.6628
G01 X16.4441 Y14.6797
G01 X16.4931 Y14.6945
G01 X16.5452 Y14.7090
G01 X16.5842 Y14.7189
G01 X16.6262 Y14.7288
G01 X16.6764 Y14.7396
G01 X16.7258 Y14.7490
G01 X16.7671 Y14.7560
G01 X16.8191 Y14.7638
G01 X16.8599 Y14.7691
G01 X16.9090 Y14.7743
G01 X16.9608 Y14.7787
G01 X17.0136 Y14.7821
G01 X17.0665 Y14.7842
G01 X17.1300 Y14.7851
G01 X27.1300 Y14.7851
G01 X27.1964 Y14.7841
G01 X27.2612 Y14.7813
G01 X27.3281 Y14.7764
G01 X27.3662 Y14.7728
G01 X27.4001 Y14.7691
G01 X27.4527 Y14.7622
G01 X27.5026 Y14.7544
G01 X27.5590 Y14.7444
G01 X27.6084 Y14.7344
G01 X27.6496 Y14.7252
G01 X27.7028 Y14.7121
G01 X27.7522 Y14.6987
G01 X27.8041 Y14.6833
G01 X27.8422 Y14.6712
G01 X27.8962 Y14.6527
G01 X27.9463 Y14.6342
G01 X28.0018 Y14.6121
G01 X28.0467 Y14.5931
G01 X28.0990 Y14.5694
G01 X28.1343 Y14.5525
G01 X28.1887 Y14.5250
G01 X28.2347 Y14.5002
G01 X28.2785 Y14.4754
G01 X28.3237 Y14.4484
G01 X28.3603 Y14.4256
G01 X28.4020 Y14.3983
G01 X28.4490 Y14.3659
G01 X28.4930 Y14.3341
G01 X28.5302 Y14.3058
G01 X28.5707 Y14.2736
G01 X28.6131 Y14.2384
G01 X28.6523 Y14.2041
G01 X28.6899 Y14.1697
G01 X28.7323 Y14.1292
G01 X28.7592 Y14.1023
G01 X28.7939 Y14.0662
G01 X28.8341 Y14.0223
G01 X28.8684 Y13.9831
G01 X28.9036 Y13.9407
G01 X28.9358 Y13.9002
G01 X28.9641 Y13.8630
G01 X28.9943 Y13.8212
G01 X29.0227 Y13.7802
G01 X29.0555 Y13.7304
G01 X29.0784 Y13.6937
G01 X29.1054 Y13.6485
G01 X29.1317 Y13.6022
G01 X29.1599 Y13.5492
G01 X29.1825 Y13.5043
G01 X29.2053 Y13.4563
G01 X29.2231 Y13.4166
G01 X29.2457 Y13.3630
G01 X29.2642 Y13.3163
G01 X29.2827 Y13.2662
G01 X29.3012 Y13.2122
G01 X29.3174 Y13.1607
G01 X29.3288 Y13.1221
G01 X29.3429 Y13.0699
G01 X29.3553 Y13.0195
G01 X29.3644 Y12.9784
G01 X29.3744 Y12.9289
G01 X29.3844 Y12.8726
G01 X29.3922 Y12.8227
G01 X29.3991 Y12.7701
G01 X29.4043 Y12.7210
G01 X29.4081 Y12.6780
G01 X29.4121 Y12.6165
G01 X29.4142 Y12.5635
G01 X29.4149 Y12.5127
G00 X29.4149 Y12.5127
G01 F450.00
G01 Z-1.1000
G01 F450.00
G01 X29.4151 Y1.5000
G01 X29.4141 Y1.4336
G01 X29.4113 Y1.3688
G01 X29.4073 Y1.3129
G01 X29.4028 Y1.2638
G01 X29.3954 Y1.2009
G01 X29.3882 Y1.1510
G01 X29.3807 Y1.1055
G01 X29.3696 Y1.0464
G01 X29.3582 Y0.9931
G01 X29.3421 Y0.9272
G01 X29.3253 Y0.8659
G01 X29.3096 Y0.8140
G01 X29.2897 Y0.7538
G01 X29.2747 Y0.7117
G01 X29.2594 Y0.6712
G01 X29.2376 Y0.6172
G01 X29.2164 Y0.5682
G01 X29.1890 Y0.5091
G01 X29.1611 Y0.4531
G01 X29.1375 Y0.4086
G01 X29.1054 Y0.3514
G01 X29.0784 Y0.3063
G01 X29.0555 Y0.2696
G01 X29.0227 Y0.2197
G01 X28.9876 Y0.1694
G01 X28.9554 Y0.1255
G01 X28.9217 Y0.0819
G01 X28.8866 Y0.0386
G01 X28.8509 Y-0.0033
G01 X28.8149 Y-0.0434
G01 X28.7711 Y-0.0901
G01 X28.7323 Y-0.1292
G01 X28.6962 Y-0.1639
G01 X28.6546 Y-0.2021
G01 X28.6131 Y-0.2383
G01 X28.5816 Y-0.2647
G01 X28.5481 Y-0.2917
G01 X28.5045 Y-0.3254
G01 X28.4606 Y-0.3576
G01 X28.4300 Y-0.3791
G01 X28.3917 Y-0.4051
G01 X28.3464 Y-0.4344
G01 X28.3015 Y-0.4619
G01 X28.2683 Y-0.4813
G01 X28.2214 Y-0.5076
G01 X28.1769 Y-0.5311
G01 X28.1344 Y-0.5525
G01 X28.0863 Y-0.5753
G01 X28.0466 Y-0.5931
G01 X28.0018 Y-0.6121
G01 X27.9463 Y-0.6342
G01 X27.9051 Y-0.6495
G01 X27.8672 Y-0.6628
G01 X27.8159 Y-0.6797
G01 X27.7641 Y-0.6953
G01 X27.7148 Y-0.7090
G01 X27.6758 Y-0.7189
G01 X27.6338 Y-0.7288
G01 X27.5836 Y-0.7396
G01 X27.5342 Y-0.7490
G01 X27.4929 Y-0.7560
G01 X27.4409 Y-0.7638
G01 X27.4001 Y-0.7691
G01 X27.3510 Y-0.7743
G01 X27.2992 Y-0.7787
G01 X27.2464 Y-0.7821
G01 X27.1935 Y-0.7842
G01 X27.1300 Y-0.7851
G01 X17.1045 Y-0.7849
G01 X17.0516 Y-0.7837
G01 X16.9868 Y-0.7805
G01 X16.9319 Y-0.7764
G01 X16.8750 Y-0.7708
G01 X16.8191 Y-0.7638
G01 X16.7573 Y-0.7544
G01 X16.7010 Y-0.7444
G01 X16.6389 Y-0.7317
G01 X16.5842 Y-0.7189
G01 X16.5333 Y-0.7058
G01 X16.4812 Y-0.6910
G01 X16.4178 Y-0.6712
G01 X16.3639 Y-0.6527
G01 X16.3291 Y-0.6401
G01 X16.3012 Y-0.6294
G01 X16.2472 Y-0.6076
G01 X16.2135 Y-0.5932
G01 X16.1858 Y-0.5808
G01 X16.1365 Y-0.5578
G01 X16.0808 Y-0.5299
G01 X16.0253 Y-0.5002
G01 X15.9711 Y-0.4694
G01 X15.9136 Y-0.4344
G01 X15.8683 Y-0.4051
G01 X15.8205 Y-0.3726
G01 X15.7786 Y-0.3426
G01 X15.7412 Y-0.3146
G01 X15.6893 Y-0.2736
G01 X15.6470 Y-0.2385
G01 X15.5960 Y-0.1936
G01 X15.5562 Y-0.1567
G01 X15.5128 Y-0.1144
G01 X15.4675 Y-0.0676
G01 X15.4279 Y-0.0246
G01 X15.3917 Y0.0168
G01 X15.3653 Y0.0484
G01 X15.3384 Y0.0818
G01 X15.3046 Y0.1255
G01 X15.2722 Y0.1696
G01 X15.2509 Y0.2000
G01 X15.2247 Y0.2385
G01 X15.1956 Y0.2836
G01 X15.1682 Y0.3283
G01 X15.1487 Y0.3617
G01 X15.1224 Y0.4087
G01 X15.0989 Y0.4531
G01 X15.0776 Y0.4955
G01 X15.0547 Y0.5437
G01 X15.0369 Y0.5833
G01 X15.0179 Y0.6282
G01 X14.9958 Y0.6837
G01 X14.9805 Y0.7249
G01 X14.9672 Y0.7628
G01 X14.9503 Y0.8141
G01 X14.9347 Y0.8659
G01 X14.9210 Y0.9153
G01 X14.9111 Y0.9542
G01 X14.9012 Y0.9962
G01 X14.8904 Y1.0465
G01 X14.8810 Y1.0958
G01 X14.8740 Y1.1371
G01 X14.8662 Y1.1890
G01 X14.8609 Y1.2300
G01 X14.8557 Y1.2790
G01 X14.8519 Y1.3220
G01 X14.8479 Y1.3837
G01 X14.8458 Y1.4365
G01 X14.8449 Y1.5000
G01 X14.8451 Y12.5255
G01 X14.8463 Y12.5783
G01 X14.8495 Y12.6433
G01 X14.8536 Y12.6984
G01 X14.8592 Y12.7550
G01 X14.8662 Y12.8108
G01 X14.8756 Y12.8727
G01 X14.8856 Y12.9291
G01 X14.8983 Y12.9910
G01 X14.9111 Y13.0458
G01 X14.9242 Y13.0967
G01 X14.9390 Y13.1487
G01 X14.9589 Y13.2125
G01 X14.9773 Y13.2662
G01 X14.9899 Y13.3008
G01 X15.0007 Y13.3289
G01 X15.0224 Y13.3827
G01 X15.0490 Y13.4439
G01 X15.0722 Y13.4935
G01 X15.1001 Y13.5492
G01 X15.1298 Y13.6047
G01 X15.1606 Y13.6589
G01 X15.1956 Y13.7164
G01 X15.2250 Y13.7618
G01 X15.2575 Y13.8096
G01 X15.2874 Y13.8514
G01 X15.3154 Y13.8887
G01 X15.3564 Y13.9407
G01 X15.3917 Y13.9832
G01 X15.4174 Y14.0128
G01 X15.4366 Y14.0342
G01 X15.4733 Y14.0737
G01 X15.5156 Y14.1172
G01 X15.5624 Y14.1625
G01 X15.6054 Y14.2021
G01 X15.6470 Y14.2384
G01 X15.6784 Y14.2647
G01 X15.7119 Y14.2917
G01 X15.7555 Y14.3254
G01 X15.7993 Y14.3576
G01 X15.8300 Y14.3791
G01 X15.8683 Y14.4051
G01 X15.9136 Y14.4344
G01 X15.9584 Y14.4618
G01 X15.9917 Y14.4813
G01 X16.0386 Y14.5075
G01 X16.0831 Y14.5311
G01 X16.1258 Y14.5525
G01 X16.1737 Y14.5753
G01 X16.2135 Y14.5932
G01 X16.2582 Y14.6121
G01 X16.3137 Y14.6342
G01 X16.3549 Y14.6495
G01 X16.3928 Y14.6628
G01 X16.4441 Y14.6797
G01 X16.4931 Y14.6945
G01 X16.5452 Y14.7090
G01 X16.5842 Y14.7189
G01 X16.6262 Y14.7288
G01 X16.6764 Y14.7396
G01 X16.7258 Y14.7490
G01 X16.7671 Y14.7560
G01 X16.8191 Y14.7638
G01 X16.8599 Y14.7691
G01 X16.9090 Y14.7743
G01 X16.9608 Y14.7787
G01 X17.0136 Y14.7821
G01 X17.0665 Y14.7842
G01 X17.1300 Y14.7851
G01 X27.1300 Y14.7851
G01 X27.1964 Y14.7841
G01 X27.2612 Y14.7813
G01 X27.3281 Y14.7764
G01 X27.3662 Y14.7728
G01 X27.4001 Y14.7691
G01 X27.4527 Y14.7622
G01 X27.5026 Y14.7544
G01 X27.5590 Y14.7444
G01 X27.6084 Y14.7344
G01 X27.6496 Y14.7252
G01 X27.7028 Y14.7121
G01 X27.7522 Y14.6987
G01 X27.8041 Y14.6833
G01 X27.8422 Y14.6712
G01 X27.8962 Y14.6527
G01 X27.9463 Y14.6342
G01 X28.0018 Y14.6121
G01 X28.0467 Y14.5931
G01 X28.0990 Y14.5694
G01 X28.1343 Y14.5525
G01 X28.1887 Y14.5250
G01 X28.2347 Y14.5002
G01 X28.2785 Y14.4754
G01 X28.3237 Y14.4484
G01 X28.3603 Y14.4256
G01 X28.4020 Y14.3983
G01 X28.4490 Y14.3659
G01 X28.4930 Y14.3341
G01 X28.5302 Y14.3058
G01 X28.5707 Y14.2736
G01 X28.6131 Y14.2384
G01 X28.6523 Y14.2041
G01 X28.6899 Y14.1697
G01 X28.7323 Y14.1292
G01 X28.7592 Y14.1023
G01 X28.7939 Y14.0662
G01 X28.8341 Y14.0223
G01 X28.8684 Y13.9831
G01 X28.9036 Y13.9407
G01 X28.9358 Y13.9002
G01 X28.9641 Y13.8630
G01 X28.9943 Y13.8212
G01 X29.0227 Y13.7802
G01 X29.0555 Y13.7304
G01 X29.0784 Y13.6937
G01 X29.1054 Y13.6485
G01 X29.1317 Y13.6022
G01 X29.1599 Y13.5492
G01 X29.1825 Y13.5043
G01 X29.2053 Y13.4563
G01 X29.2231 Y13.4166
G01 X29.2457 Y13.3630
G01 X29.2642 Y13.3163
G01 X29.2827 Y13.2662
G01 X29.3012 Y13.2122
G01 X29.3174 Y13.1607
G01 X29.3288 Y13.1221
G01 X29.3429 Y13.0699
G01 X29.3553 Y13.0195
G01 X29.3644 Y12.9784
G01 X29.3744 Y12.9289
G01 X29.3844 Y12.8726
G01 X29.3922 Y12.8227
G01 X29.3991 Y12.7701
G01 X29.4043 Y12.7210
G01 X29.4081 Y12.6780
G01 X29.4121 Y12.6165
G01 X29.4142 Y12.5635
G01 X29.4149 Y12.5127
G00 X29.4149 Y12.5127
G01 F450.00
G01 Z-1.6500
G01 F450.00
G01 X29.4151 Y1.5000
G01 X29.4141 Y1.4336
G01 X29.4113 Y1.3688
G01 X29.4073 Y1.3129
G01 X29.4028 Y1.2638
G01 X29.3954 Y1.2009
G01 X29.3882 Y1.1510
G01 X29.3807 Y1.1055
G01 X29.3696 Y1.0464
G01 X29.3582 Y0.9931
G01 X29.3421 Y0.9272
G01 X29.3253 Y0.8659
G01 X29.3096 Y0.8140
G01 X29.2897 Y0.7538
G01 X29.2747 Y0.7117
G01 X29.2594 Y0.6712
G01 X29.2376 Y0.6172
G01 X29.2164 Y0.5682
G01 X29.1890 Y0.5091
G01 X29.1611 Y0.4531
G01 X29.1375 Y0.4086
G01 X29.1054 Y0.3514
G01 X29.0784 Y0.3063
G01 X29.0555 Y0.2696
G01 X29.0227 Y0.2197
G01 X28.9876 Y0.1694
G01 X28.9554 Y0.1255
G01 X28.9217 Y0.0819
G01 X28.8866 Y0.0386
G01 X28.8509 Y-0.0033
G01 X28.8149 Y-0.0434
G01 X28.7711 Y-0.0901
G01 X28.7323 Y-0.1292
G01 X28.6962 Y-0.1639
G01 X28.6546 Y-0.2021
G01 X28.6131 Y-0.2383
G01 X28.5816 Y-0.2647
G01 X28.5481 Y-0.2917
G01 X28.5045 Y-0.3254
G01 X28.4606 Y-0.3576
G01 X28.4300 Y-0.3791
G01 X28.3917 Y-0.4051
G01 X28.3464 Y-0.4344
G01 X28.3015 Y-0.4619
G01 X28.2683 Y-0.4813
G01 X28.2214 Y-0.5076
G01 X28.1769 Y-0.5311
G01 X28.1344 Y-0.5525
G01 X28.0863 Y-0.5753
G01 X28.0466 Y-0.5931
G01 X28.0018 Y-0.6121
G01 X27.9463 Y-0.6342
G01 X27.9051 Y-0.6495
G01 X27.8672 Y-0.6628
G01 X27.8159 Y-0.6797
G01 X27.7641 Y-0.6953
G01 X27.7148 Y-0.7090
G01 X27.6758 Y-0.7189
G01 X27.6338 Y-0.7288
G01 X27.5836 Y-0.7396
G01 X27.5342 Y-0.7490
G01 X27.4929 Y-0.7560
G01 X27.4409 Y-0.7638
G01 X27.4001 Y-0.7691
G01 X27.3510 Y-0.7743
G01 X27.2992 Y-0.7787
G01 X27.2464 Y-0.7821
G01 X27.1935 Y-0.7842
G01 X27.1300 Y-0.7851
G01 X17.1045 Y-0.7849
G01 X17.0516 Y-0.7837
G01 X16.9868 Y-0.7805
G01 X16.9319 Y-0.7764
G01 X16.8750 Y-0.7708
G01 X16.8191 Y-0.7638
G01 X16.7573 Y-0.7544
G01 X16.7010 Y-0.7444
G01 X16.6389 Y-0.7317
G01 X16.5842 Y-0.7189
G01 X16.5333 Y-0.7058
G01 X16.4812 Y-0.6910
G01 X16.4178 Y-0.6712
G01 X16.3639 Y-0.6527
G01 X16.3291 Y-0.6401
G01 X16.3012 Y-0.6294
G01 X16.2472 Y-0.6076
G01 X16.2135 Y-0.5932
G01 X16.1858 Y-0.5808
G01 X16.1365 Y-0.5578
G01 X16.0808 Y-0.5299
G01 X16.0253 Y-0.5002
G01 X15.9711 Y-0.4694
G01 X15.9136 Y-0.4344
G01 X15.8683 Y-0.4051
G01 X15.8205 Y-0.3726
G01 X15.7786 Y-0.3426
G01 X15.7412 Y-0.3146
G01 X15.6893 Y-0.2736
G01 X15.6470 Y-0.2385
G01 X15.5960 Y-0.1936
G01 X15.5562 Y-0.1567
G01 X15.5128 Y-0.1144
G01 X15.4675 Y-0.0676
G01 X15.4279 Y-0.0246
G01 X15.3917 Y0.0168
G01 X15.3653 Y0.0484
G01 X15.3384 Y0.0818
G01 X15.3046 Y0.1255
G01 X15.2722 Y0.1696
G01 X15.2509 Y0.2000
G01 X15.2247 Y0.2385
G01 X15.1956 Y0.2836
G01 X15.1682 Y0.3283
G01 X15.1487 Y0.3617
G01 X15.1224 Y0.4087
G01 X15.0989 Y0.4531
G01 X15.0776 Y0.4955
G01 X15.0547 Y0.5437
G01 X15.0369 Y0.5833
G01 X15.0179 Y0.6282
G01 X14.9958 Y0.6837
G01 X14.9805 Y0.7249
G01 X14.9672 Y0.7628
G01 X14.9503 Y0.8141
G01 X14.9347 Y0.8659
G01 X14.9210 Y0.9153
G01 X14.9111 Y0.9542
G01 X14.9012 Y0.9962
G01 X14.8904 Y1.0465
G01 X14.8810 Y1.0958
G01 X14.8740 Y1.1371
G01 X14.8662 Y1.1890
G01 X14.8609 Y1.2300
G01 X14.8557 Y1.2790
G01 X14.8519 Y1.3220
G01 X14.8479 Y1.3837
G01 X14.8458 Y1.4365
G01 X14.8449 Y1.5000
G01 X14.8451 Y12.5255
G01 X14.8463 Y12.5783
G01 X14.8495 Y12.6433
G01 X14.8536 Y12.6984
G01 X14.8592 Y12.7550
G01 X14.8662 Y12.8108
G01 X14.8756 Y12.8727
G01 X14.8856 Y12.9291
G01 X14.8983 Y12.9910
G01 X14.9111 Y13.0458
G01 X14.9242 Y13.0967
G01 X14.9390 Y13.1487
G01 X14.9589 Y13.2125
G01 X14.9773 Y13.2662
G01 X14.9899 Y13.3008
G01 X15.0007 Y13.3289
G01 X15.0224 Y13.3827
G01 X15.0490 Y13.4439
G01 X15.0722 Y13.4935
G01 X15.1001 Y13.5492
G01 X15.1298 Y13.6047
G01 X15.1606 Y13.6589
G01 X15.1956 Y13.7164
G01 X15.2250 Y13.7618
G01 X15.2575 Y13.8096
G01 X15.2874 Y13.8514
G01 X15.3154 Y13.8887
G01 X15.3564 Y13.9407
G01 X15.3917 Y13.9832
G01 X15.4174 Y14.0128
G01 X15.4366 Y14.0342
G01 X15.4733 Y14.0737
G01 X15.5156 Y14.1172
G01 X15.5624 Y14.1625
G01 X15.6054 Y14.2021
G01 X15.6470 Y14.2384
G01 X15.6784 Y14.2647
G01 X15.7119 Y14.2917
G01 X15.7555 Y14.3254
G01 X15.7993 Y14.3576
G01 X15.8300 Y14.3791
G01 X15.8683 Y14.4051
G01 X15.9136 Y14.4344
G01 X15.9584 Y14.4618
G01 X15.9917 Y14.4813
G01 X16.0386 Y14.5075
G01 X16.0831 Y14.5311
G01 X16.1258 Y14.5525
G01 X16.1737 Y14.5753
G01 X16.2135 Y14.5932
G01 X16.2582 Y14.6121
G01 X16.3137 Y14.6342
G01 X16.3549 Y14.6495
G01 X16.3928 Y14.6628
G01 X16.4441 Y14.6797
G01 X16.4931 Y14.6945
G01 X16.5452 Y14.7090
G01 X16.5842 Y14.7189
G01 X16.6262 Y14.7288
G01 X16.6764 Y14.7396
G01 X16.7258 Y14.7490
G01 X16.7671 Y14.7560
G01 X16.8191 Y14.7638
G01 X16.8599 Y14.7691
G01 X16.9090 Y14.7743
G01 X16.9608 Y14.7787
G01 X17.0136 Y14.7821
G01 X17.0665 Y14.7842
G01 X17.1300 Y14.7851
G01 X27.1300 Y14.7851
G01 X27.1964 Y14.7841
G01 X27.2612 Y14.7813
G01 X27.3281 Y14.7764
G01 X27.3662 Y14.7728
G01 X27.4001 Y14.7691
G01 X27.4527 Y14.7622
G01 X27.5026 Y14.7544
G01 X27.5590 Y14.7444
G01 X27.6084 Y14.7344
G01 X27.6496 Y14.7252
G01 X27.7028 Y14.7121
G01 X27.7522 Y14.6987
G01 X27.8041 Y14.6833
G01 X27.8422 Y14.6712
G01 X27.8962 Y14.6527
G01 X27.9463 Y14.6342
G01 X28.0018 Y14.6121
G01 X28.0467 Y14.5931
G01 X28.0990 Y14.5694
G01 X28.1343 Y14.5525
G01 X28.1887 Y14.5250
G01 X28.2347 Y14.5002
G01 X28.2785 Y14.4754
G01 X28.3237 Y14.4484
G01 X28.3603 Y14.4256
G01 X28.4020 Y14.3983
G01 X28.4490 Y14.3659
G01 X28.4930 Y14.3341
G01 X28.5302 Y14.3058
G01 X28.5707 Y14.2736
G01 X28.6131 Y14.2384
G01 X28.6523 Y14.2041
G01 X28.6899 Y14.1697
G01 X28.7323 Y14.1292
G01 X28.7592 Y14.1023
G01 X28.7939 Y14.0662
G01 X28.8341 Y14.0223
G01 X28.8684 Y13.9831
G01 X28.9036 Y13.9407
G01 X28.9358 Y13.9002
G01 X28.9641 Y13.8630
G01 X28.9943 Y13.8212
G01 X29.0227 Y13.7802
G01 X29.0555 Y13.7304
G01 X29.0784 Y13.6937
G01 X29.1054 Y13.6485
G01 X29.1317 Y13.6022
G01 X29.1599 Y13.5492
G01 X29.1825 Y13.5043
G01 X29.2053 Y13.4563
G01 X29.2231 Y13.4166
G01 X29.2457 Y13.3630
G01 X29.2642 Y13.3163
G01 X29.2827 Y13.2662
G01 X29.3012 Y13.2122
G01 X29.3174 Y13.1607
G01 X29.3288 Y13.1221
G01 X29.3429 Y13.0699
G01 X29.3553 Y13.0195
G01 X29.3644 Y12.9784
G01 X29.3744 Y12.9289
G01 X29.3844 Y12.8726
G01 X29.3922 Y12.8227
G01 X29.3991 Y12.7701
G01 X29.4043 Y12.7210
G01 X29.4081 Y12.6780
G01 X29.4121 Y12.6165
G01 X29.4142 Y12.5635
G01 X29.4149 Y12.5127
G00 Z15.0000
G00 X45.4149 Y12.5127
G01 F450.00
G01 Z-0.5500
G01 F450.00
G01 X45.4151 Y1.5000
G01 X45.4141 Y1.4336
G01 X45.4113 Y1.3688
G01 X45.4073 Y1.3129
G01 X45.4028 Y1.2638
G01 X45.3954 Y1.2009
G01 X45.3882 Y1.1510
G01 X45.3807 Y1.1055
G01 X45.3696 Y1.0464
G01 X45.3582 Y0.9931
G01 X45.3421 Y0.9272
G01 X45.3253 Y0.8659
G01 X45.3096 Y0.8140
G01 X45.2897 Y0.7538
G01 X45.2747 Y0.7117
G01 X45.2594 Y0.6712
G01 X45.2376 Y0.6172
G01 X45.2164 Y0.5682
G01 X45.1890 Y0.5091
G01 X45.1611 Y0.4531
G01 X45.1375 Y0.4086
G01 X45.1054 Y0.3514
G01 X45.0784 Y0.3063
G01 X45.0555 Y0.2696
G01 X45.0227 Y0.2197
G01 X44.9876 Y0.1694
G01 X44.9554 Y0.1255
G01 X44.9217 Y0.0819
G01 X44.8866 Y0.0386
G01 X44.8509 Y-0.0033
G01 X44.8149 Y-0.0434
G01 X44.7711 Y-0.0901
G01 X44.7323 Y-0.1292
G01 X44.6962 Y-0.1639
G01 X44.6546 Y-0.2021
G01 X44.6131 Y-0.2383
G01 X44.5816 Y-0.2647
G01 X44.5481 Y-0.2917
G01 X44.5045 Y-0.3254
G01 X44.4606 Y-0.3576
G01 X44.4300 Y-0.3791
G01 X44.3917 Y-0.4051
G01 X44.3464 Y-0.4344
G01 X44.3015 Y-0.4619
G01 X44.2683 Y-0.4813
G01 X44.2214 Y-0.5076
G01 X44.1769 Y-0.5311
G01 X44.1344 Y-0.5525
G01 X44.0863 Y-0.5753
G01 X44.0466 Y-0.5931
G01 X44.0018 Y-0.6121
G01 X43.9463 Y-0.6342
G01 X43.9051 Y-0.6495
G01 X43.8672 Y-0.6628
G01 X43.8159 Y-0.6797
G01 X43.7641 Y-0.6953
G01 X43.7148 Y-0.7090
G01 X43.6758 Y-0.7189
G01 X43.6338 Y-0.7288
G01 X43.5836 Y-0.7396
G01 X43.5342 Y-0.7490
G01 X43.4929 Y-0.7560
G01 X43.4409 Y-0.7638
G01 X43.4001 Y-0.7691
G01 X43.3510 Y-0.7743
G01 X43.2992 Y-0.7787
G01 X43.2464 Y-0.7821
G01 X43.1935 Y-0.7842
G01 X43.1300 Y-0.7851
G01 X33.1045 Y-0.7849
G01 X33.0516 Y-0.7837
G01 X32.9868 Y-0.7805
G01 X32.9319 Y-0.7764
G01 X32.8750 Y-0.7708
G01 X32.8191 Y-0.7638
G01 X32.7574 Y-0.7544
G01 X32.7010 Y-0.7444
G01 X32.6389 Y-0.7317
G01 X32.5842 Y-0.7189
G01 X32.5333 Y-0.7058
G01 X32.4812 Y-0.6910
G01 X32.4178 Y-0.6712
G01 X32.3638 Y-0.6527
G01 X32.3012 Y-0.6294
G01 X32.2474 Y-0.6076
G01 X32.2134 Y-0.5931
G01 X32.1859 Y-0.5809
G01 X32.1365 Y-0.5578
G01 X32.0808 Y-0.5299
G01 X32.0253 Y-0.5002
G01 X31.9711 Y-0.4694
G01 X31.9136 Y-0.4344
G01 X31.8683 Y-0.4051
G01 X31.8205 Y-0.3726
G01 X31.7786 Y-0.3426
G01 X31.7412 Y-0.3146
G01 X31.6893 Y-0.2736
G01 X31.6469 Y-0.2383
G01 X31.6172 Y-0.2125
G01 X31.5959 Y-0.1935
G01 X31.5562 Y-0.1567
G01 X31.5128 Y-0.1144
G01 X31.4675 Y-0.0676
G01 X31.4279 Y-0.0246
G01 X31.3916 Y0.0169
G01 X31.3653 Y0.0484
G01 X31.3383 Y0.0819
G01 X31.3046 Y0.1255
G01 X31.2724 Y0.1694
G01 X31.2509 Y0.2000
G01 X31.2249 Y0.2383
G01 X31.1956 Y0.2836
G01 X31.1681 Y0.3285
G01 X31.1487 Y0.3617
G01 X31.1225 Y0.4086
G01 X31.0989 Y0.4531
G01 X31.0775 Y0.4957
G01 X31.0547 Y0.5437
G01 X31.0369 Y0.5833
G01 X31.0179 Y0.6282
G01 X30.9958 Y0.6837
G01 X30.9805 Y0.7249
G01 X30.9672 Y0.7628
G01 X30.9504 Y0.8140
G01 X30.9355 Y0.8631
G01 X30.9210 Y0.9152
G01 X30.9111 Y0.9542
G01 X30.9012 Y0.9962
G01 X30.8904 Y1.0464
G01 X30.8810 Y1.0958
G01 X30.8740 Y1.1371
G01 X30.8662 Y1.1892
G01 X30.8610 Y1.2298
G01 X30.8557 Y1.2790
G01 X30.8519 Y1.3219
G01 X30.8479 Y1.3836
G01 X30.8458 Y1.4365
G01 X30.8449 Y1.5000
G01 X30.8451 Y12.5255
G01 X30.8463 Y12.5783
G01 X30.8495 Y12.6431
G01 X30.8536 Y12.6982
G01 X30.8592 Y12.7550
G01 X30.8662 Y12.8108
G01 X30.8756 Y12.8726
G01 X30.8856 Y12.9289
G01 X30.8983 Y12.9911
G01 X30.9111 Y13.0458
G01 X30.9242 Y13.0967
G01 X30.9390 Y13.1488
G01 X30.9588 Y13.2122
G01 X30.9773 Y13.2662
G01 X30.9899 Y13.3009
G01 X31.0006 Y13.3289
G01 X31.0224 Y13.3827
G01 X31.0369 Y13.4166
G01 X31.0491 Y13.4440
G01 X31.0722 Y13.4935
G01 X31.1001 Y13.5492
G01 X31.1298 Y13.6047
G01 X31.1606 Y13.6589
G01 X31.1956 Y13.7164
G01 X31.2248 Y13.7616
G01 X31.2575 Y13.8096
G01 X31.2874 Y13.8514
G01 X31.3154 Y13.8887
G01 X31.3564 Y13.9407
G01 X31.3916 Y13.9831
G01 X31.4175 Y14.0128
G01 X31.4365 Y14.0341
G01 X31.4733 Y14.0738
G01 X31.5156 Y14.1172
G01 X31.5624 Y14.1625
G01 X31.6054 Y14.2021
G01 X31.6469 Y14.2384
G01 X31.6784 Y14.2647
G01 X31.7118 Y14.2916
G01 X31.7555 Y14.3254
G01 X31.7993 Y14.3576
G01 X31.8300 Y14.3791
G01 X31.8684 Y14.4052
G01 X31.9136 Y14.4344
G01 X31.9585 Y14.4619
G01 X31.9917 Y14.4813
G01 X32.0386 Y14.5075
G01 X32.0831 Y14.5311
G01 X32.1257 Y14.5525
G01 X32.1737 Y14.5753
G01 X32.2133 Y14.5931
G01 X32.2582 Y14.6121
G01 X32.3137 Y14.6342
G01 X32.3549 Y14.6495
G01 X32.3928 Y14.6628
G01 X32.4441 Y14.6797
G01 X32.4959 Y14.6953
G01 X32.5453 Y14.7090
G01 X32.5842 Y14.7189
G01 X32.6262 Y14.7288
G01 X32.6764 Y14.7396
G01 X32.7258 Y14.7490
G01 X32.7671 Y14.7560
G01 X32.8191 Y14.7638
G01 X32.8599 Y14.7691
G01 X32.9090 Y14.7743
G01 X32.9608 Y14.7787
G01 X33.0136 Y14.7821
G01 X33.0665 Y14.7842
G01 X33.1300 Y14.7851
G01 X43.1300 Y14.7851
G01 X43.1964 Y14.7841
G01 X43.2612 Y14.7813
G01 X43.3281 Y14.7764
G01 X43.3662 Y14.7728
G01 X43.4001 Y14.7691
G01 X43.4527 Y14.7622
G01 X43.5026 Y14.7544
G01 X43.5590 Y14.7444
G01 X43.6084 Y14.7344
G01 X43.6496 Y14.7252
G01 X43.7028 Y14.7121
G01 X43.7522 Y14.6987
G01 X43.8041 Y14.6833
G01 X43.8422 Y14.6712
G01 X43.8962 Y14.6527
G01 X43.9463 Y14.6342
G01 X44.0018 Y14.6121
G01 X44.0467 Y14.5931
G01 X44.0990 Y14.5694
G01 X44.1343 Y14.5525
G01 X44.1887 Y14.5250
G01 X44.2347 Y14.5002
G01 X44.2785 Y14.4754
G01 X44.3237 Y14.4484
G01 X44.3603 Y14.4256
G01 X44.4020 Y14.3983
G01 X44.4490 Y14.3659
G01 X44.4930 Y14.3341
G01 X44.5302 Y14.3058
G01 X44.5707 Y14.2736
G01 X44.6131 Y14.2384
G01 X44.6523 Y14.2041
G01 X44.6899 Y14.1697
G01 X44.7323 Y14.1292
G01 X44.7592 Y14.1023
G01 X44.7939 Y14.0662
G01 X44.8341 Y14.0223
G01 X44.8684 Y13.9831
G01 X44.9036 Y13.9407
G01 X44.9358 Y13.9002
G01 X44.9641 Y13.8630
G01 X44.9943 Y13.8212
G01 X45.0227 Y13.7802
G01 X45.0555 Y13.7304
G01 X45.0784 Y13.6937
G01 X45.1054 Y13.6485
G01 X45.1317 Y13.6022
G01 X45.1599 Y13.5492
G01 X45.1825 Y13.5043
G01 X45.2053 Y13.4563
G01 X45.2231 Y13.4166
G01 X45.2457 Y13.3630
G01 X45.2642 Y13.3163
G01 X45.2827 Y13.2662
G01 X45.3012 Y13.2122
G01 X45.3174 Y13.1607
G01 X45.3288 Y13.1221
G01 X45.3429 Y13.0699
G01 X45.3553 Y13.0195
G01 X45.3644 Y12.9784
G01 X45.3744 Y12.9289
G01 X45.3844 Y12.8726
G01 X45.3922 Y12.8227
G01 X45.3991 Y12.7701
G01 X45.4043 Y12.7210
G01 X45.4081 Y12.6780
G01 X45.4121 Y12.6165
G01 X45.4142 Y12.5635
G01 X45.4149 Y12.5127
G00 X45.4149 Y12.5127
G01 F450.00
G01 Z-1.1000
G01 F450.00
G01 X45.4151 Y1.5000
G01 X45.4141 Y1.4336
G01 X45.4113 Y1.3688
G01 X45.4073 Y1.3129
G01 X45.4028 Y1.2638
G01 X45.3954 Y1.2009
G01 X45.3882 Y1.1510
G01 X45.3807 Y1.1055
G01 X45.3696 Y1.0464
G01 X45.3582 Y0.9931
G01 X45.3421 Y0.9272
G01 X45.3253 Y0.8659
G01 X45.3096 Y0.8140
G01 X45.2897 Y0.7538
G01 X45.2747 Y0.7117
G01 X45.2594 Y0.6712
G01 X45.2376 Y0.6172
G01 X45.2164 Y0.5682
G01 X45.1890 Y0.5091
G01 X45.1611 Y0.4531
G01 X45.1375 Y0.4086
G01 X45.1054 Y0.3514
G01 X45.0784 Y0.3063
G01 X45.0555 Y0.2696
G01 X45.0227 Y0.2197
G01 X44.9876 Y0.1694
G01 X44.9554 Y0.1255
G01 X44.9217 Y0.0819
G01 X44.8866 Y0.0386
G01 X44.8509 Y-0.0033
G01 X44.8149 Y-0.0434
G01 X44.7711 Y-0.0901
G01 X44.7323 Y-0.1292
G01 X44.6962 Y-0.1639
G01 X44.6546 Y-0.2021
G01 X44.6131 Y-0.2383
G01 X44.5816 Y-0.2647
G01 X44.5481 Y-0.2917
G01 X44.5045 Y-0.3254
G01 X44.4606 Y-0.3576
G01 X44.4300 Y-0.3791
G01 X44.3917 Y-0.4051
G01 X44.3464 Y-0.4344
G01 X44.3015 Y-0.4619
G01 X44.2683 Y-0.4813
G01 X44.2214 Y-0.5076
G01 X44.1769 Y-0.5311
G01 X44.1344 Y-0.5525
G01 X44.0863 Y-0.5753
G01 X44.0466 Y-0.5931
G01 X44.0018 Y-0.6121
G01 X43.9463 Y-0.6342
G01 X43.9051 Y-0.6495
G01 X43.8672 Y-0.6628
G01 X43.8159 Y-0.6797
G01 X43.7641 Y-0.6953
G01 X43.7148 Y-0.7090
G01 X43.6758 Y-0.7189
G01 X43.6338 Y-0.7288
G01 X43.5836 Y-0.7396
G01 X43.5342 Y-0.7490
G01 X43.4929 Y-0.7560
G01 X43.4409 Y-0.7638
G01 X43.4001 Y-0.7691
G01 X43.3510 Y-0.7743
G01 X43.2992 Y-0.7787
G01 X43.2464 Y-0.7821
G01 X43.1935 Y-0.7842
G01 X43.1300 Y-0.7851
G01 X33.1045 Y-0.7849
G01 X33.0516 Y-0.7837
G01 X32.9868 Y-0.7805
G01 X32.9319 Y-0.7764
G01 X32.8750 Y-0.7708
G01 X32.8191 Y-0.7638
G01 X32.7574 Y-0.7544
G01 X32.7010 Y-0.7444
G01 X32.6389 Y-0.7317
G01 X32.5842 Y-0.7189
G01 X32.5333 Y-0.7058
G01 X32.4812 Y-0.6910
G01 X32.4178 Y-0.6712
G01 X32.3638 Y-0.6527
G01 X32.3012 Y-0.6294
G01 X32.2474 Y-0.6076
G01 X32.2134 Y-0.5931
G01 X32.1859 Y-0.5809
G01 X32.1365 Y-0.5578
G01 X32.0808 Y-0.5299
G01 X32.0253 Y-0.5002
G01 X31.9711 Y-0.4694
G01 X31.9136 Y-0.4344
G01 X31.8683 Y-0.4051
G01 X31.8205 Y-0.3726
G01 X31.7786 Y-0.3426
G01 X31.7412 Y-0.3146
G01 X31.6893 Y-0.2736
G01 X31.6469 Y-0.2383
G01 X31.6172 Y-0.2125
G01 X31.5959 Y-0.1935
G01 X31.5562 Y-0.1567
G01 X31.5128 Y-0.1144
G01 X31.4675 Y-0.0676
G01 X31.4279 Y-0.0246
G01 X31.3916 Y0.0169
G01 X31.3653 Y0.0484
G01 X31.3383 Y0.0819
G01 X31.3046 Y0.1255
G01 X31.2724 Y0.1694
G01 X31.2509 Y0.2000
G01 X31.2249 Y0.2383
G01 X31.1956 Y0.2836
G01 X31.1681 Y0.3285
G01 X31.1487 Y0.3617
G01 X31.1225 Y0.4086
G01 X31.0989 Y0.4531
G01 X31.0775 Y0.4957
G01 X31.0547 Y0.5437
G01 X31.0369 Y0.5833
G01 X31.0179 Y0.6282
G01 X30.9958 Y0.6837
G01 X30.9805 Y0.7249
G01 X30.9672 Y0.7628
G01 X30.9504 Y0.8140
G01 X30.9355 Y0.8631
G01 X30.9210 Y0.9152
G01 X30.9111 Y0.9542
G01 X30.9012 Y0.9962
G01 X30.8904 Y1.0464
G01 X30.8810 Y1.0958
G01 X30.8740 Y1.1371
G01 X30.8662 Y1.1892
G01 X30.8610 Y1.2298
G01 X30.8557 Y1.2790
G01 X30.8519 Y1.3219
G01 X30.8479 Y1.3836
G01 X30.8458 Y1.4365
G01 X30.8449 Y1.5000
G01 X30.8451 Y12.5255
G01 X30.8463 Y12.5783
G01 X30.8495 Y12.6431
G01 X30.8536 Y12.6982
G01 X30.8592 Y12.7550
G01 X30.8662 Y12.8108
G01 X30.8756 Y12.8726
G01 X30.8856 Y12.9289
G01 X30.8983 Y12.9911
G01 X30.9111 Y13.0458
G01 X30.9242 Y13.0967
G01 X30.9390 Y13.1488
G01 X30.9588 Y13.2122
G01 X30.9773 Y13.2662
G01 X30.9899 Y13.3009
G01 X31.0006 Y13.3289
G01 X31.0224 Y13.3827
G01 X31.0369 Y13.4166
G01 X31.0491 Y13.4440
G01 X31.0722 Y13.4935
G01 X31.1001 Y13.5492
G01 X31.1298 Y13.6047
G01 X31.1606 Y13.6589
G01 X31.1956 Y13.7164
G01 X31.2248 Y13.7616
G01 X31.2575 Y13.8096
G01 X31.2874 Y13.8514
G01 X31.3154 Y13.8887
G01 X31.3564 Y13.9407
G01 X31.3916 Y13.9831
G01 X31.4175 Y14.0128
G01 X31.4365 Y14.0341
G01 X31.4733 Y14.0738
G01 X31.5156 Y14.1172
G01 X31.5624 Y14.1625
G01 X31.6054 Y14.2021
G01 X31.6469 Y14.2384
G01 X31.6784 Y14.2647
G01 X31.7118 Y14.2916
G01 X31.7555 Y14.3254
G01 X31.7993 Y14.3576
G01 X31.8300 Y14.3791
G01 X31.8684 Y14.4052
G01 X31.9136 Y14.4344
G01 X31.9585 Y14.4619
G01 X31.9917 Y14.4813
G01 X32.0386 Y14.5075
G01 X32.0831 Y14.5311
G01 X32.1257 Y14.5525
G01 X32.1737 Y14.5753
G01 X32.2133 Y14.5931
G01 X32.2582 Y14.6121
G01 X32.3137 Y14.6342
G01 X32.3549 Y14.6495
G01 X32.3928 Y14.6628
G01 X32.4441 Y14.6797
G01 X32.4959 Y14.6953
G01 X32.5453 Y14.7090
G01 X32.5842 Y14.7189
G01 X32.6262 Y14.7288
G01 X32.6764 Y14.7396
G01 X32.7258 Y14.7490
G01 X32.7671 Y14.7560
G01 X32.8191 Y14.7638
G01 X32.8599 Y14.7691
G01 X32.9090 Y14.7743
G01 X32.9608 Y14.7787
G01 X33.0136 Y14.7821
G01 X33.0665 Y14.7842
G01 X33.1300 Y14.7851
G01 X43.1300 Y14.7851
G01 X43.1964 Y14.7841
G01 X43.2612 Y14.7813
G01 X43.3281 Y14.7764
G01 X43.3662 Y14.7728
G01 X43.4001 Y14.7691
G01 X43.4527 Y14.7622
G01 X43.5026 Y14.7544
G01 X43.5590 Y14.7444
G01 X43.6084 Y14.7344
G01 X43.6496 Y14.7252
G01 X43.7028 Y14.7121
G01 X43.7522 Y14.6987
G01 X43.8041 Y14.6833
G01 X43.8422 Y14.6712
G01 X43.8962 Y14.6527
G01 X43.9463 Y14.6342
G01 X44.0018 Y14.6121
G01 X44.0467 Y14.5931
G01 X44.0990 Y14.5694
G01 X44.1343 Y14.5525
G01 X44.1887 Y14.5250
G01 X44.2347 Y14.5002
G01 X44.2785 Y14.4754
G01 X44.3237 Y14.4484
G01 X44.3603 Y14.4256
G01 X44.4020 Y14.3983
G01 X44.4490 Y14.3659
G01 X44.4930 Y14.3341
G01 X44.5302 Y14.3058
G01 X44.5707 Y14.2736
G01 X44.6131 Y14.2384
G01 X44.6523 Y14.2041
G01 X44.6899 Y14.1697
G01 X44.7323 Y14.1292
G01 X44.7592 Y14.1023
G01 X44.7939 Y14.0662
G01 X44.8341 Y14.0223
G01 X44.8684 Y13.9831
G01 X44.9036 Y13.9407
G01 X44.9358 Y13.9002
G01 X44.9641 Y13.8630
G01 X44.9943 Y13.8212
G01 X45.0227 Y13.7802
G01 X45.0555 Y13.7304
G01 X45.0784 Y13.6937
G01 X45.1054 Y13.6485
G01 X45.1317 Y13.6022
G01 X45.1599 Y13.5492
G01 X45.1825 Y13.5043
G01 X45.2053 Y13.4563
G01 X45.2231 Y13.4166
G01 X45.2457 Y13.3630
G01 X45.2642 Y13.3163
G01 X45.2827 Y13.2662
G01 X45.3012 Y13.2122
G01 X45.3174 Y13.1607
G01 X45.3288 Y13.1221
G01 X45.3429 Y13.0699
G01 X45.3553 Y13.0195
G01 X45.3644 Y12.9784
G01 X45.3744 Y12.9289
G01 X45.3844 Y12.8726
G01 X45.3922 Y12.8227
G01 X45.3991 Y12.7701
G01 X45.4043 Y12.7210
G01 X45.4081 Y12.6780
G01 X45.4121 Y12.6165
G01 X45.4142 Y12.5635
G01 X45.4149 Y12.5127
G00 X45.4149 Y12.5127
G01 F450.00
G01 Z-1.6500
G01 F450.00
G01 X45.4151 Y1.5000
G01 X45.4141 Y1.4336
G01 X45.4113 Y1.3688
G01 X45.4073 Y1.3129
G01 X45.4028 Y1.2638
G01 X45.3954 Y1.2009
G01 X45.3882 Y1.1510
G01 X45.3807 Y1.1055
G01 X45.3696 Y1.0464
G01 X45.3582 Y0.9931
G01 X45.3421 Y0.9272
G01 X45.3253 Y0.8659
G01 X45.3096 Y0.8140
G01 X45.2897 Y0.7538
G01 X45.2747 Y0.7117
G01 X45.2594 Y0.6712
G01 X45.2376 Y0.6172
G01 X45.2164 Y0.5682
G01 X45.1890 Y0.5091
G01 X45.1611 Y0.4531
G01 X45.1375 Y0.4086
G01 X45.1054 Y0.3514
G01 X45.0784 Y0.3063
G01 X45.0555 Y0.2696
G01 X45.0227 Y0.2197
G01 X44.9876 Y0.1694
G01 X44.9554 Y0.1255
G01 X44.9217 Y0.0819
G01 X44.8866 Y0.0386
G01 X44.8509 Y-0.0033
G01 X44.8149 Y-0.0434
G01 X44.7711 Y-0.0901
G01 X44.7323 Y-0.1292
G01 X44.6962 Y-0.1639
G01 X44.6546 Y-0.2021
G01 X44.6131 Y-0.2383
G01 X44.5816 Y-0.2647
G01 X44.5481 Y-0.2917
G01 X44.5045 Y-0.3254
G01 X44.4606 Y-0.3576
G01 X44.4300 Y-0.3791
G01 X44.3917 Y-0.4051
G01 X44.3464 Y-0.4344
G01 X44.3015 Y-0.4619
G01 X44.2683 Y-0.4813
G01 X44.2214 Y-0.5076
G01 X44.1769 Y-0.5311
G01 X44.1344 Y-0.5525
G01 X44.0863 Y-0.5753
G01 X44.0466 Y-0.5931
G01 X44.0018 Y-0.6121
G01 X43.9463 Y-0.6342
G01 X43.9051 Y-0.6495
G01 X43.8672 Y-0.6628
G01 X43.8159 Y-0.6797
G01 X43.7641 Y-0.6953
G01 X43.7148 Y-0.7090
G01 X43.6758 Y-0.7189
G01 X43.6338 Y-0.7288
G01 X43.5836 Y-0.7396
G01 X43.5342 Y-0.7490
G01 X43.4929 Y-0.7560
G01 X43.4409 Y-0.7638
G01 X43.4001 Y-0.7691
G01 X43.3510 Y-0.7743
G01 X43.2992 Y-0.7787
G01 X43.2464 Y-0.7821
G01 X43.1935 Y-0.7842
G01 X43.1300 Y-0.7851
G01 X33.1045 Y-0.7849
G01 X33.0516 Y-0.7837
G01 X32.9868 Y-0.7805
G01 X32.9319 Y-0.7764
G01 X32.8750 Y-0.7708
G01 X32.8191 Y-0.7638
G01 X32.7574 Y-0.7544
G01 X32.7010 Y-0.7444
G01 X32.6389 Y-0.7317
G01 X32.5842 Y-0.7189
G01 X32.5333 Y-0.7058
G01 X32.4812 Y-0.6910
G01 X32.4178 Y-0.6712
G01 X32.3638 Y-0.6527
G01 X32.3012 Y-0.6294
G01 X32.2474 Y-0.6076
G01 X32.2134 Y-0.5931
G01 X32.1859 Y-0.5809
G01 X32.1365 Y-0.5578
G01 X32.0808 Y-0.5299
G01 X32.0253 Y-0.5002
G01 X31.9711 Y-0.4694
G01 X31.9136 Y-0.4344
G01 X31.8683 Y-0.4051
G01 X31.8205 Y-0.3726
G01 X31.7786 Y-0.3426
G01 X31.7412 Y-0.3146
G01 X31.6893 Y-0.2736
G01 X31.6469 Y-0.2383
G01 X31.6172 Y-0.2125
G01 X31.5959 Y-0.1935
G01 X31.5562 Y-0.1567
G01 X31.5128 Y-0.1144
G01 X31.4675 Y-0.0676
G01 X31.4279 Y-0.0246
G01 X31.3916 Y0.0169
G01 X31.3653 Y0.0484
G01 X31.3383 Y0.0819
G01 X31.3046 Y0.1255
G01 X31.2724 Y0.1694
G01 X31.2509 Y0.2000
G01 X31.2249 Y0.2383
G01 X31.1956 Y0.2836
G01 X31.1681 Y0.3285
G01 X31.1487 Y0.3617
G01 X31.1225 Y0.4086
G01 X31.0989 Y0.4531
G01 X31.0775 Y0.4957
G01 X31.0547 Y0.5437
G01 X31.0369 Y0.5833
G01 X31.0179 Y0.6282
G01 X30.9958 Y0.6837
G01 X30.9805 Y0.7249
G01 X30.9672 Y0.7628
G01 X30.9504 Y0.8140
G01 X30.9355 Y0.8631
G01 X30.9210 Y0.9152
G01 X30.9111 Y0.9542
G01 X30.9012 Y0.9962
G01 X30.8904 Y1.0464
G01 X30.8810 Y1.0958
G01 X30.8740 Y1.1371
G01 X30.8662 Y1.1892
G01 X30.8610 Y1.2298
G01 X30.8557 Y1.2790
G01 X30.8519 Y1.3219
G01 X30.8479 Y1.3836
G01 X30.8458 Y1.4365
G01 X30.8449 Y1.5000
G01 X30.8451 Y12.5255
G01 X30.8463 Y12.5783
G01 X30.8495 Y12.6431
G01 X30.8536 Y12.6982
G01 X30.8592 Y12.7550
G01 X30.8662 Y12.8108
G01 X30.8756 Y12.8726
G01 X30.8856 Y12.9289
G01 X30.8983 Y12.9911
G01 X30.9111 Y13.0458
G01 X30.9242 Y13.0967
G01 X30.9390 Y13.1488
G01 X30.9588 Y13.2122
G01 X30.9773 Y13.2662
G01 X30.9899 Y13.3009
G01 X31.0006 Y13.3289
G01 X31.0224 Y13.3827
G01 X31.0369 Y13.4166
G01 X31.0491 Y13.4440
G01 X31.0722 Y13.4935
G01 X31.1001 Y13.5492
G01 X31.1298 Y13.6047
G01 X31.1606 Y13.6589
G01 X31.1956 Y13.7164
G01 X31.2248 Y13.7616
G01 X31.2575 Y13.8096
G01 X31.2874 Y13.8514
G01 X31.3154 Y13.8887
G01 X31.3564 Y13.9407
G01 X31.3916 Y13.9831
G01 X31.4175 Y14.0128
G01 X31.4365 Y14.0341
G01 X31.4733 Y14.0738
G01 X31.5156 Y14.1172
G01 X31.5624 Y14.1625
G01 X31.6054 Y14.2021
G01 X31.6469 Y14.2384
G01 X31.6784 Y14.2647
G01 X31.7118 Y14.2916
G01 X31.7555 Y14.3254
G01 X31.7993 Y14.3576
G01 X31.8300 Y14.3791
G01 X31.8684 Y14.4052
G01 X31.9136 Y14.4344
G01 X31.9585 Y14.4619
G01 X31.9917 Y14.4813
G01 X32.0386 Y14.5075
G01 X32.0831 Y14.5311
G01 X32.1257 Y14.5525
G01 X32.1737 Y14.5753
G01 X32.2133 Y14.5931
G01 X32.2582 Y14.6121
G01 X32.3137 Y14.6342
G01 X32.3549 Y14.6495
G01 X32.3928 Y14.6628
G01 X32.4441 Y14.6797
G01 X32.4959 Y14.6953
G01 X32.5453 Y14.7090
G01 X32.5842 Y14.7189
G01 X32.6262 Y14.7288
G01 X32.6764 Y14.7396
G01 X32.7258 Y14.7490
G01 X32.7671 Y14.7560
G01 X32.8191 Y14.7638
G01 X32.8599 Y14.7691
G01 X32.9090 Y14.7743
G01 X32.9608 Y14.7787
G01 X33.0136 Y14.7821
G01 X33.0665 Y14.7842
G01 X33.1300 Y14.7851
G01 X43.1300 Y14.7851
G01 X43.1964 Y14.7841
G01 X43.2612 Y14.7813
G01 X43.3281 Y14.7764
G01 X43.3662 Y14.7728
G01 X43.4001 Y14.7691
G01 X43.4527 Y14.7622
G01 X43.5026 Y14.7544
G01 X43.5590 Y14.7444
G01 X43.6084 Y14.7344
G01 X43.6496 Y14.7252
G01 X43.7028 Y14.7121
G01 X43.7522 Y14.6987
G01 X43.8041 Y14.6833
G01 X43.8422 Y14.6712
G01 X43.8962 Y14.6527
G01 X43.9463 Y14.6342
G01 X44.0018 Y14.6121
G01 X44.0467 Y14.5931
G01 X44.0990 Y14.5694
G01 X44.1343 Y14.5525
G01 X44.1887 Y14.5250
G01 X44.2347 Y14.5002
G01 X44.2785 Y14.4754
G01 X44.3237 Y14.4484
G01 X44.3603 Y14.4256
G01 X44.4020 Y14.3983
G01 X44.4490 Y14.3659
G01 X44.4930 Y14.3341
G01 X44.5302 Y14.3058
G01 X44.5707 Y14.2736
G01 X44.6131 Y14.2384
G01 X44.6523 Y14.2041
G01 X44.6899 Y14.1697
G01 X44.7323 Y14.1292
G01 X44.7592 Y14.1023
G01 X44.7939 Y14.0662
G01 X44.8341 Y14.0223
G01 X44.8684 Y13.9831
G01 X44.9036 Y13.9407
G01 X44.9358 Y13.9002
G01 X44.9641 Y13.8630
G01 X44.9943 Y13.8212
G01 X45.0227 Y13.7802
G01 X45.0555 Y13.7304
G01 X45.0784 Y13.6937
G01 X45.1054 Y13.6485
G01 X45.1317 Y13.6022
G01 X45.1599 Y13.5492
G01 X45.1825 Y13.5043
G01 X45.2053 Y13.4563
G01 X45.2231 Y13.4166
G01 X45.2457 Y13.3630
G01 X45.2642 Y13.3163
G01 X45.2827 Y13.2662
G01 X45.3012 Y13.2122
G01 X45.3174 Y13.1607
G01 X45.3288 Y13.1221
G01 X45.3429 Y13.0699
G01 X45.3553 Y13.0195
G01 X45.3644 Y12.9784
G01 X45.3744 Y12.9289
G01 X45.3844 Y12.8726
G01 X45.3922 Y12.8227
G01 X45.3991 Y12.7701
G01 X45.4043 Y12.7210
G01 X45.4081 Y12.6780
G01 X45.4121 Y12.6165
G01 X45.4142 Y12.5635
G01 X45.4149 Y12.5127
G00 Z15.0000
G00 X61.4149 Y12.5127
G01 F450.00
G01 Z-0.5500
G01 F450.00
G01 X61.4151 Y1.5000
G01 X61.4141 Y1.4336
G01 X61.4113 Y1.3688
G01 X61.4073 Y1.3129
G01 X61.4028 Y1.2638
G01 X61.3954 Y1.2009
G01 X61.3882 Y1.1510
G01 X61.3807 Y1.1054
G01 X61.3696 Y1.0464
G01 X61.3582 Y0.9931
G01 X61.3421 Y0.9272
G01 X61.3253 Y0.8659
G01 X61.3096 Y0.8140
G01 X61.2897 Y0.7539
G01 X61.2747 Y0.7117
G01 X61.2594 Y0.6711
G01 X61.2376 Y0.6172
G01 X61.2164 Y0.5682
G01 X61.1890 Y0.5091
G01 X61.1611 Y0.4531
G01 X61.1375 Y0.4085
G01 X61.1055 Y0.3515
G01 X61.0784 Y0.3063
G01 X61.0555 Y0.2696
G01 X61.0226 Y0.2197
G01 X60.9876 Y0.1693
G01 X60.9554 Y0.1255
G01 X60.9217 Y0.0819
G01 X60.8867 Y0.0387
G01 X60.8509 Y-0.0033
G01 X60.8149 Y-0.0434
G01 X60.7711 Y-0.0901
G01 X60.7322 Y-0.1292
G01 X60.6962 Y-0.1639
G01 X60.6546 Y-0.2021
G01 X60.6130 Y-0.2384
G01 X60.5816 Y-0.2647
G01 X60.5481 Y-0.2917
G01 X60.5045 Y-0.3254
G01 X60.4605 Y-0.3577
G01 X60.4300 Y-0.3791
G01 X60.3916 Y-0.4052
G01 X60.3464 Y-0.4344
G01 X60.3015 Y-0.4619
G01 X60.2683 Y-0.4813
G01 X60.2214 Y-0.5075
G01 X60.1769 Y-0.5311
G01 X60.1343 Y-0.5525
G01 X60.0863 Y-0.5753
G01 X60.0466 Y-0.5931
G01 X60.0018 Y-0.6121
G01 X59.9463 Y-0.6342
G01 X59.9051 Y-0.6495
G01 X59.8672 Y-0.6628
G01 X59.8159 Y-0.6797
G01 X59.7641 Y-0.6953
G01 X59.7147 Y-0.7090
G01 X59.6758 Y-0.7189
G01 X59.6338 Y-0.7288
G01 X59.5837 Y-0.7396
G01 X59.5342 Y-0.7490
G01 X59.4929 Y-0.7560
G01 X59.4409 Y-0.7638
G01 X59.4001 Y-0.7691
G01 X59.3510 Y-0.7743
G01 X59.2992 Y-0.7787
G01 X59.2464 Y-0.7821
G01 X59.1935 Y-0.7842
G01 X59.1300 Y-0.7851
G01 X49.1045 Y-0.7849
G01 X49.0516 Y-0.7837
G01 X48.9868 Y-0.7805
G01 X48.9319 Y-0.7764
G01 X48.8750 Y-0.7708
G01 X48.8191 Y-0.7638
G01 X48.7574 Y-0.7544
G01 X48.7010 Y-0.7444
G01 X48.6389 Y-0.7317
G01 X48.5842 Y-0.7189
G01 X48.5333 Y-0.7058
G01 X48.4812 Y-0.6910
G01 X48.4178 Y-0.6712
G01 X48.3638 Y-0.6527
G01 X48.3012 Y-0.6294
G01 X48.2474 Y-0.6076
G01 X48.2134 Y-0.5931
G01 X48.1859 Y-0.5809
G01 X48.1365 Y-0.5578
G01 X48.0808 Y-0.5299
G01 X48.0253 Y-0.5002
G01 X47.9711 Y-0.4694
G01 X47.9136 Y-0.4344
G01 X47.8683 Y-0.4051
G01 X47.8205 Y-0.3726
G01 X47.7786 Y-0.3426
G01 X47.7412 Y-0.3146
G01 X47.6893 Y-0.2736
G01 X47.6469 Y-0.2383
G01 X47.6172 Y-0.2125
G01 X47.5959 Y-0.1935
G01 X47.5562 Y-0.1567
G01 X47.5128 Y-0.1144
G01 X47.4675 Y-0.0676
G01 X47.4279 Y-0.0246
G01 X47.3916 Y0.0169
G01 X47.3653 Y0.0484
G01 X47.3383 Y0.0819
G01 X47.3046 Y0.1255
G01 X47.2724 Y0.1694
G01 X47.2509 Y0.2000
G01 X47.2249 Y0.2383
G01 X47.1956 Y0.2836
G01 X47.1681 Y0.3285
G01 X47.1487 Y0.3617
G01 X47.1225 Y0.4086
G01 X47.0989 Y0.4531
G01 X47.0775 Y0.4957
G01 X47.0547 Y0.5437
G01 X47.0369 Y0.5833
G01 X47.0179 Y0.6282
G01 X46.9958 Y0.6837
G01 X46.9805 Y0.7249
G01 X46.9672 Y0.7628
G01 X46.9504 Y0.8140
G01 X46.9355 Y0.8631
G01 X46.9210 Y0.9152
G01 X46.9111 Y0.9542
G01 X46.9012 Y0.9962
G01 X46.8904 Y1.0464
G01 X46.8810 Y1.0958
G01 X46.8740 Y1.1371
G01 X46.8662 Y1.1892
G01 X46.8610 Y1.2298
G01 X46.8557 Y1.2790
G01 X46.8519 Y1.3219
G01 X46.8479 Y1.3836
G01 X46.8458 Y1.4365
G01 X46.8449 Y1.5000
G01 X46.8451 Y12.5255
G01 X46.8463 Y12.5783
G01 X46.8495 Y12.6431
G01 X46.8536 Y12.6982
G01 X46.8592 Y12.7550
G01 X46.8662 Y12.8108
G01 X46.8756 Y12.8726
G01 X46.8856 Y12.9289
G01 X46.8983 Y12.9911
G01 X46.9111 Y13.0458
G01 X46.9242 Y13.0967
G01 X46.9390 Y13.1488
G01 X46.9588 Y13.2122
G01 X46.9773 Y13.2662
G01 X46.9899 Y13.3009
G01 X47.0006 Y13.3289
G01 X47.0224 Y13.3827
G01 X47.0369 Y13.4166
G01 X47.0491 Y13.4440
G01 X47.0722 Y13.4935
G01 X47.1001 Y13.5492
G01 X47.1298 Y13.6047
G01 X47.1606 Y13.6589
G01 X47.1956 Y13.7164
G01 X47.2248 Y13.7616
G01 X47.2575 Y13.8096
G01 X47.2874 Y13.8514
G01 X47.3154 Y13.8887
G01 X47.3564 Y13.9407
G01 X47.3916 Y13.9831
G01 X47.4175 Y14.0128
G01 X47.4365 Y14.0341
G01 X47.4733 Y14.0738
G01 X47.5156 Y14.1172
G01 X47.5624 Y14.1625
G01 X47.6054 Y14.2021
G01 X47.6469 Y14.2384
G01 X47.6784 Y14.2647
G01 X47.7118 Y14.2916
G01 X47.7555 Y14.3254
G01 X47.7993 Y14.3576
G01 X47.8300 Y14.3791
G01 X47.8684 Y14.4052
G01 X47.9136 Y14.4344
G01 X47.9585 Y14.4619
G01 X47.9917 Y14.4813
G01 X48.0386 Y14.5075
G01 X48.0831 Y14.5311
G01 X48.1257 Y14.5525
G01 X48.1737 Y14.5753
G01 X48.2133 Y14.5931
G01 X48.2582 Y14.6121
G01 X48.3137 Y14.6342
G01 X48.3549 Y14.6495
G01 X48.3928 Y14.6628
G01 X48.4441 Y14.6797
G01 X48.4959 Y14.6953
G01 X48.5453 Y14.7090
G01 X48.5842 Y14.7189
G01 X48.6262 Y14.7288
G01 X48.6764 Y14.7396
G01 X48.7258 Y14.7490
G01 X48.7671 Y14.7560
G01 X48.8191 Y14.7638
G01 X48.8599 Y14.7691
G01 X48.9090 Y14.7743
G01 X48.9608 Y14.7787
G01 X49.0136 Y14.7821
G01 X49.0665 Y14.7842
G01 X49.1300 Y14.7851
G01 X59.1300 Y14.7851
G01 X59.1964 Y14.7841
G01 X59.2612 Y14.7813
G01 X59.3281 Y14.7764
G01 X59.3662 Y14.7728
G01 X59.4001 Y14.7691
G01 X59.4527 Y14.7622
G01 X59.5026 Y14.7544
G01 X59.5590 Y14.7444
G01 X59.6084 Y14.7344
G01 X59.6496 Y14.7252
G01 X59.7028 Y14.7121
G01 X59.7521 Y14.6988
G01 X59.8041 Y14.6833
G01 X59.8422 Y14.6712
G01 X59.8961 Y14.6527
G01 X59.9463 Y14.6342
G01 X60.0018 Y14.6121
G01 X60.0466 Y14.5931
G01 X60.0990 Y14.5694
G01 X60.1343 Y14.5525
G01 X60.1887 Y14.5249
G01 X60.2347 Y14.5002
G01 X60.2786 Y14.4754
G01 X60.3237 Y14.4484
G01 X60.3603 Y14.4255
G01 X60.4020 Y14.3983
G01 X60.4490 Y14.3659
G01 X60.4931 Y14.3340
G01 X60.5302 Y14.3058
G01 X60.5707 Y14.2736
G01 X60.6131 Y14.2384
G01 X60.6523 Y14.2041
G01 X60.6899 Y14.1697
G01 X60.7323 Y14.1292
G01 X60.7592 Y14.1023
G01 X60.7939 Y14.0662
G01 X60.8341 Y14.0223
G01 X60.8684 Y13.9831
G01 X60.9036 Y13.9407
G01 X60.9358 Y13.9002
G01 X60.9640 Y13.8631
G01 X60.9943 Y13.8212
G01 X61.0226 Y13.7804
G01 X61.0556 Y13.7303
G01 X61.0784 Y13.6937
G01 X61.1054 Y13.6486
G01 X61.1317 Y13.6022
G01 X61.1599 Y13.5492
G01 X61.1825 Y13.5043
G01 X61.2053 Y13.4563
G01 X61.2231 Y13.4166
G01 X61.2458 Y13.3630
G01 X61.2642 Y13.3163
G01 X61.2826 Y13.2664
G01 X61.3012 Y13.2122
G01 X61.3174 Y13.1607
G01 X61.3288 Y13.1221
G01 X61.3429 Y13.0699
G01 X61.3552 Y13.0196
G01 X61.3644 Y12.9784
G01 X61.3744 Y12.9290
G01 X61.3844 Y12.8726
G01 X61.3922 Y12.8227
G01 X61.3991 Y12.7701
G01 X61.4043 Y12.7210
G01 X61.4087 Y12.6692
G01 X61.4121 Y12.6163
G01 X61.4142 Y12.5635
G01 X61.4149 Y12.5127
G00 X61.4149 Y12.5127
G01 F450.00
G01 Z-1.1000
G01 F450.00
G01 X61.4151 Y1.5000
G01 X61.4141 Y1.4336
G01 X61.4113 Y1.3688
G01 X61.4073 Y1.3129
G01 X61.4028 Y1.2638
G01 X61.3954 Y1.2009
G01 X61.3882 Y1.1510
G01 X61.3807 Y1.1054
G01 X61.3696 Y1.0464
G01 X61.3582 Y0.9931
G01 X61.3421 Y0.9272
G01 X61.3253 Y0.8659
G01 X61.3096 Y0.8140
G01 X61.2897 Y0.7539
G01 X61.2747 Y0.7117
G01 X61.2594 Y0.6711
G01 X61.2376 Y0.6172
G01 X61.2164 Y0.5682
G01 X61.1890 Y0.5091
G01 X61.1611 Y0.4531
G01 X61.1375 Y0.4085
G01 X61.1055 Y0.3515
G01 X61.0784 Y0.3063
G01 X61.0555 Y0.2696
G01 X61.0226 Y0.2197
G01 X60.9876 Y0.1693
G01 X60.9554 Y0.1255
G01 X60.9217 Y0.0819
G01 X60.8867 Y0.0387
G01 X60.8509 Y-0.0033
G01 X60.8149 Y-0.0434
G01 X60.7711 Y-0.0901
G01 X60.7322 Y-0.1292
G01 X60.6962 Y-0.1639
G01 X60.6546 Y-0.2021
G01 X60.6130 Y-0.2384
G01 X60.5816 Y-0.2647
G01 X60.5481 Y-0.2917
G01 X60.5045 Y-0.3254
G01 X60.4605 Y-0.3577
G01 X60.4300 Y-0.3791
G01 X60.3916 Y-0.4052
G01 X60.3464 Y-0.4344
G01 X60.3015 Y-0.4619
G01 X60.2683 Y-0.4813
G01 X60.2214 Y-0.5075
G01 X60.1769 Y-0.5311
G01 X60.1343 Y-0.5525
G01 X60.0863 Y-0.5753
G01 X60.0466 Y-0.5931
G01 X60.0018 Y-0.6121
G01 X59.9463 Y-0.6342
G01 X59.9051 Y-0.6495
G01 X59.8672 Y-0.6628
G01 X59.8159 Y-0.6797
G01 X59.7641 Y-0.6953
G01 X59.7147 Y-0.7090
G01 X59.6758 Y-0.7189
G01 X59.6338 Y-0.7288
G01 X59.5837 Y-0.7396
G01 X59.5342 Y-0.7490
G01 X59.4929 Y-0.7560
G01 X59.4409 Y-0.7638
G01 X59.4001 Y-0.7691
G01 X59.3510 Y-0.7743
G01 X59.2992 Y-0.7787
G01 X59.2464 Y-0.7821
G01 X59.1935 Y-0.7842
G01 X59.1300 Y-0.7851
G01 X49.1045 Y-0.7849
G01 X49.0516 Y-0.7837
G01 X48.9868 Y-0.7805
G01 X48.9319 Y-0.7764
G01 X48.8750 Y-0.7708
G01 X48.8191 Y-0.7638
G01 X48.7574 Y-0.7544
G01 X48.7010 Y-0.7444
G01 X48.6389 Y-0.7317
G01 X48.5842 Y-0.7189
G01 X48.5333 Y-0.7058
G01 X48.4812 Y-0.6910
G01 X48.4178 Y-0.6712
G01 X48.3638 Y-0.6527
G01 X48.3012 Y-0.6294
G01 X48.2474 Y-0.6076
G01 X48.2134 Y-0.5931
G01 X48.1859 Y-0.5809
G01 X48.1365 Y-0.5578
G01 X48.0808 Y-0.5299
G01 X48.0253 Y-0.5002
G01 X47.9711 Y-0.4694
G01 X47.9136 Y-0.4344
G01 X47.8683 Y-0.4051
G01 X47.8205 Y-0.3726
G01 X47.7786 Y-0.3426
G01 X47.7412 Y-0.3146
G01 X47.6893 Y-0.2736
G01 X47.6469 Y-0.2383
G01 X47.6172 Y-0.2125
G01 X47.5959 Y-0.1935
G01 X47.5562 Y-0.1567
G01 X47.5128 Y-0.1144
G01 X47.4675 Y-0.0676
G01 X47.4279 Y-0.0246
G01 X47.3916 Y0.0169
G01 X47.3653 Y0.0484
G01 X47.3383 Y0.0819
G01 X47.3046 Y0.1255
G01 X47.2724 Y0.1694
G01 X47.2509 Y0.2000
G01 X47.2249 Y0.2383
G01 X47.1956 Y0.2836
G01 X47.1681 Y0.3285
G01 X47.1487 Y0.3617
G01 X47.1225 Y0.4086
G01 X47.0989 Y0.4531
G01 X47.0775 Y0.4957
G01 X47.0547 Y0.5437
G01 X47.0369 Y0.5833
G01 X47.0179 Y0.6282
G01 X46.9958 Y0.6837
G01 X46.9805 Y0.7249
G01 X46.9672 Y0.7628
G01 X46.9504 Y0.8140
G01 X46.9355 Y0.8631
G01 X46.9210 Y0.9152
G01 X46.9111 Y0.9542
G01 X46.9012 Y0.9962
G01 X46.8904 Y1.0464
G01 X46.8810 Y1.0958
G01 X46.8740 Y1.1371
G01 X46.8662 Y1.1892
G01 X46.8610 Y1.2298
G01 X46.8557 Y1.2790
G01 X46.8519 Y1.3219
G01 X46.8479 Y1.3836
G01 X46.8458 Y1.4365
G01 X46.8449 Y1.5000
G01 X46.8451 Y12.5255
G01 X46.8463 Y12.5783
G01 X46.8495 Y12.6431
G01 X46.8536 Y12.6982
G01 X46.8592 Y12.7550
G01 X46.8662 Y12.8108
G01 X46.8756 Y12.8726
G01 X46.8856 Y12.9289
G01 X46.8983 Y12.9911
G01 X46.9111 Y13.0458
G01 X46.9242 Y13.0967
G01 X46.9390 Y13.1488
G01 X46.9588 Y13.2122
G01 X46.9773 Y13.2662
G01 X46.9899 Y13.3009
G01 X47.0006 Y13.3289
G01 X47.0224 Y13.3827
G01 X47.0369 Y13.4166
G01 X47.0491 Y13.4440
G01 X47.0722 Y13.4935
G01 X47.1001 Y13.5492
G01 X47.1298 Y13.6047
G01 X47.1606 Y13.6589
G01 X47.1956 Y13.7164
G01 X47.2248 Y13.7616
G01 X47.2575 Y13.8096
G01 X47.2874 Y13.8514
G01 X47.3154 Y13.8887
G01 X47.3564 Y13.9407
G01 X47.3916 Y13.9831
G01 X47.4175 Y14.0128
G01 X47.4365 Y14.0341
G01 X47.4733 Y14.0738
G01 X47.5156 Y14.1172
G01 X47.5624 Y14.1625
G01 X47.6054 Y14.2021
G01 X47.6469 Y14.2384
G01 X47.6784 Y14.2647
G01 X47.7118 Y14.2916
G01 X47.7555 Y14.3254
G01 X47.7993 Y14.3576
G01 X47.8300 Y14.3791
G01 X47.8684 Y14.4052
G01 X47.9136 Y14.4344
G01 X47.9585 Y14.4619
G01 X47.9917 Y14.4813
G01 X48.0386 Y14.5075
G01 X48.0831 Y14.5311
G01 X48.1257 Y14.5525
G01 X48.1737 Y14.5753
G01 X48.2133 Y14.5931
G01 X48.2582 Y14.6121
G01 X48.3137 Y14.6342
G01 X48.3549 Y14.6495
G01 X48.3928 Y14.6628
G01 X48.4441 Y14.6797
G01 X48.4959 Y14.6953
G01 X48.5453 Y14.7090
G01 X48.5842 Y14.7189
G01 X48.6262 Y14.7288
G01 X48.6764 Y14.7396
G01 X48.7258 Y14.7490
G01 X48.7671 Y14.7560
G01 X48.8191 Y14.7638
G01 X48.8599 Y14.7691
G01 X48.9090 Y14.7743
G01 X48.9608 Y14.7787
G01 X49.0136 Y14.7821
G01 X49.0665 Y14.7842
G01 X49.1300 Y14.7851
G01 X59.1300 Y14.7851
G01 X59.1964 Y14.7841
G01 X59.2612 Y14.7813
G01 X59.3281 Y14.7764
G01 X59.3662 Y14.7728
G01 X59.4001 Y14.7691
G01 X59.4527 Y14.7622
G01 X59.5026 Y14.7544
G01 X59.5590 Y14.7444
G01 X59.6084 Y14.7344
G01 X59.6496 Y14.7252
G01 X59.7028 Y14.7121
G01 X59.7521 Y14.6988
G01 X59.8041 Y14.6833
G01 X59.8422 Y14.6712
G01 X59.8961 Y14.6527
G01 X59.9463 Y14.6342
G01 X60.0018 Y14.6121
G01 X60.0466 Y14.5931
G01 X60.0990 Y14.5694
G01 X60.1343 Y14.5525
G01 X60.1887 Y14.5249
G01 X60.2347 Y14.5002
G01 X60.2786 Y14.4754
G01 X60.3237 Y14.4484
G01 X60.3603 Y14.4255
G01 X60.4020 Y14.3983
G01 X60.4490 Y14.3659
G01 X60.4931 Y14.3340
G01 X60.5302 Y14.3058
G01 X60.5707 Y14.2736
G01 X60.6131 Y14.2384
G01 X60.6523 Y14.2041
G01 X60.6899 Y14.1697
G01 X60.7323 Y14.1292
G01 X60.7592 Y14.1023
G01 X60.7939 Y14.0662
G01 X60.8341 Y14.0223
G01 X60.8684 Y13.9831
G01 X60.9036 Y13.9407
G01 X60.9358 Y13.9002
G01 X60.9640 Y13.8631
G01 X60.9943 Y13.8212
G01 X61.0226 Y13.7804
G01 X61.0556 Y13.7303
G01 X61.0784 Y13.6937
G01 X61.1054 Y13.6486
G01 X61.1317 Y13.6022
G01 X61.1599 Y13.5492
G01 X61.1825 Y13.5043
G01 X61.2053 Y13.4563
G01 X61.2231 Y13.4166
G01 X61.2458 Y13.3630
G01 X61.2642 Y13.3163
G01 X61.2826 Y13.2664
G01 X61.3012 Y13.2122
G01 X61.3174 Y13.1607
G01 X61.3288 Y13.1221
G01 X61.3429 Y13.0699
G01 X61.3552 Y13.0196
G01 X61.3644 Y12.9784
G01 X61.3744 Y12.9290
G01 X61.3844 Y12.8726
G01 X61.3922 Y12.8227
G01 X61.3991 Y12.7701
G01 X61.4043 Y12.7210
G01 X61.4087 Y12.6692
G01 X61.4121 Y12.6163
G01 X61.4142 Y12.5635
G01 X61.4149 Y12.5127
G00 X61.4149 Y12.5127
G01 F450.00
G01 Z-1.6500
G01 F450.00
G01 X61.4151 Y1.5000
G01 X61.4141 Y1.4336
G01 X61.4113 Y1.3688
G01 X61.4073 Y1.3129
G01 X61.4028 Y1.2638
G01 X61.3954 Y1.2009
G01 X61.3882 Y1.1510
G01 X61.3807 Y1.1054
G01 X61.3696 Y1.0464
G01 X61.3582 Y0.9931
G01 X61.3421 Y0.9272
G01 X61.3253 Y0.8659
G01 X61.3096 Y0.8140
G01 X61.2897 Y0.7539
G01 X61.2747 Y0.7117
G01 X61.2594 Y0.6711
G01 X61.2376 Y0.6172
G01 X61.2164 Y0.5682
G01 X61.1890 Y0.5091
G01 X61.1611 Y0.4531
G01 X61.1375 Y0.4085
G01 X61.1055 Y0.3515
G01 X61.0784 Y0.3063
G01 X61.0555 Y0.2696
G01 X61.0226 Y0.2197
G01 X60.9876 Y0.1693
G01 X60.9554 Y0.1255
G01 X60.9217 Y0.0819
G01 X60.8867 Y0.0387
G01 X60.8509 Y-0.0033
G01 X60.8149 Y-0.0434
G01 X60.7711 Y-0.0901
G01 X60.7322 Y-0.1292
G01 X60.6962 Y-0.1639
G01 X60.6546 Y-0.2021
G01 X60.6130 Y-0.2384
G01 X60.5816 Y-0.2647
G01 X60.5481 Y-0.2917
G01 X60.5045 Y-0.3254
G01 X60.4605 Y-0.3577
G01 X60.4300 Y-0.3791
G01 X60.3916 Y-0.4052
G01 X60.3464 Y-0.4344
G01 X60.3015 Y-0.4619
G01 X60.2683 Y-0.4813
G01 X60.2214 Y-0.5075
G01 X60.1769 Y-0.5311
G01 X60.1343 Y-0.5525
G01 X60.0863 Y-0.5753
G01 X60.0466 Y-0.5931
G01 X60.0018 Y-0.6121
G01 X59.9463 Y-0.6342
G01 X59.9051 Y-0.6495
G01 X59.8672 Y-0.6628
G01 X59.8159 Y-0.6797
G01 X59.7641 Y-0.6953
G01 X59.7147 Y-0.7090
G01 X59.6758 Y-0.7189
G01 X59.6338 Y-0.7288
G01 X59.5837 Y-0.7396
G01 X59.5342 Y-0.7490
G01 X59.4929 Y-0.7560
G01 X59.4409 Y-0.7638
G01 X59.4001 Y-0.7691
G01 X59.3510 Y-0.7743
G01 X59.2992 Y-0.7787
G01 X59.2464 Y-0.7821
G01 X59.1935 Y-0.7842
G01 X59.1300 Y-0.7851
G01 X49.1045 Y-0.7849
G01 X49.0516 Y-0.7837
G01 X48.9868 Y-0.7805
G01 X48.9319 Y-0.7764
G01 X48.8750 Y-0.7708
G01 X48.8191 Y-0.7638
G01 X48.7574 Y-0.7544
G01 X48.7010 Y-0.7444
G01 X48.6389 Y-0.7317
G01 X48.5842 Y-0.7189
G01 X48.5333 Y-0.7058
G01 X48.4812 Y-0.6910
G01 X48.4178 Y-0.6712
G01 X48.3638 Y-0.6527
G01 X48.3012 Y-0.6294
G01 X48.2474 Y-0.6076
G01 X48.2134 Y-0.5931
G01 X48.1859 Y-0.5809
G01 X48.1365 Y-0.5578
G01 X48.0808 Y-0.5299
G01 X48.0253 Y-0.5002
G01 X47.9711 Y-0.4694
G01 X47.9136 Y-0.4344
G01 X47.8683 Y-0.4051
G01 X47.8205 Y-0.3726
G01 X47.7786 Y-0.3426
G01 X47.7412 Y-0.3146
G01 X47.6893 Y-0.2736
G01 X47.6469 Y-0.2383
G01 X47.6172 Y-0.2125
G01 X47.5959 Y-0.1935
G01 X47.5562 Y-0.1567
G01 X47.5128 Y-0.1144
G01 X47.4675 Y-0.0676
G01 X47.4279 Y-0.0246
G01 X47.3916 Y0.0169
G01 X47.3653 Y0.0484
G01 X47.3383 Y0.0819
G01 X47.3046 Y0.1255
G01 X47.2724 Y0.1694
G01 X47.2509 Y0.2000
G01 X47.2249 Y0.2383
G01 X47.1956 Y0.2836
G01 X47.1681 Y0.3285
G01 X47.1487 Y0.3617
G01 X47.1225 Y0.4086
G01 X47.0989 Y0.4531
G01 X47.0775 Y0.4957
G01 X47.0547 Y0.5437
G01 X47.0369 Y0.5833
G01 X47.0179 Y0.6282
G01 X46.9958 Y0.6837
G01 X46.9805 Y0.7249
G01 X46.9672 Y0.7628
G01 X46.9504 Y0.8140
G01 X46.9355 Y0.8631
G01 X46.9210 Y0.9152
G01 X46.9111 Y0.9542
G01 X46.9012 Y0.9962
G01 X46.8904 Y1.0464
G01 X46.8810 Y1.0958
G01 X46.8740 Y1.1371
G01 X46.8662 Y1.1892
G01 X46.8610 Y1.2298
G01 X46.8557 Y1.2790
G01 X46.8519 Y1.3219
G01 X46.8479 Y1.3836
G01 X46.8458 Y1.4365
G01 X46.8449 Y1.5000
G01 X46.8451 Y12.5255
G01 X46.8463 Y12.5783
G01 X46.8495 Y12.6431
G01 X46.8536 Y12.6982
G01 X46.8592 Y12.7550
G01 X46.8662 Y12.8108
G01 X46.8756 Y12.8726
G01 X46.8856 Y12.9289
G01 X46.8983 Y12.9911
G01 X46.9111 Y13.0458
G01 X46.9242 Y13.0967
G01 X46.9390 Y13.1488
G01 X46.9588 Y13.2122
G01 X46.9773 Y13.2662
G01 X46.9899 Y13.3009
G01 X47.0006 Y13.3289
G01 X47.0224 Y13.3827
G01 X47.0369 Y13.4166
G01 X47.0491 Y13.4440
G01 X47.0722 Y13.4935
G01 X47.1001 Y13.5492
G01 X47.1298 Y13.6047
G01 X47.1606 Y13.6589
G01 X47.1956 Y13.7164
G01 X47.2248 Y13.7616
G01 X47.2575 Y13.8096
G01 X47.2874 Y13.8514
G01 X47.3154 Y13.8887
G01 X47.3564 Y13.9407
G01 X47.3916 Y13.9831
G01 X47.4175 Y14.0128
G01 X47.4365 Y14.0341
G01 X47.4733 Y14.0738
G01 X47.5156 Y14.1172
G01 X47.5624 Y14.1625
G01 X47.6054 Y14.2021
G01 X47.6469 Y14.2384
G01 X47.6784 Y14.2647
G01 X47.7118 Y14.2916
G01 X47.7555 Y14.3254
G01 X47.7993 Y14.3576
G01 X47.8300 Y14.3791
G01 X47.8684 Y14.4052
G01 X47.9136 Y14.4344
G01 X47.9585 Y14.4619
G01 X47.9917 Y14.4813
G01 X48.0386 Y14.5075
G01 X48.0831 Y14.5311
G01 X48.1257 Y14.5525
G01 X48.1737 Y14.5753
G01 X48.2133 Y14.5931
G01 X48.2582 Y14.6121
G01 X48.3137 Y14.6342
G01 X48.3549 Y14.6495
G01 X48.3928 Y14.6628
G01 X48.4441 Y14.6797
G01 X48.4959 Y14.6953
G01 X48.5453 Y14.7090
G01 X48.5842 Y14.7189
G01 X48.6262 Y14.7288
G01 X48.6764 Y14.7396
G01 X48.7258 Y14.7490
G01 X48.7671 Y14.7560
G01 X48.8191 Y14.7638
G01 X48.8599 Y14.7691
G01 X48.9090 Y14.7743
G01 X48.9608 Y14.7787
G01 X49.0136 Y14.7821
G01 X49.0665 Y14.7842
G01 X49.1300 Y14.7851
G01 X59.1300 Y14.7851
G01 X59.1964 Y14.7841
G01 X59.2612 Y14.7813
G01 X59.3281 Y14.7764
G01 X59.3662 Y14.7728
G01 X59.4001 Y14.7691
G01 X59.4527 Y14.7622
G01 X59.5026 Y14.7544
G01 X59.5590 Y14.7444
G01 X59.6084 Y14.7344
G01 X59.6496 Y14.7252
G01 X59.7028 Y14.7121
G01 X59.7521 Y14.6988
G01 X59.8041 Y14.6833
G01 X59.8422 Y14.6712
G01 X59.8961 Y14.6527
G01 X59.9463 Y14.6342
G01 X60.0018 Y14.6121
G01 X60.0466 Y14.5931
G01 X60.0990 Y14.5694
G01 X60.1343 Y14.5525
G01 X60.1887 Y14.5249
G01 X60.2347 Y14.5002
G01 X60.2786 Y14.4754
G01 X60.3237 Y14.4484
G01 X60.3603 Y14.4255
G01 X60.4020 Y14.3983
G01 X60.4490 Y14.3659
G01 X60.4931 Y14.3340
G01 X60.5302 Y14.3058
G01 X60.5707 Y14.2736
G01 X60.6131 Y14.2384
G01 X60.6523 Y14.2041
G01 X60.6899 Y14.1697
G01 X60.7323 Y14.1292
G01 X60.7592 Y14.1023
G01 X60.7939 Y14.0662
G01 X60.8341 Y14.0223
G01 X60.8684 Y13.9831
G01 X60.9036 Y13.9407
G01 X60.9358 Y13.9002
G01 X60.9640 Y13.8631
G01 X60.9943 Y13.8212
G01 X61.0226 Y13.7804
G01 X61.0556 Y13.7303
G01 X61.0784 Y13.6937
G01 X61.1054 Y13.6486
G01 X61.1317 Y13.6022
G01 X61.1599 Y13.5492
G01 X61.1825 Y13.5043
G01 X61.2053 Y13.4563
G01 X61.2231 Y13.4166
G01 X61.2458 Y13.3630
G01 X61.2642 Y13.3163
G01 X61.2826 Y13.2664
G01 X61.3012 Y13.2122
G01 X61.3174 Y13.1607
G01 X61.3288 Y13.1221
G01 X61.3429 Y13.0699
G01 X61.3552 Y13.0196
G01 X61.3644 Y12.9784
G01 X61.3744 Y12.9290
G01 X61.3844 Y12.8726
G01 X61.3922 Y12.8227
G01 X61.3991 Y12.7701
G01 X61.4043 Y12.7210
G01 X61.4087 Y12.6692
G01 X61.4121 Y12.6163
G01 X61.4142 Y12.5635
G01 X61.4149 Y12.5127
G00 Z15.0000
G00 X77.4149 Y12.5127
G01 F450.00
G01 Z-0.5500
G01 F450.00
G01 X77.4151 Y1.5000
G01 X77.4141 Y1.4336
G01 X77.4113 Y1.3688
G01 X77.4073 Y1.3129
G01 X77.4028 Y1.2637
G01 X77.3954 Y1.2009
G01 X77.3882 Y1.1510
G01 X77.3807 Y1.1055
G01 X77.3696 Y1.0465
G01 X77.3582 Y0.9931
G01 X77.3421 Y0.9272
G01 X77.3253 Y0.8659
G01 X77.3096 Y0.8140
G01 X77.2896 Y0.7536
G01 X77.2747 Y0.7117
G01 X77.2594 Y0.6712
G01 X77.2376 Y0.6172
G01 X77.2164 Y0.5682
G01 X77.1890 Y0.5091
G01 X77.1611 Y0.4531
G01 X77.1375 Y0.4085
G01 X77.1053 Y0.3512
G01 X77.0784 Y0.3063
G01 X77.0555 Y0.2696
G01 X77.0226 Y0.2196
G01 X76.9877 Y0.1695
G01 X76.9554 Y0.1255
G01 X76.9216 Y0.0818
G01 X76.8865 Y0.0385
G01 X76.8509 Y-0.0033
G01 X76.8149 Y-0.0434
G01 X76.7711 Y-0.0901
G01 X76.7322 Y-0.1293
G01 X76.6962 Y-0.1639
G01 X76.6546 Y-0.2021
G01 X76.6130 Y-0.2385
G01 X76.5816 Y-0.2647
G01 X76.5481 Y-0.2917
G01 X76.5045 Y-0.3254
G01 X76.4606 Y-0.3576
G01 X76.4300 Y-0.3791
G01 X76.3916 Y-0.4052
G01 X76.3464 Y-0.4344
G01 X76.3015 Y-0.4619
G01 X76.2683 Y-0.4813
G01 X76.2213 Y-0.5076
G01 X76.1769 Y-0.5311
G01 X76.1344 Y-0.5525
G01 X76.0863 Y-0.5753
G01 X76.0465 Y-0.5932
G01 X76.0018 Y-0.6121
G01 X75.9463 Y-0.6342
G01 X75.9051 Y-0.6495
G01 X75.8672 Y-0.6628
G01 X75.8158 Y-0.6797
G01 X75.7641 Y-0.6953
G01 X75.7148 Y-0.7090
G01 X75.6758 Y-0.7189
G01 X75.6338 Y-0.7288
G01 X75.5836 Y-0.7396
G01 X75.5342 Y-0.7490
G01 X75.4929 Y-0.7560
G01 X75.4409 Y-0.7638
G01 X75.4001 Y-0.7691
G01 X75.3510 Y-0.7743
G01 X75.2992 Y-0.7787
G01 X75.2464 Y-0.7821
G01 X75.1935 Y-0.7842
G01 X75.1300 Y-0.7851
G01 X65.1045 Y-0.7849
G01 X65.0516 Y-0.7837
G01 X64.9868 Y-0.7805
G01 X64.9319 Y-0.7764
G01 X64.8750 Y-0.7708
G01 X64.8191 Y-0.7638
G01 X64.7573 Y-0.7544
G01 X64.7010 Y-0.7444
G01 X64.6388 Y-0.7317
G01 X64.5842 Y-0.7189
G01 X64.5333 Y-0.7058
G01 X64.4812 Y-0.6910
G01 X64.4178 Y-0.6712
G01 X64.3638 Y-0.6527
G01 X64.3291 Y-0.6400
G01 X64.3011 Y-0.6294
G01 X64.2474 Y-0.6077
G01 X64.2134 Y-0.5931
G01 X64.1860 Y-0.5809
G01 X64.1365 Y-0.5578
G01 X64.0808 Y-0.5299
G01 X64.0253 Y-0.5002
G01 X63.9711 Y-0.4694
G01 X63.9136 Y-0.4344
G01 X63.8683 Y-0.4051
G01 X63.8205 Y-0.3726
G01 X63.7786 Y-0.3426
G01 X63.7413 Y-0.3146
G01 X63.6893 Y-0.2736
G01 X63.6470 Y-0.2384
G01 X63.6172 Y-0.2125
G01 X63.5959 Y-0.1935
G01 X63.5563 Y-0.1568
G01 X63.5128 Y-0.1144
G01 X63.4675 Y-0.0676
G01 X63.4279 Y-0.0246
G01 X63.3917 Y0.0169
G01 X63.3653 Y0.0484
G01 X63.3384 Y0.0818
G01 X63.3046 Y0.1255
G01 X63.2724 Y0.1693
G01 X63.2509 Y0.2000
G01 X63.2249 Y0.2383
G01 X63.1956 Y0.2836
G01 X63.1680 Y0.3286
G01 X63.1487 Y0.3617
G01 X63.1224 Y0.4087
G01 X63.0989 Y0.4531
G01 X63.0775 Y0.4957
G01 X63.0547 Y0.5437
G01 X63.0368 Y0.5835
G01 X63.0179 Y0.6282
G01 X62.9958 Y0.6837
G01 X62.9805 Y0.7249
G01 X62.9672 Y0.7628
G01 X62.9504 Y0.8140
G01 X62.9355 Y0.8631
G01 X62.9211 Y0.9149
G01 X62.9111 Y0.9542
G01 X62.9012 Y0.9962
G01 X62.8904 Y1.0465
G01 X62.8810 Y1.0958
G01 X62.8740 Y1.1371
G01 X62.8662 Y1.1890
G01 X62.8610 Y1.2297
G01 X62.8557 Y1.2790
G01 X62.8519 Y1.3220
G01 X62.8479 Y1.3836
G01 X62.8458 Y1.4365
G01 X62.8449 Y1.5000
G01 X62.8451 Y12.5255
G01 X62.8463 Y12.5786
G01 X62.8495 Y12.6431
G01 X62.8536 Y12.6978
G01 X62.8592 Y12.7550
G01 X62.8662 Y12.8110
G01 X62.8756 Y12.8726
G01 X62.8856 Y12.9290
G01 X62.8983 Y12.9910
G01 X62.9111 Y13.0458
G01 X62.9242 Y13.0967
G01 X62.9390 Y13.1490
G01 X62.9587 Y13.2120
G01 X62.9772 Y13.2660
G01 X63.0005 Y13.3285
G01 X63.0223 Y13.3825
G01 X63.0368 Y13.4165
G01 X63.0492 Y13.4442
G01 X63.0722 Y13.4935
G01 X63.1001 Y13.5492
G01 X63.1298 Y13.6047
G01 X63.1606 Y13.6589
G01 X63.1956 Y13.7164
G01 X63.2248 Y13.7616
G01 X63.2575 Y13.8096
G01 X63.2874 Y13.8514
G01 X63.3153 Y13.8887
G01 X63.3564 Y13.9407
G01 X63.3915 Y13.9829
G01 X63.4175 Y14.0129
G01 X63.4365 Y14.0341
G01 X63.4735 Y14.0740
G01 X63.5156 Y14.1172
G01 X63.5624 Y14.1625
G01 X63.6054 Y14.2021
G01 X63.6469 Y14.2384
G01 X63.6784 Y14.2647
G01 X63.7120 Y14.2918
G01 X63.7555 Y14.3254
G01 X63.7993 Y14.3576
G01 X63.8300 Y14.3791
G01 X63.8683 Y14.4051
G01 X63.9136 Y14.4344
G01 X63.9585 Y14.4619
G01 X63.9917 Y14.4813
G01 X64.0386 Y14.5076
G01 X64.0831 Y14.5311
G01 X64.1255 Y14.5524
G01 X64.1737 Y14.5753
G01 X64.2134 Y14.5931
G01 X64.2582 Y14.6121
G01 X64.3137 Y14.6342
G01 X64.3549 Y14.6495
G01 X64.3928 Y14.6628
G01 X64.4441 Y14.6797
G01 X64.4931 Y14.6945
G01 X64.5452 Y14.7090
G01 X64.5842 Y14.7189
G01 X64.6262 Y14.7288
G01 X64.6764 Y14.7396
G01 X64.7258 Y14.7490
G01 X64.7671 Y14.7560
G01 X64.8191 Y14.7638
G01 X64.8599 Y14.7691
G01 X64.9090 Y14.7743
G01 X64.9608 Y14.7787
G01 X65.0136 Y14.7821
G01 X65.0665 Y14.7842
G01 X65.1300 Y14.7851
G01 X75.1300 Y14.7851
G01 X75.1964 Y14.7841
G01 X75.2612 Y14.7813
G01 X75.3281 Y14.7764
G01 X75.3662 Y14.7728
G01 X75.4001 Y14.7691
G01 X75.4527 Y14.7622
G01 X75.5026 Y14.7544
G01 X75.5590 Y14.7444
G01 X75.6084 Y14.7344
G01 X75.6495 Y14.7252
G01 X75.7028 Y14.7121
G01 X75.7522 Y14.6987
G01 X75.8041 Y14.6833
G01 X75.8422 Y14.6712
G01 X75.8962 Y14.6527
G01 X75.9463 Y14.6342
G01 X76.0018 Y14.6121
G01 X76.0466 Y14.5931
G01 X76.0990 Y14.5694
G01 X76.1343 Y14.5525
G01 X76.1888 Y14.5249
G01 X76.2347 Y14.5002
G01 X76.2787 Y14.4754
G01 X76.3237 Y14.4484
G01 X76.3604 Y14.4255
G01 X76.4020 Y14.3983
G01 X76.4490 Y14.3659
G01 X76.4929 Y14.3341
G01 X76.5302 Y14.3058
G01 X76.5707 Y14.2736
G01 X76.6131 Y14.2384
G01 X76.6523 Y14.2041
G01 X76.6902 Y14.1695
G01 X76.7323 Y14.1292
G01 X76.7591 Y14.1024
G01 X76.7939 Y14.0662
G01 X76.8341 Y14.0223
G01 X76.8684 Y13.9830
G01 X76.9036 Y13.9407
G01 X76.9358 Y13.9002
G01 X76.9640 Y13.8630
G01 X76.9943 Y13.8212
G01 X77.0228 Y13.7801
G01 X77.0555 Y13.7304
G01 X77.0784 Y13.6937
G01 X77.1054 Y13.6486
G01 X77.1317 Y13.6022
G01 X77.1599 Y13.5492
G01 X77.1826 Y13.5041
G01 X77.2053 Y13.4563
G01 X77.2231 Y13.4166
G01 X77.2458 Y13.3630
G01 X77.2642 Y13.3163
G01 X77.2827 Y13.2661
G01 X77.3012 Y13.2122
G01 X77.3174 Y13.1607
G01 X77.3288 Y13.1221
G01 X77.3429 Y13.0699
G01 X77.3552 Y13.0197
G01 X77.3644 Y12.9784
G01 X77.3744 Y12.9288
G01 X77.3844 Y12.8729
G01 X77.3922 Y12.8227
G01 X77.3991 Y12.7700
G01 X77.4043 Y12.7210
G01 X77.4087 Y12.6692
G01 X77.4121 Y12.6164
G01 X77.4142 Y12.5635
G01 X77.4149 Y12.5127
G00 X77.4149 Y12.5127
G01 F450.00
G01 Z-1.1000
G01 F450.00
G01 X77.4151 Y1.5000
G01 X77.4141 Y1.4336
G01 X77.4113 Y1.3688
G01 X77.4073 Y1.3129
G01 X77.4028 Y1.2637
G01 X77.3954 Y1.2009
G01 X77.3882 Y1.1510
G01 X77.3807 Y1.1055
G01 X77.3696 Y1.0465
G01 X77.3582 Y0.9931
G01 X77.3421 Y0.9272
G01 X77.3253 Y0.8659
G01 X77.3096 Y0.8140
G01 X77.2896 Y0.7536
G01 X77.2747 Y0.7117
G01 X77.2594 Y0.6712
G01 X77.2376 Y0.6172
G01 X77.2164 Y0.5682
G01 X77.1890 Y0.5091
G01 X77.1611 Y0.4531
G01 X77.1375 Y0.4085
G01 X77.1053 Y0.3512
G01 X77.0784 Y0.3063
G01 X77.0555 Y0.2696
G01 X77.0226 Y0.2196
G01 X76.9877 Y0.1695
G01 X76.9554 Y0.1255
G01 X76.9216 Y0.0818
G01 X76.8865 Y0.0385
G01 X76.8509 Y-0.0033
G01 X76.8149 Y-0.0434
G01 X76.7711 Y-0.0901
G01 X76.7322 Y-0.1293
G01 X76.6962 Y-0.1639
G01 X76.6546 Y-0.2021
G01 X76.6130 Y-0.2385
G01 X76.5816 Y-0.2647
G01 X76.5481 Y-0.2917
G01 X76.5045 Y-0.3254
G01 X76.4606 Y-0.3576
G01 X76.4300 Y-0.3791
G01 X76.3916 Y-0.4052
G01 X76.3464 Y-0.4344
G01 X76.3015 Y-0.4619
G01 X76.2683 Y-0.4813
G01 X76.2213 Y-0.5076
G01 X76.1769 Y-0.5311
G01 X76.1344 Y-0.5525
G01 X76.0863 Y-0.5753
G01 X76.0465 Y-0.5932
G01 X76.0018 Y-0.6121
G01 X75.9463 Y-0.6342
G01 X75.9051 Y-0.6495
G01 X75.8672 Y-0.6628
G01 X75.8158 Y-0.6797
G01 X75.7641 Y-0.6953
G01 X75.7148 Y-0.7090
G01 X75.6758 Y-0.7189
G01 X75.6338 Y-0.7288
G01 X75.5836 Y-0.7396
G01 X75.5342 Y-0.7490
G01 X75.4929 Y-0.7560
G01 X75.4409 Y-0.7638
G01 X75.4001 Y-0.7691
G01 X75.3510 Y-0.7743
G01 X75.2992 Y-0.7787
G01 X75.2464 Y-0.7821
G01 X75.1935 Y-0.7842
G01 X75.1300 Y-0.7851
G01 X65.1045 Y-0.7849
G01 X65.0516 Y-0.7837
G01 X64.9868 Y-0.7805
G01 X64.9319 Y-0.7764
G01 X64.8750 Y-0.7708
G01 X64.8191 Y-0.7638
G01 X64.7573 Y-0.7544
G01 X64.7010 Y-0.7444
G01 X64.6388 Y-0.7317
G01 X64.5842 Y-0.7189
G01 X64.5333 Y-0.7058
G01 X64.4812 Y-0.6910
G01 X64.4178 Y-0.6712
G01 X64.3638 Y-0.6527
G01 X64.3291 Y-0.6400
G01 X64.3011 Y-0.6294
G01 X64.2474 Y-0.6077
G01 X64.2134 Y-0.5931
G01 X64.1860 Y-0.5809
G01 X64.1365 Y-0.5578
G01 X64.0808 Y-0.5299
G01 X64.0253 Y-0.5002
G01 X63.9711 Y-0.4694
G01 X63.9136 Y-0.4344
G01 X63.8683 Y-0.4051
G01 X63.8205 Y-0.3726
G01 X63.7786 Y-0.3426
G01 X63.7413 Y-0.3146
G01 X63.6893 Y-0.2736
G01 X63.6470 Y-0.2384
G01 X63.6172 Y-0.2125
G01 X63.5959 Y-0.1935
G01 X63.5563 Y-0.1568
G01 X63.5128 Y-0.1144
G01 X63.4675 Y-0.0676
G01 X63.4279 Y-0.0246
G01 X63.3917 Y0.0169
G01 X63.3653 Y0.0484
G01 X63.3384 Y0.0818
G01 X63.3046 Y0.1255
G01 X63.2724 Y0.1693
G01 X63.2509 Y0.2000
G01 X63.2249 Y0.2383
G01 X63.1956 Y0.2836
G01 X63.1680 Y0.3286
G01 X63.1487 Y0.3617
G01 X63.1224 Y0.4087
G01 X63.0989 Y0.4531
G01 X63.0775 Y0.4957
G01 X63.0547 Y0.5437
G01 X63.0368 Y0.5835
G01 X63.0179 Y0.6282
G01 X62.9958 Y0.6837
G01 X62.9805 Y0.7249
G01 X62.9672 Y0.7628
G01 X62.9504 Y0.8140
G01 X62.9355 Y0.8631
G01 X62.9211 Y0.9149
G01 X62.9111 Y0.9542
G01 X62.9012 Y0.9962
G01 X62.8904 Y1.0465
G01 X62.8810 Y1.0958
G01 X62.8740 Y1.1371
G01 X62.8662 Y1.1890
G01 X62.8610 Y1.2297
G01 X62.8557 Y1.2790
G01 X62.8519 Y1.3220
G01 X62.8479 Y1.3836
G01 X62.8458 Y1.4365
G01 X62.8449 Y1.5000
G01 X62.8451 Y12.5255
G01 X62.8463 Y12.5786
G01 X62.8495 Y12.6431
G01 X62.8536 Y12.6978
G01 X62.8592 Y12.7550
G01 X62.8662 Y12.8110
G01 X62.8756 Y12.8726
G01 X62.8856 Y12.9290
G01 X62.8983 Y12.9910
G01 X62.9111 Y13.0458
G01 X62.9242 Y13.0967
G01 X62.9390 Y13.1490
G01 X62.9587 Y13.2120
G01 X62.9772 Y13.2660
G01 X63.0005 Y13.3285
G01 X63.0223 Y13.3825
G01 X63.0368 Y13.4165
G01 X63.0492 Y13.4442
G01 X63.0722 Y13.4935
G01 X63.1001 Y13.5492
G01 X63.1298 Y13.6047
G01 X63.1606 Y13.6589
G01 X63.1956 Y13.7164
G01 X63.2248 Y13.7616
G01 X63.2575 Y13.8096
G01 X63.2874 Y13.8514
G01 X63.3153 Y13.8887
G01 X63.3564 Y13.9407
G01 X63.3915 Y13.9829
G01 X63.4175 Y14.0129
G01 X63.4365 Y14.0341
G01 X63.4735 Y14.0740
G01 X63.5156 Y14.1172
G01 X63.5624 Y14.1625
G01 X63.6054 Y14.2021
G01 X63.6469 Y14.2384
G01 X63.6784 Y14.2647
G01 X63.7120 Y14.2918
G01 X63.7555 Y14.3254
G01 X63.7993 Y14.3576
G01 X63.8300 Y14.3791
G01 X63.8683 Y14.4051
G01 X63.9136 Y14.4344
G01 X63.9585 Y14.4619
G01 X63.9917 Y14.4813
G01 X64.0386 Y14.5076
G01 X64.0831 Y14.5311
G01 X64.1255 Y14.5524
G01 X64.1737 Y14.5753
G01 X64.2134 Y14.5931
G01 X64.2582 Y14.6121
G01 X64.3137 Y14.6342
G01 X64.3549 Y14.6495
G01 X64.3928 Y14.6628
G01 X64.4441 Y14.6797
G01 X64.4931 Y14.6945
G01 X64.5452 Y14.7090
G01 X64.5842 Y14.7189
G01 X64.6262 Y14.7288
G01 X64.6764 Y14.7396
G01 X64.7258 Y14.7490
G01 X64.7671 Y14.7560
G01 X64.8191 Y14.7638
G01 X64.8599 Y14.7691
G01 X64.9090 Y14.7743
G01 X64.9608 Y14.7787
G01 X65.0136 Y14.7821
G01 X65.0665 Y14.7842
G01 X65.1300 Y14.7851
G01 X75.1300 Y14.7851
G01 X75.1964 Y14.7841
G01 X75.2612 Y14.7813
G01 X75.3281 Y14.7764
G01 X75.3662 Y14.7728
G01 X75.4001 Y14.7691
G01 X75.4527 Y14.7622
G01 X75.5026 Y14.7544
G01 X75.5590 Y14.7444
G01 X75.6084 Y14.7344
G01 X75.6495 Y14.7252
G01 X75.7028 Y14.7121
G01 X75.7522 Y14.6987
G01 X75.8041 Y14.6833
G01 X75.8422 Y14.6712
G01 X75.8962 Y14.6527
G01 X75.9463 Y14.6342
G01 X76.0018 Y14.6121
G01 X76.0466 Y14.5931
G01 X76.0990 Y14.5694
G01 X76.1343 Y14.5525
G01 X76.1888 Y14.5249
G01 X76.2347 Y14.5002
G01 X76.2787 Y14.4754
G01 X76.3237 Y14.4484
G01 X76.3604 Y14.4255
G01 X76.4020 Y14.3983
G01 X76.4490 Y14.3659
G01 X76.4929 Y14.3341
G01 X76.5302 Y14.3058
G01 X76.5707 Y14.2736
G01 X76.6131 Y14.2384
G01 X76.6523 Y14.2041
G01 X76.6902 Y14.1695
G01 X76.7323 Y14.1292
G01 X76.7591 Y14.1024
G01 X76.7939 Y14.0662
G01 X76.8341 Y14.0223
G01 X76.8684 Y13.9830
G01 X76.9036 Y13.9407
G01 X76.9358 Y13.9002
G01 X76.9640 Y13.8630
G01 X76.9943 Y13.8212
G01 X77.0228 Y13.7801
G01 X77.0555 Y13.7304
G01 X77.0784 Y13.6937
G01 X77.1054 Y13.6486
G01 X77.1317 Y13.6022
G01 X77.1599 Y13.5492
G01 X77.1826 Y13.5041
G01 X77.2053 Y13.4563
G01 X77.2231 Y13.4166
G01 X77.2458 Y13.3630
G01 X77.2642 Y13.3163
G01 X77.2827 Y13.2661
G01 X77.3012 Y13.2122
G01 X77.3174 Y13.1607
G01 X77.3288 Y13.1221
G01 X77.3429 Y13.0699
G01 X77.3552 Y13.0197
G01 X77.3644 Y12.9784
G01 X77.3744 Y12.9288
G01 X77.3844 Y12.8729
G01 X77.3922 Y12.8227
G01 X77.3991 Y12.7700
G01 X77.4043 Y12.7210
G01 X77.4087 Y12.6692
G01 X77.4121 Y12.6164
G01 X77.4142 Y12.5635
G01 X77.4149 Y12.5127
G00 X77.4149 Y12.5127
G01 F450.00
G01 Z-1.6500
G01 F450.00
G01 X77.4151 Y1.5000
G01 X77.4141 Y1.4336
G01 X77.4113 Y1.3688
G01 X77.4073 Y1.3129
G01 X77.4028 Y1.2637
G01 X77.3954 Y1.2009
G01 X77.3882 Y1.1510
G01 X77.3807 Y1.1055
G01 X77.3696 Y1.0465
G01 X77.3582 Y0.9931
G01 X77.3421 Y0.9272
G01 X77.3253 Y0.8659
G01 X77.3096 Y0.8140
G01 X77.2896 Y0.7536
G01 X77.2747 Y0.7117
G01 X77.2594 Y0.6712
G01 X77.2376 Y0.6172
G01 X77.2164 Y0.5682
G01 X77.1890 Y0.5091
G01 X77.1611 Y0.4531
G01 X77.1375 Y0.4085
G01 X77.1053 Y0.3512
G01 X77.0784 Y0.3063
G01 X77.0555 Y0.2696
G01 X77.0226 Y0.2196
G01 X76.9877 Y0.1695
G01 X76.9554 Y0.1255
G01 X76.9216 Y0.0818
G01 X76.8865 Y0.0385
G01 X76.8509 Y-0.0033
G01 X76.8149 Y-0.0434
G01 X76.7711 Y-0.0901
G01 X76.7322 Y-0.1293
G01 X76.6962 Y-0.1639
G01 X76.6546 Y-0.2021
G01 X76.6130 Y-0.2385
G01 X76.5816 Y-0.2647
G01 X76.5481 Y-0.2917
G01 X76.5045 Y-0.3254
G01 X76.4606 Y-0.3576
G01 X76.4300 Y-0.3791
G01 X76.3916 Y-0.4052
G01 X76.3464 Y-0.4344
G01 X76.3015 Y-0.4619
G01 X76.2683 Y-0.4813
G01 X76.2213 Y-0.5076
G01 X76.1769 Y-0.5311
G01 X76.1344 Y-0.5525
G01 X76.0863 Y-0.5753
G01 X76.0465 Y-0.5932
G01 X76.0018 Y-0.6121
G01 X75.9463 Y-0.6342
G01 X75.9051 Y-0.6495
G01 X75.8672 Y-0.6628
G01 X75.8158 Y-0.6797
G01 X75.7641 Y-0.6953
G01 X75.7148 Y-0.7090
G01 X75.6758 Y-0.7189
G01 X75.6338 Y-0.7288
G01 X75.5836 Y-0.7396
G01 X75.5342 Y-0.7490
G01 X75.4929 Y-0.7560
G01 X75.4409 Y-0.7638
G01 X75.4001 Y-0.7691
G01 X75.3510 Y-0.7743
G01 X75.2992 Y-0.7787
G01 X75.2464 Y-0.7821
G01 X75.1935 Y-0.7842
G01 X75.1300 Y-0.7851
G01 X65.1045 Y-0.7849
G01 X65.0516 Y-0.7837
G01 X64.9868 Y-0.7805
G01 X64.9319 Y-0.7764
G01 X64.8750 Y-0.7708
G01 X64.8191 Y-0.7638
G01 X64.7573 Y-0.7544
G01 X64.7010 Y-0.7444
G01 X64.6388 Y-0.7317
G01 X64.5842 Y-0.7189
G01 X64.5333 Y-0.7058
G01 X64.4812 Y-0.6910
G01 X64.4178 Y-0.6712
G01 X64.3638 Y-0.6527
G01 X64.3291 Y-0.6400
G01 X64.3011 Y-0.6294
G01 X64.2474 Y-0.6077
G01 X64.2134 Y-0.5931
G01 X64.1860 Y-0.5809
G01 X64.1365 Y-0.5578
G01 X64.0808 Y-0.5299
G01 X64.0253 Y-0.5002
G01 X63.9711 Y-0.4694
G01 X63.9136 Y-0.4344
G01 X63.8683 Y-0.4051
G01 X63.8205 Y-0.3726
G01 X63.7786 Y-0.3426
G01 X63.7413 Y-0.3146
G01 X63.6893 Y-0.2736
G01 X63.6470 Y-0.2384
G01 X63.6172 Y-0.2125
G01 X63.5959 Y-0.1935
G01 X63.5563 Y-0.1568
G01 X63.5128 Y-0.1144
G01 X63.4675 Y-0.0676
G01 X63.4279 Y-0.0246
G01 X63.3917 Y0.0169
G01 X63.3653 Y0.0484
G01 X63.3384 Y0.0818
G01 X63.3046 Y0.1255
G01 X63.2724 Y0.1693
G01 X63.2509 Y0.2000
G01 X63.2249 Y0.2383
G01 X63.1956 Y0.2836
G01 X63.1680 Y0.3286
G01 X63.1487 Y0.3617
G01 X63.1224 Y0.4087
G01 X63.0989 Y0.4531
G01 X63.0775 Y0.4957
G01 X63.0547 Y0.5437
G01 X63.0368 Y0.5835
G01 X63.0179 Y0.6282
G01 X62.9958 Y0.6837
G01 X62.9805 Y0.7249
G01 X62.9672 Y0.7628
G01 X62.9504 Y0.8140
G01 X62.9355 Y0.8631
G01 X62.9211 Y0.9149
G01 X62.9111 Y0.9542
G01 X62.9012 Y0.9962
G01 X62.8904 Y1.0465
G01 X62.8810 Y1.0958
G01 X62.8740 Y1.1371
G01 X62.8662 Y1.1890
G01 X62.8610 Y1.2297
G01 X62.8557 Y1.2790
G01 X62.8519 Y1.3220
G01 X62.8479 Y1.3836
G01 X62.8458 Y1.4365
G01 X62.8449 Y1.5000
G01 X62.8451 Y12.5255
G01 X62.8463 Y12.5786
G01 X62.8495 Y12.6431
G01 X62.8536 Y12.6978
G01 X62.8592 Y12.7550
G01 X62.8662 Y12.8110
G01 X62.8756 Y12.8726
G01 X62.8856 Y12.9290
G01 X62.8983 Y12.9910
G01 X62.9111 Y13.0458
G01 X62.9242 Y13.0967
G01 X62.9390 Y13.1490
G01 X62.9587 Y13.2120
G01 X62.9772 Y13.2660
G01 X63.0005 Y13.3285
G01 X63.0223 Y13.3825
G01 X63.0368 Y13.4165
G01 X63.0492 Y13.4442
G01 X63.0722 Y13.4935
G01 X63.1001 Y13.5492
G01 X63.1298 Y13.6047
G01 X63.1606 Y13.6589
G01 X63.1956 Y13.7164
G01 X63.2248 Y13.7616
G01 X63.2575 Y13.8096
G01 X63.2874 Y13.8514
G01 X63.3153 Y13.8887
G01 X63.3564 Y13.9407
G01 X63.3915 Y13.9829
G01 X63.4175 Y14.0129
G01 X63.4365 Y14.0341
G01 X63.4735 Y14.0740
G01 X63.5156 Y14.1172
G01 X63.5624 Y14.1625
G01 X63.6054 Y14.2021
G01 X63.6469 Y14.2384
G01 X63.6784 Y14.2647
G01 X63.7120 Y14.2918
G01 X63.7555 Y14.3254
G01 X63.7993 Y14.3576
G01 X63.8300 Y14.3791
G01 X63.8683 Y14.4051
G01 X63.9136 Y14.4344
G01 X63.9585 Y14.4619
G01 X63.9917 Y14.4813
G01 X64.0386 Y14.5076
G01 X64.0831 Y14.5311
G01 X64.1255 Y14.5524
G01 X64.1737 Y14.5753
G01 X64.2134 Y14.5931
G01 X64.2582 Y14.6121
G01 X64.3137 Y14.6342
G01 X64.3549 Y14.6495
G01 X64.3928 Y14.6628
G01 X64.4441 Y14.6797
G01 X64.4931 Y14.6945
G01 X64.5452 Y14.7090
G01 X64.5842 Y14.7189
G01 X64.6262 Y14.7288
G01 X64.6764 Y14.7396
G01 X64.7258 Y14.7490
G01 X64.7671 Y14.7560
G01 X64.8191 Y14.7638
G01 X64.8599 Y14.7691
G01 X64.9090 Y14.7743
G01 X64.9608 Y14.7787
G01 X65.0136 Y14.7821
G01 X65.0665 Y14.7842
G01 X65.1300 Y14.7851
G01 X75.1300 Y14.7851
G01 X75.1964 Y14.7841
G01 X75.2612 Y14.7813
G01 X75.3281 Y14.7764
G01 X75.3662 Y14.7728
G01 X75.4001 Y14.7691
G01 X75.4527 Y14.7622
G01 X75.5026 Y14.7544
G01 X75.5590 Y14.7444
G01 X75.6084 Y14.7344
G01 X75.6495 Y14.7252
G01 X75.7028 Y14.7121
G01 X75.7522 Y14.6987
G01 X75.8041 Y14.6833
G01 X75.8422 Y14.6712
G01 X75.8962 Y14.6527
G01 X75.9463 Y14.6342
G01 X76.0018 Y14.6121
G01 X76.0466 Y14.5931
G01 X76.0990 Y14.5694
G01 X76.1343 Y14.5525
G01 X76.1888 Y14.5249
G01 X76.2347 Y14.5002
G01 X76.2787 Y14.4754
G01 X76.3237 Y14.4484
G01 X76.3604 Y14.4255
G01 X76.4020 Y14.3983
G01 X76.4490 Y14.3659
G01 X76.4929 Y14.3341
G01 X76.5302 Y14.3058
G01 X76.5707 Y14.2736
G01 X76.6131 Y14.2384
G01 X76.6523 Y14.2041
G01 X76.6902 Y14.1695
G01 X76.7323 Y14.1292
G01 X76.7591 Y14.1024
G01 X76.7939 Y14.0662
G01 X76.8341 Y14.0223
G01 X76.8684 Y13.9830
G01 X76.9036 Y13.9407
G01 X76.9358 Y13.9002
G01 X76.9640 Y13.8630
G01 X76.9943 Y13.8212
G01 X77.0228 Y13.7801
G01 X77.0555 Y13.7304
G01 X77.0784 Y13.6937
G01 X77.1054 Y13.6486
G01 X77.1317 Y13.6022
G01 X77.1599 Y13.5492
G01 X77.1826 Y13.5041
G01 X77.2053 Y13.4563
G01 X77.2231 Y13.4166
G01 X77.2458 Y13.3630
G01 X77.2642 Y13.3163
G01 X77.2827 Y13.2661
G01 X77.3012 Y13.2122
G01 X77.3174 Y13.1607
G01 X77.3288 Y13.1221
G01 X77.3429 Y13.0699
G01 X77.3552 Y13.0197
G01 X77.3644 Y12.9784
G01 X77.3744 Y12.9288
G01 X77.3844 Y12.8729
G01 X77.3922 Y12.8227
G01 X77.3991 Y12.7700
G01 X77.4043 Y12.7210
G01 X77.4087 Y12.6692
G01 X77.4121 Y12.6164
G01 X77.4142 Y12.5635
G01 X77.4149 Y12.5127
G00 Z15.0000
G00 X92.2849 Y12.1627
G01 F450.00
G01 Z-0.5500
G01 F450.00
G01 X92.2851 Y1.1500
G01 X92.2841 Y1.0836
G01 X92.2813 Y1.0188
G01 X92.2773 Y0.9629
G01 X92.2728 Y0.9138
G01 X92.2654 Y0.8509
G01 X92.2582 Y0.8010
G01 X92.2507 Y0.7555
G01 X92.2396 Y0.6964
G01 X92.2282 Y0.6431
G01 X92.2121 Y0.5772
G01 X92.1953 Y0.5159
G01 X92.1797 Y0.4641
G01 X92.1597 Y0.4038
G01 X92.1447 Y0.3617
G01 X92.1294 Y0.3213
G01 X92.1077 Y0.2675
G01 X92.0864 Y0.2182
G01 X92.0590 Y0.1591
G01 X92.0360 Y0.1126
G01 X92.0076 Y0.0586
G01 X91.9755 Y0.0015
G01 X91.9484 Y-0.0437
G01 X91.9255 Y-0.0805
G01 X91.8928 Y-0.1301
G01 X91.8577 Y-0.1806
G01 X91.8254 Y-0.2245
G01 X91.7916 Y-0.2683
G01 X91.7567 Y-0.3113
G01 X91.7209 Y-0.3533
G01 X91.6849 Y-0.3934
G01 X91.6411 Y-0.4401
G01 X91.6022 Y-0.4792
G01 X91.5662 Y-0.5139
G01 X91.5246 Y-0.5521
G01 X91.4831 Y-0.5884
G01 X91.4516 Y-0.6147
G01 X91.4180 Y-0.6418
G01 X91.3745 Y-0.6754
G01 X91.3306 Y-0.7077
G01 X91.3000 Y-0.7291
G01 X91.2617 Y-0.7551
G01 X91.2164 Y-0.7844
G01 X91.1715 Y-0.8119
G01 X91.1383 Y-0.8313
G01 X91.0914 Y-0.8576
G01 X91.0469 Y-0.8811
G01 X91.0043 Y-0.9025
G01 X90.9563 Y-0.9253
G01 X90.9166 Y-0.9431
G01 X90.8718 Y-0.9621
G01 X90.8163 Y-0.9842
G01 X90.7751 Y-0.9995
G01 X90.7372 Y-1.0128
G01 X90.6859 Y-1.0297
G01 X90.6341 Y-1.0453
G01 X90.5847 Y-1.0590
G01 X90.5458 Y-1.0689
G01 X90.5038 Y-1.0788
G01 X90.4536 Y-1.0896
G01 X90.4042 Y-1.0990
G01 X90.3629 Y-1.1060
G01 X90.3109 Y-1.1138
G01 X90.2701 Y-1.1191
G01 X90.2210 Y-1.1243
G01 X90.1692 Y-1.1287
G01 X90.1164 Y-1.1321
G01 X90.0635 Y-1.1342
G01 X90.0000 Y-1.1351
G01 X79.9745 Y-1.1349
G01 X79.9216 Y-1.1337
G01 X79.8568 Y-1.1305
G01 X79.8019 Y-1.1264
G01 X79.7450 Y-1.1208
G01 X79.6891 Y-1.1138
G01 X79.6274 Y-1.1044
G01 X79.5710 Y-1.0944
G01 X79.5088 Y-1.0817
G01 X79.4542 Y-1.0689
G01 X79.4033 Y-1.0558
G01 X79.3512 Y-1.0410
G01 X79.2878 Y-1.0212
G01 X79.2337 Y-1.0027
G01 X79.1992 Y-0.9901
G01 X79.1711 Y-0.9794
G01 X79.1173 Y-0.9576
G01 X79.0835 Y-0.9432
G01 X79.0559 Y-0.9309
G01 X79.0065 Y-0.9078
G01 X78.9508 Y-0.8799
G01 X78.8953 Y-0.8502
G01 X78.8411 Y-0.8194
G01 X78.7836 Y-0.7844
G01 X78.7382 Y-0.7551
G01 X78.6903 Y-0.7225
G01 X78.6486 Y-0.6926
G01 X78.6112 Y-0.6646
G01 X78.5593 Y-0.6236
G01 X78.5170 Y-0.5884
G01 X78.4660 Y-0.5436
G01 X78.4260 Y-0.5065
G01 X78.3828 Y-0.4644
G01 X78.3375 Y-0.4176
G01 X78.2979 Y-0.3746
G01 X78.2617 Y-0.3331
G01 X78.2353 Y-0.3016
G01 X78.2084 Y-0.2683
G01 X78.1746 Y-0.2245
G01 X78.1423 Y-0.1805
G01 X78.1209 Y-0.1500
G01 X78.0950 Y-0.1118
G01 X78.0656 Y-0.0664
G01 X78.0382 Y-0.0217
G01 X78.0187 Y0.0117
G01 X77.9925 Y0.0585
G01 X77.9689 Y0.1031
G01 X77.9475 Y0.1458
G01 X77.9247 Y0.1937
G01 X77.9070 Y0.2331
G01 X77.8879 Y0.2782
G01 X77.8658 Y0.3337
G01 X77.8505 Y0.3749
G01 X77.8372 Y0.4128
G01 X77.8203 Y0.4641
G01 X77.8055 Y0.5131
G01 X77.7942 Y0.5533
G01 X77.7841 Y0.5921
G01 X77.7712 Y0.6462
G01 X77.7604 Y0.6965
G01 X77.7510 Y0.7458
G01 X77.7440 Y0.7871
G01 X77.7362 Y0.8393
G01 X77.7309 Y0.8800
G01 X77.7257 Y0.9290
G01 X77.7213 Y0.9808
G01 X77.7179 Y1.0337
G01 X77.7158 Y1.0865
G01 X77.7149 Y1.1500
G01 X77.7151 Y12.1755
G01 X77.7163 Y12.2283
G01 X77.7195 Y12.2935
G01 X77.7236 Y12.3482
G01 X77.7292 Y12.4050
G01 X77.7362 Y12.4607
G01 X77.7456 Y12.5225
G01 X77.7556 Y12.5788
G01 X77.7683 Y12.6411
G01 X77.7811 Y12.6958
G01 X77.7942 Y12.7467
G01 X77.8090 Y12.7990
G01 X77.8288 Y12.8622
G01 X77.8473 Y12.9161
G01 X77.8706 Y12.9787
G01 X77.8925 Y13.0329
G01 X77.9191 Y13.0940
G01 X77.9422 Y13.1435
G01 X77.9701 Y13.1992
G01 X77.9998 Y13.2547
G01 X78.0306 Y13.3089
G01 X78.0656 Y13.3664
G01 X78.0948 Y13.4116
G01 X78.1275 Y13.4596
G01 X78.1574 Y13.5014
G01 X78.1855 Y13.5389
G01 X78.2264 Y13.5907
G01 X78.2616 Y13.6330
G01 X78.3063 Y13.6839
G01 X78.3433 Y13.7237
G01 X78.3856 Y13.7672
G01 X78.4324 Y13.8125
G01 X78.4754 Y13.8521
G01 X78.5169 Y13.8884
G01 X78.5484 Y13.9147
G01 X78.5818 Y13.9416
G01 X78.6255 Y13.9754
G01 X78.6695 Y14.0077
G01 X78.7000 Y14.0291
G01 X78.7383 Y14.0551
G01 X78.7836 Y14.0844
G01 X78.8285 Y14.1119
G01 X78.8617 Y14.1313
G01 X78.9085 Y14.1575
G01 X78.9531 Y14.1811
G01 X78.9957 Y14.2025
G01 X79.0437 Y14.2253
G01 X79.0834 Y14.2431
G01 X79.1282 Y14.2621
G01 X79.1837 Y14.2842
G01 X79.2249 Y14.2995
G01 X79.2628 Y14.3128
G01 X79.3141 Y14.3297
G01 X79.3659 Y14.3453
G01 X79.4152 Y14.3590
G01 X79.4542 Y14.3689
G01 X79.4962 Y14.3788
G01 X79.5463 Y14.3896
G01 X79.5958 Y14.3990
G01 X79.6371 Y14.4060
G01 X79.6891 Y14.4138
G01 X79.7299 Y14.4191
G01 X79.7790 Y14.4243
G01 X79.8308 Y14.4287
G01 X79.8836 Y14.4321
G01 X79.9365 Y14.4342
G01 X80.0000 Y14.4351
G01 X90.0000 Y14.4351
G01 X90.0664 Y14.4341
G01 X90.1312 Y14.4313
G01 X90.1981 Y14.4264
G01 X90.2362 Y14.4228
G01 X90.2701 Y14.4191
G01 X90.3227 Y14.4122
G01 X90.3726 Y14.4044
G01 X90.4290 Y14.3944
G01 X90.4784 Y14.3844
G01 X90.5196 Y14.3752
G01 X90.5728 Y14.3621
G01 X90.6222 Y14.3487
G01 X90.6741 Y14.3333
G01 X90.7122 Y14.3212
G01 X90.7663 Y14.3027
G01 X90.8163 Y14.2842
G01 X90.8718 Y14.2621
G01 X90.9167 Y14.2431
G01 X90.9690 Y14.2194
G01 X91.0044 Y14.2024
G01 X91.0587 Y14.1750
G01 X91.1047 Y14.1502
G01 X91.1486 Y14.1254
G01 X91.1937 Y14.0984
G01 X91.2303 Y14.0756
G01 X91.2720 Y14.0483
G01 X91.3190 Y14.0159
G01 X91.3630 Y13.9840
G01 X91.4002 Y13.9558
G01 X91.4407 Y13.9236
G01 X91.4830 Y13.8884
G01 X91.5223 Y13.8541
G01 X91.5600 Y13.8197
G01 X91.6023 Y13.7792
G01 X91.6292 Y13.7522
G01 X91.6639 Y13.7162
G01 X91.7041 Y13.6723
G01 X91.7384 Y13.6330
G01 X91.7736 Y13.5907
G01 X91.8058 Y13.5502
G01 X91.8341 Y13.5129
G01 X91.8643 Y13.4712
G01 X91.8927 Y13.4303
G01 X91.9256 Y13.3803
G01 X91.9484 Y13.3437
G01 X91.9754 Y13.2986
G01 X92.0017 Y13.2522
G01 X92.0299 Y13.1992
G01 X92.0525 Y13.1543
G01 X92.0753 Y13.1063
G01 X92.0931 Y13.0668
G01 X92.1157 Y13.0132
G01 X92.1342 Y12.9663
G01 X92.1528 Y12.9160
G01 X92.1712 Y12.8623
G01 X92.1833 Y12.8241
G01 X92.1987 Y12.7722
G01 X92.2129 Y12.7199
G01 X92.2253 Y12.6695
G01 X92.2344 Y12.6284
G01 X92.2444 Y12.5792
G01 X92.2544 Y12.5227
G01 X92.2622 Y12.4727
G01 X92.2690 Y12.4202
G01 X92.2743 Y12.3710
G01 X92.2781 Y12.3278
G01 X92.2821 Y12.2664
G01 X92.2842 Y12.2135
G01 X92.2849 Y12.1627
G00 X92.2849 Y12.1627
G01 F450.00
G01 Z-1.1000
G01 F450.00
G01 X92.2851 Y1.1500
G01 X92.2841 Y1.0836
G01 X92.2813 Y1.0188
G01 X92.2773 Y0.9629
G01 X92.2728 Y0.9138
G01 X92.2654 Y0.8509
G01 X92.2582 Y0.8010
G01 X92.2507 Y0.7555
G01 X92.2396 Y0.6964
G01 X92.2282 Y0.6431
G01 X92.2121 Y0.5772
G01 X92.1953 Y0.5159
G01 X92.1797 Y0.4641
G01 X92.1597 Y0.4038
G01 X92.1447 Y0.3617
G01 X92.1294 Y0.3213
G01 X92.1077 Y0.2675
G01 X92.0864 Y0.2182
G01 X92.0590 Y0.1591
G01 X92.0360 Y0.1126
G01 X92.0076 Y0.0586
G01 X91.9755 Y0.0015
G01 X91.9484 Y-0.0437
G01 X91.9255 Y-0.0805
G01 X91.8928 Y-0.1301
G01 X91.8577 Y-0.1806
G01 X91.8254 Y-0.2245
G01 X91.7916 Y-0.2683
G01 X91.7567 Y-0.3113
G01 X91.7209 Y-0.3533
G01 X91.6849 Y-0.3934
G01 X91.6411 Y-0.4401
G01 X91.6022 Y-0.4792
G01 X91.5662 Y-0.5139
G01 X91.5246 Y-0.5521
G01 X91.4831 Y-0.5884
G01 X91.4516 Y-0.6147
G01 X91.4180 Y-0.6418
G01 X91.3745 Y-0.6754
G01 X91.3306 Y-0.7077
G01 X91.3000 Y-0.7291
G01 X91.2617 Y-0.7551
G01 X91.2164 Y-0.7844
G01 X91.1715 Y-0.8119
G01 X91.1383 Y-0.8313
G01 X91.0914 Y-0.8576
G01 X91.0469 Y-0.8811
G01 X91.0043 Y-0.9025
G01 X90.9563 Y-0.9253
G01 X90.9166 Y-0.9431
G01 X90.8718 Y-0.9621
G01 X90.8163 Y-0.9842
G01 X90.7751 Y-0.9995
G01 X90.7372 Y-1.0128
G01 X90.6859 Y-1.0297
G01 X90.6341 Y-1.0453
G01 X90.5847 Y-1.0590
G01 X90.5458 Y-1.0689
G01 X90.5038 Y-1.0788
G01 X90.4536 Y-1.0896
G01 X90.4042 Y-1.0990
G01 X90.3629 Y-1.1060
G01 X90.3109 Y-1.1138
G01 X90.2701 Y-1.1191
G01 X90.2210 Y-1.1243
G01 X90.1692 Y-1.1287
G01 X90.1164 Y-1.1321
G01 X90.0635 Y-1.1342
G01 X90.0000 Y-1.1351
G01 X79.9745 Y-1.1349
G01 X79.9216 Y-1.1337
G01 X79.8568 Y-1.1305
G01 X79.8019 Y-1.1264
G01 X79.7450 Y-1.1208
G01 X79.6891 Y-1.1138
G01 X79.6274 Y-1.1044
G01 X79.5710 Y-1.0944
G01 X79.5088 Y-1.0817
