(G-CODE GENERATED BY FLATCAM v8.99 - www.flatcam.org - Version Date: 2019/12/15)

(Name: furos09)
(Type: G-code from Excellon)
(Units: MM)

(Created on Thursday, 11 February 2021 at 14:44)

(Feedrate: 650.0 mm/min)
(Feedrate rapids 1500.0 mm/min)

(Z_Cut: -1.8 mm)
(Z_Move: 15.0 mm)
(Z Toolchange: 15.0 mm)
(X,Y Toolchange: 0.0000, 0.0000 mm)
(Z Start: None mm)
(Z End: 90.0 mm)
(Steps per circle: 64)
(Preprocessor Excellon: default)

(X range:    2.1920 ...   88.6980  mm)
(Y range:    2.9200 ...   96.9060  mm)

(Spindle Speed: 12000.0 RPM)
G21
G90
G94




G01 F650.00
G00 Z15.0000

M03 S12000.0
G00 X88.1900 Y5.6980
G01 Z-1.8000
G01 Z0
G00 Z15.0000
G00 X88.1900 Y8.2380
G01 Z-1.8000
G01 Z0
G00 Z15.0000
G00 X84.1100 Y11.0480
G01 Z-1.8000
G01 Z0
G00 Z15.0000
G00 X81.5700 Y20.4280
G01 Z-1.8000
G01 Z0
G00 Z15.0000
G00 X84.1100 Y20.4280
G01 Z-1.8000
G01 Z0
G00 Z15.0000
G00 X84.1100 Y22.9680
G01 Z-1.8000
G01 Z0
G00 Z15.0000
G00 X81.5700 Y22.9680
G01 Z-1.8000
G01 Z0
G00 Z15.0000
G00 X81.5700 Y25.5080
G01 Z-1.8000
G01 Z0
G00 Z15.0000
G00 X84.1100 Y25.5080
G01 Z-1.8000
G01 Z0
G00 Z15.0000
G00 X88.1900 Y22.6980
G01 Z-1.8000
G01 Z0
G00 Z15.0000
G00 X88.1900 Y25.2380
G01 Z-1.8000
G01 Z0
G00 Z15.0000
G00 X84.1100 Y28.0480
G01 Z-1.8000
G01 Z0
G00 Z15.0000
G00 X81.5700 Y28.0480
G01 Z-1.8000
G01 Z0
G00 Z15.0000
G00 X81.5700 Y37.4280
G01 Z-1.8000
G01 Z0
G00 Z15.0000
G00 X81.5700 Y39.9680
G01 Z-1.8000
G01 Z0
G00 Z15.0000
G00 X81.5700 Y42.5080
G01 Z-1.8000
G01 Z0
G00 Z15.0000
G00 X84.1100 Y42.5080
G01 Z-1.8000
G01 Z0
G00 Z15.0000
G00 X84.1100 Y39.9680
G01 Z-1.8000
G01 Z0
G00 Z15.0000
G00 X84.1100 Y37.4280
G01 Z-1.8000
G01 Z0
G00 Z15.0000
G00 X88.1900 Y39.6980
G01 Z-1.8000
G01 Z0
G00 Z15.0000
G00 X88.1900 Y42.2380
G01 Z-1.8000
G01 Z0
G00 Z15.0000
G00 X84.1100 Y45.0480
G01 Z-1.8000
G01 Z0
G00 Z15.0000
G00 X81.5700 Y45.0480
G01 Z-1.8000
G01 Z0
G00 Z15.0000
G00 X81.5700 Y54.4280
G01 Z-1.8000
G01 Z0
G00 Z15.0000
G00 X81.5700 Y56.9680
G01 Z-1.8000
G01 Z0
G00 Z15.0000
G00 X81.5700 Y59.5080
G01 Z-1.8000
G01 Z0
G00 Z15.0000
G00 X84.1100 Y59.5080
G01 Z-1.8000
G01 Z0
G00 Z15.0000
G00 X84.1100 Y56.9680
G01 Z-1.8000
G01 Z0
G00 Z15.0000
G00 X84.1100 Y54.4280
G01 Z-1.8000
G01 Z0
G00 Z15.0000
G00 X88.1900 Y56.6980
G01 Z-1.8000
G01 Z0
G00 Z15.0000
G00 X88.1900 Y59.2380
G01 Z-1.8000
G01 Z0
G00 Z15.0000
G00 X84.1100 Y62.0480
G01 Z-1.8000
G01 Z0
G00 Z15.0000
G00 X81.5700 Y62.0480
G01 Z-1.8000
G01 Z0
G00 Z15.0000
G00 X81.5700 Y71.4280
G01 Z-1.8000
G01 Z0
G00 Z15.0000
G00 X81.5700 Y73.9680
G01 Z-1.8000
G01 Z0
G00 Z15.0000
G00 X81.5700 Y76.5080
G01 Z-1.8000
G01 Z0
G00 Z15.0000
G00 X81.5700 Y79.0480
G01 Z-1.8000
G01 Z0
G00 Z15.0000
G00 X84.1100 Y79.0480
G01 Z-1.8000
G01 Z0
G00 Z15.0000
G00 X84.1100 Y76.5080
G01 Z-1.8000
G01 Z0
G00 Z15.0000
G00 X84.1100 Y73.9680
G01 Z-1.8000
G01 Z0
G00 Z15.0000
G00 X84.1100 Y71.4280
G01 Z-1.8000
G01 Z0
G00 Z15.0000
G00 X88.1900 Y73.6980
G01 Z-1.8000
G01 Z0
G00 Z15.0000
G00 X88.1900 Y76.2380
G01 Z-1.8000
G01 Z0
G00 Z15.0000
G00 X84.1100 Y88.4280
G01 Z-1.8000
G01 Z0
G00 Z15.0000
G00 X88.1900 Y90.6980
G01 Z-1.8000
G01 Z0
G00 Z15.0000
G00 X88.1900 Y93.2380
G01 Z-1.8000
G01 Z0
G00 Z15.0000
G00 X84.1100 Y90.9680
G01 Z-1.8000
G01 Z0
G00 Z15.0000
G00 X84.1100 Y93.5080
G01 Z-1.8000
G01 Z0
G00 Z15.0000
G00 X84.1100 Y96.0480
G01 Z-1.8000
G01 Z0
G00 Z15.0000
G00 X81.5700 Y96.0480
G01 Z-1.8000
G01 Z0
G00 Z15.0000
G00 X81.5700 Y93.5080
G01 Z-1.8000
G01 Z0
G00 Z15.0000
G00 X81.5700 Y90.9680
G01 Z-1.8000
G01 Z0
G00 Z15.0000
G00 X81.5700 Y88.4280
G01 Z-1.8000
G01 Z0
G00 Z15.0000
G00 X73.3200 Y91.0480
G01 Z-1.8000
G01 Z0
G00 Z15.0000
G00 X73.3200 Y93.5880
G01 Z-1.8000
G01 Z0
G00 Z15.0000
G00 X69.2400 Y93.8580
G01 Z-1.8000
G01 Z0
G00 Z15.0000
G00 X69.2400 Y96.3980
G01 Z-1.8000
G01 Z0
G00 Z15.0000
G00 X66.7000 Y96.3980
G01 Z-1.8000
G01 Z0
G00 Z15.0000
G00 X66.7000 Y93.8580
G01 Z-1.8000
G01 Z0
G00 Z15.0000
G00 X66.7000 Y91.3180
G01 Z-1.8000
G01 Z0
G00 Z15.0000
G00 X69.2400 Y91.3180
G01 Z-1.8000
G01 Z0
G00 Z15.0000
G00 X69.2400 Y88.7780
G01 Z-1.8000
G01 Z0
G00 Z15.0000
G00 X66.7000 Y88.7780
G01 Z-1.8000
G01 Z0
G00 Z15.0000
G00 X57.3200 Y91.0480
G01 Z-1.8000
G01 Z0
G00 Z15.0000
G00 X57.3200 Y93.5880
G01 Z-1.8000
G01 Z0
G00 Z15.0000
G00 X53.2400 Y96.3980
G01 Z-1.8000
G01 Z0
G00 Z15.0000
G00 X53.2400 Y93.8580
G01 Z-1.8000
G01 Z0
G00 Z15.0000
G00 X53.2400 Y91.3180
G01 Z-1.8000
G01 Z0
G00 Z15.0000
G00 X53.2400 Y88.7780
G01 Z-1.8000
G01 Z0
G00 Z15.0000
G00 X50.7000 Y88.7780
G01 Z-1.8000
G01 Z0
G00 Z15.0000
G00 X50.7000 Y91.3180
G01 Z-1.8000
G01 Z0
G00 Z15.0000
G00 X50.7000 Y93.8580
G01 Z-1.8000
G01 Z0
G00 Z15.0000
G00 X50.7000 Y96.3980
G01 Z-1.8000
G01 Z0
G00 Z15.0000
G00 X41.3200 Y93.5880
G01 Z-1.8000
G01 Z0
G00 Z15.0000
G00 X41.3200 Y91.0480
G01 Z-1.8000
G01 Z0
G00 Z15.0000
G00 X37.2400 Y93.8580
G01 Z-1.8000
G01 Z0
G00 Z15.0000
G00 X37.2400 Y96.3980
G01 Z-1.8000
G01 Z0
G00 Z15.0000
G00 X34.7000 Y96.3980
G01 Z-1.8000
G01 Z0
G00 Z15.0000
G00 X34.7000 Y93.8580
G01 Z-1.8000
G01 Z0
G00 Z15.0000
G00 X34.7000 Y91.3180
G01 Z-1.8000
G01 Z0
G00 Z15.0000
G00 X37.2400 Y91.3180
G01 Z-1.8000
G01 Z0
G00 Z15.0000
G00 X37.2400 Y88.7780
G01 Z-1.8000
G01 Z0
G00 Z15.0000
G00 X34.7000 Y88.7780
G01 Z-1.8000
G01 Z0
G00 Z15.0000
G00 X25.3200 Y91.0480
G01 Z-1.8000
G01 Z0
G00 Z15.0000
G00 X25.3200 Y93.5880
G01 Z-1.8000
G01 Z0
G00 Z15.0000
G00 X21.2400 Y96.3980
G01 Z-1.8000
G01 Z0
G00 Z15.0000
G00 X21.2400 Y93.8580
G01 Z-1.8000
G01 Z0
G00 Z15.0000
G00 X21.2400 Y91.3180
G01 Z-1.8000
G01 Z0
G00 Z15.0000
G00 X21.2400 Y88.7780
G01 Z-1.8000
G01 Z0
G00 Z15.0000
G00 X18.7000 Y88.7780
G01 Z-1.8000
G01 Z0
G00 Z15.0000
G00 X18.7000 Y91.3180
G01 Z-1.8000
G01 Z0
G00 Z15.0000
G00 X18.7000 Y93.8580
G01 Z-1.8000
G01 Z0
G00 Z15.0000
G00 X18.7000 Y96.3980
G01 Z-1.8000
G01 Z0
G00 Z15.0000
G00 X9.3200 Y93.5880
G01 Z-1.8000
G01 Z0
G00 Z15.0000
G00 X9.3200 Y91.0480
G01 Z-1.8000
G01 Z0
G00 Z15.0000
G00 X5.2400 Y93.8580
G01 Z-1.8000
G01 Z0
G00 Z15.0000
G00 X5.2400 Y96.3980
G01 Z-1.8000
G01 Z0
G00 Z15.0000
G00 X2.7000 Y96.3980
G01 Z-1.8000
G01 Z0
G00 Z15.0000
G00 X2.7000 Y93.8580
G01 Z-1.8000
G01 Z0
G00 Z15.0000
G00 X2.7000 Y91.3180
G01 Z-1.8000
G01 Z0
G00 Z15.0000
G00 X5.2400 Y91.3180
G01 Z-1.8000
G01 Z0
G00 Z15.0000
G00 X5.2400 Y88.7780
G01 Z-1.8000
G01 Z0
G00 Z15.0000
G00 X2.7000 Y88.7780
G01 Z-1.8000
G01 Z0
G00 Z15.0000
G00 X2.7000 Y79.3980
G01 Z-1.8000
G01 Z0
G00 Z15.0000
G00 X2.7000 Y76.8580
G01 Z-1.8000
G01 Z0
G00 Z15.0000
G00 X2.7000 Y74.3180
G01 Z-1.8000
G01 Z0
G00 Z15.0000
G00 X2.7000 Y71.7780
G01 Z-1.8000
G01 Z0
G00 Z15.0000
G00 X5.2400 Y71.7780
G01 Z-1.8000
G01 Z0
G00 Z15.0000
G00 X5.2400 Y74.3180
G01 Z-1.8000
G01 Z0
G00 Z15.0000
G00 X5.2400 Y76.8580
G01 Z-1.8000
G01 Z0
G00 Z15.0000
G00 X5.2400 Y79.3980
G01 Z-1.8000
G01 Z0
G00 Z15.0000
G00 X9.3200 Y76.5880
G01 Z-1.8000
G01 Z0
G00 Z15.0000
G00 X9.3200 Y74.0480
G01 Z-1.8000
G01 Z0
G00 Z15.0000
G00 X18.7000 Y79.3980
G01 Z-1.8000
G01 Z0
G00 Z15.0000
G00 X21.2400 Y79.3980
G01 Z-1.8000
G01 Z0
G00 Z15.0000
G00 X21.2400 Y76.8580
G01 Z-1.8000
G01 Z0
G00 Z15.0000
G00 X18.7000 Y76.8580
G01 Z-1.8000
G01 Z0
G00 Z15.0000
G00 X18.7000 Y74.3180
G01 Z-1.8000
G01 Z0
G00 Z15.0000
G00 X18.7000 Y71.7780
G01 Z-1.8000
G01 Z0
G00 Z15.0000
G00 X21.2400 Y71.7780
G01 Z-1.8000
G01 Z0
G00 Z15.0000
G00 X21.2400 Y74.3180
G01 Z-1.8000
G01 Z0
G00 Z15.0000
G00 X25.3200 Y74.0480
G01 Z-1.8000
G01 Z0
G00 Z15.0000
G00 X25.3200 Y76.5880
G01 Z-1.8000
G01 Z0
G00 Z15.0000
G00 X34.7000 Y79.3980
G01 Z-1.8000
G01 Z0
G00 Z15.0000
G00 X37.2400 Y79.3980
G01 Z-1.8000
G01 Z0
G00 Z15.0000
G00 X37.2400 Y76.8580
G01 Z-1.8000
G01 Z0
G00 Z15.0000
G00 X34.7000 Y76.8580
G01 Z-1.8000
G01 Z0
G00 Z15.0000
G00 X34.7000 Y74.3180
G01 Z-1.8000
G01 Z0
G00 Z15.0000
G00 X34.7000 Y71.7780
G01 Z-1.8000
G01 Z0
G00 Z15.0000
G00 X37.2400 Y71.7780
G01 Z-1.8000
G01 Z0
G00 Z15.0000
G00 X37.2400 Y74.3180
G01 Z-1.8000
G01 Z0
G00 Z15.0000
G00 X41.3200 Y74.0480
G01 Z-1.8000
G01 Z0
G00 Z15.0000
G00 X41.3200 Y76.5880
G01 Z-1.8000
G01 Z0
G00 Z15.0000
G00 X50.7000 Y79.3980
G01 Z-1.8000
G01 Z0
G00 Z15.0000
G00 X53.2400 Y79.3980
G01 Z-1.8000
G01 Z0
G00 Z15.0000
G00 X53.2400 Y76.8580
G01 Z-1.8000
G01 Z0
G00 Z15.0000
G00 X50.7000 Y76.8580
G01 Z-1.8000
G01 Z0
G00 Z15.0000
G00 X50.7000 Y74.3180
G01 Z-1.8000
G01 Z0
G00 Z15.0000
G00 X50.7000 Y71.7780
G01 Z-1.8000
G01 Z0
G00 Z15.0000
G00 X53.2400 Y71.7780
G01 Z-1.8000
G01 Z0
G00 Z15.0000
G00 X53.2400 Y74.3180
G01 Z-1.8000
G01 Z0
G00 Z15.0000
G00 X57.3200 Y74.0480
G01 Z-1.8000
G01 Z0
G00 Z15.0000
G00 X57.3200 Y76.5880
G01 Z-1.8000
G01 Z0
G00 Z15.0000
G00 X66.7000 Y79.3980
G01 Z-1.8000
G01 Z0
G00 Z15.0000
G00 X69.2400 Y79.3980
G01 Z-1.8000
G01 Z0
G00 Z15.0000
G00 X69.2400 Y76.8580
G01 Z-1.8000
G01 Z0
G00 Z15.0000
G00 X66.7000 Y76.8580
G01 Z-1.8000
G01 Z0
G00 Z15.0000
G00 X66.7000 Y74.3180
G01 Z-1.8000
G01 Z0
G00 Z15.0000
G00 X69.2400 Y74.3180
G01 Z-1.8000
G01 Z0
G00 Z15.0000
G00 X73.3200 Y76.5880
G01 Z-1.8000
G01 Z0
G00 Z15.0000
G00 X73.3200 Y74.0480
G01 Z-1.8000
G01 Z0
G00 Z15.0000
G00 X69.2400 Y71.7780
G01 Z-1.8000
G01 Z0
G00 Z15.0000
G00 X66.7000 Y71.7780
G01 Z-1.8000
G01 Z0
G00 Z15.0000
G00 X66.7000 Y62.3980
G01 Z-1.8000
G01 Z0
G00 Z15.0000
G00 X66.7000 Y59.8580
G01 Z-1.8000
G01 Z0
G00 Z15.0000
G00 X66.7000 Y57.3180
G01 Z-1.8000
G01 Z0
G00 Z15.0000
G00 X66.7000 Y54.7780
G01 Z-1.8000
G01 Z0
G00 Z15.0000
G00 X69.2400 Y54.7780
G01 Z-1.8000
G01 Z0
G00 Z15.0000
G00 X69.2400 Y57.3180
G01 Z-1.8000
G01 Z0
G00 Z15.0000
G00 X69.2400 Y59.8580
G01 Z-1.8000
G01 Z0
G00 Z15.0000
G00 X69.2400 Y62.3980
G01 Z-1.8000
G01 Z0
G00 Z15.0000
G00 X73.3200 Y59.5880
G01 Z-1.8000
G01 Z0
G00 Z15.0000
G00 X73.3200 Y57.0480
G01 Z-1.8000
G01 Z0
G00 Z15.0000
G00 X69.2400 Y45.3980
G01 Z-1.8000
G01 Z0
G00 Z15.0000
G00 X73.3200 Y42.5880
G01 Z-1.8000
G01 Z0
G00 Z15.0000
G00 X73.3200 Y40.0480
G01 Z-1.8000
G01 Z0
G00 Z15.0000
G00 X69.2400 Y42.8580
G01 Z-1.8000
G01 Z0
G00 Z15.0000
G00 X69.2400 Y40.3180
G01 Z-1.8000
G01 Z0
G00 Z15.0000
G00 X69.2400 Y37.7780
G01 Z-1.8000
G01 Z0
G00 Z15.0000
G00 X66.7000 Y37.7780
G01 Z-1.8000
G01 Z0
G00 Z15.0000
G00 X66.7000 Y40.3180
G01 Z-1.8000
G01 Z0
G00 Z15.0000
G00 X66.7000 Y42.8580
G01 Z-1.8000
G01 Z0
G00 Z15.0000
G00 X66.7000 Y45.3980
G01 Z-1.8000
G01 Z0
G00 Z15.0000
G00 X57.3200 Y42.5880
G01 Z-1.8000
G01 Z0
G00 Z15.0000
G00 X57.3200 Y40.0480
G01 Z-1.8000
G01 Z0
G00 Z15.0000
G00 X53.2400 Y42.8580
G01 Z-1.8000
G01 Z0
G00 Z15.0000
G00 X53.2400 Y45.3980
G01 Z-1.8000
G01 Z0
G00 Z15.0000
G00 X50.7000 Y45.3980
G01 Z-1.8000
G01 Z0
G00 Z15.0000
G00 X50.7000 Y42.8580
G01 Z-1.8000
G01 Z0
G00 Z15.0000
G00 X50.7000 Y40.3180
G01 Z-1.8000
G01 Z0
G00 Z15.0000
G00 X53.2400 Y40.3180
G01 Z-1.8000
G01 Z0
G00 Z15.0000
G00 X53.2400 Y37.7780
G01 Z-1.8000
G01 Z0
G00 Z15.0000
G00 X50.7000 Y37.7780
G01 Z-1.8000
G01 Z0
G00 Z15.0000
G00 X41.3200 Y40.0480
G01 Z-1.8000
G01 Z0
G00 Z15.0000
G00 X41.3200 Y42.5880
G01 Z-1.8000
G01 Z0
G00 Z15.0000
G00 X37.2400 Y42.8580
G01 Z-1.8000
G01 Z0
G00 Z15.0000
G00 X37.2400 Y40.3180
G01 Z-1.8000
G01 Z0
G00 Z15.0000
G00 X37.2400 Y37.7780
G01 Z-1.8000
G01 Z0
G00 Z15.0000
G00 X34.7000 Y37.7780
G01 Z-1.8000
G01 Z0
G00 Z15.0000
G00 X34.7000 Y40.3180
G01 Z-1.8000
G01 Z0
G00 Z15.0000
G00 X34.7000 Y42.8580
G01 Z-1.8000
G01 Z0
G00 Z15.0000
G00 X34.7000 Y45.3980
G01 Z-1.8000
G01 Z0
G00 Z15.0000
G00 X37.2400 Y45.3980
G01 Z-1.8000
G01 Z0
G00 Z15.0000
G00 X50.7000 Y54.7780
G01 Z-1.8000
G01 Z0
G00 Z15.0000
G00 X53.2400 Y54.7780
G01 Z-1.8000
G01 Z0
G00 Z15.0000
G00 X57.3200 Y57.0480
G01 Z-1.8000
G01 Z0
G00 Z15.0000
G00 X57.3200 Y59.5880
G01 Z-1.8000
G01 Z0
G00 Z15.0000
G00 X53.2400 Y57.3180
G01 Z-1.8000
G01 Z0
G00 Z15.0000
G00 X50.7000 Y57.3180
G01 Z-1.8000
G01 Z0
G00 Z15.0000
G00 X50.7000 Y59.8580
G01 Z-1.8000
G01 Z0
G00 Z15.0000
G00 X53.2400 Y59.8580
G01 Z-1.8000
G01 Z0
G00 Z15.0000
G00 X53.2400 Y62.3980
G01 Z-1.8000
G01 Z0
G00 Z15.0000
G00 X50.7000 Y62.3980
G01 Z-1.8000
G01 Z0
G00 Z15.0000
G00 X41.3200 Y59.5880
G01 Z-1.8000
G01 Z0
G00 Z15.0000
G00 X41.3200 Y57.0480
G01 Z-1.8000
G01 Z0
G00 Z15.0000
G00 X37.2400 Y54.7780
G01 Z-1.8000
G01 Z0
G00 Z15.0000
G00 X37.2400 Y57.3180
G01 Z-1.8000
G01 Z0
G00 Z15.0000
G00 X37.2400 Y59.8580
G01 Z-1.8000
G01 Z0
G00 Z15.0000
G00 X37.2400 Y62.3980
G01 Z-1.8000
G01 Z0
G00 Z15.0000
G00 X34.7000 Y62.3980
G01 Z-1.8000
G01 Z0
G00 Z15.0000
G00 X34.7000 Y59.8580
G01 Z-1.8000
G01 Z0
G00 Z15.0000
G00 X34.7000 Y57.3180
G01 Z-1.8000
G01 Z0
G00 Z15.0000
G00 X34.7000 Y54.7780
G01 Z-1.8000
G01 Z0
G00 Z15.0000
G00 X25.3200 Y57.0480
G01 Z-1.8000
G01 Z0
G00 Z15.0000
G00 X25.3200 Y59.5880
G01 Z-1.8000
G01 Z0
G00 Z15.0000
G00 X21.2400 Y59.8580
G01 Z-1.8000
G01 Z0
G00 Z15.0000
G00 X21.2400 Y62.3980
G01 Z-1.8000
G01 Z0
G00 Z15.0000
G00 X18.7000 Y62.3980
G01 Z-1.8000
G01 Z0
G00 Z15.0000
G00 X18.7000 Y59.8580
G01 Z-1.8000
G01 Z0
G00 Z15.0000
G00 X18.7000 Y57.3180
G01 Z-1.8000
G01 Z0
G00 Z15.0000
G00 X21.2400 Y57.3180
G01 Z-1.8000
G01 Z0
G00 Z15.0000
G00 X21.2400 Y54.7780
G01 Z-1.8000
G01 Z0
G00 Z15.0000
G00 X18.7000 Y54.7780
G01 Z-1.8000
G01 Z0
G00 Z15.0000
G00 X9.3200 Y57.0480
G01 Z-1.8000
G01 Z0
G00 Z15.0000
G00 X9.3200 Y59.5880
G01 Z-1.8000
G01 Z0
G00 Z15.0000
G00 X5.2400 Y62.3980
G01 Z-1.8000
G01 Z0
G00 Z15.0000
G00 X2.7000 Y62.3980
G01 Z-1.8000
G01 Z0
G00 Z15.0000
G00 X2.7000 Y59.8580
G01 Z-1.8000
G01 Z0
G00 Z15.0000
G00 X5.2400 Y59.8580
G01 Z-1.8000
G01 Z0
G00 Z15.0000
G00 X5.2400 Y57.3180
G01 Z-1.8000
G01 Z0
G00 Z15.0000
G00 X2.7000 Y57.3180
G01 Z-1.8000
G01 Z0
G00 Z15.0000
G00 X2.7000 Y54.7780
G01 Z-1.8000
G01 Z0
G00 Z15.0000
G00 X5.2400 Y54.7780
G01 Z-1.8000
G01 Z0
G00 Z15.0000
G00 X2.7000 Y45.3980
G01 Z-1.8000
G01 Z0
G00 Z15.0000
G00 X2.7000 Y42.8580
G01 Z-1.8000
G01 Z0
G00 Z15.0000
G00 X2.7000 Y40.3180
G01 Z-1.8000
G01 Z0
G00 Z15.0000
G00 X2.7000 Y37.7780
G01 Z-1.8000
G01 Z0
G00 Z15.0000
G00 X5.2400 Y37.7780
G01 Z-1.8000
G01 Z0
G00 Z15.0000
G00 X5.2400 Y40.3180
G01 Z-1.8000
G01 Z0
G00 Z15.0000
G00 X5.2400 Y42.8580
G01 Z-1.8000
G01 Z0
G00 Z15.0000
G00 X5.2400 Y45.3980
G01 Z-1.8000
G01 Z0
G00 Z15.0000
G00 X9.3200 Y42.5880
G01 Z-1.8000
G01 Z0
G00 Z15.0000
G00 X9.3200 Y40.0480
G01 Z-1.8000
G01 Z0
G00 Z15.0000
G00 X18.7000 Y45.3980
G01 Z-1.8000
G01 Z0
G00 Z15.0000
G00 X21.2400 Y45.3980
G01 Z-1.8000
G01 Z0
G00 Z15.0000
G00 X21.2400 Y42.8580
G01 Z-1.8000
G01 Z0
G00 Z15.0000
G00 X18.7000 Y42.8580
G01 Z-1.8000
G01 Z0
G00 Z15.0000
G00 X18.7000 Y40.3180
G01 Z-1.8000
G01 Z0
G00 Z15.0000
G00 X21.2400 Y40.3180
G01 Z-1.8000
G01 Z0
G00 Z15.0000
G00 X25.3200 Y42.5880
G01 Z-1.8000
G01 Z0
G00 Z15.0000
G00 X25.3200 Y40.0480
G01 Z-1.8000
G01 Z0
G00 Z15.0000
G00 X21.2400 Y37.7780
G01 Z-1.8000
G01 Z0
G00 Z15.0000
G00 X18.7000 Y37.7780
G01 Z-1.8000
G01 Z0
G00 Z15.0000
G00 X18.7000 Y28.3980
G01 Z-1.8000
G01 Z0
G00 Z15.0000
G00 X18.7000 Y25.8580
G01 Z-1.8000
G01 Z0
G00 Z15.0000
G00 X9.3200 Y25.5880
G01 Z-1.8000
G01 Z0
G00 Z15.0000
G00 X9.3200 Y23.0480
G01 Z-1.8000
G01 Z0
G00 Z15.0000
G00 X5.2400 Y20.7780
G01 Z-1.8000
G01 Z0
G00 Z15.0000
G00 X5.2400 Y23.3180
G01 Z-1.8000
G01 Z0
G00 Z15.0000
G00 X5.2400 Y25.8580
G01 Z-1.8000
G01 Z0
G00 Z15.0000
G00 X5.2400 Y28.3980
G01 Z-1.8000
G01 Z0
G00 Z15.0000
G00 X2.7000 Y28.3980
G01 Z-1.8000
G01 Z0
G00 Z15.0000
G00 X2.7000 Y25.8580
G01 Z-1.8000
G01 Z0
G00 Z15.0000
G00 X2.7000 Y23.3180
G01 Z-1.8000
G01 Z0
G00 Z15.0000
G00 X2.7000 Y20.7780
G01 Z-1.8000
G01 Z0
G00 Z15.0000
G00 X2.7000 Y11.3980
G01 Z-1.8000
G01 Z0
G00 Z15.0000
G00 X2.7000 Y8.8580
G01 Z-1.8000
G01 Z0
G00 Z15.0000
G00 X2.7000 Y6.3180
G01 Z-1.8000
G01 Z0
G00 Z15.0000
G00 X2.7000 Y3.7780
G01 Z-1.8000
G01 Z0
G00 Z15.0000
G00 X5.2400 Y3.7780
G01 Z-1.8000
G01 Z0
G00 Z15.0000
G00 X5.2400 Y6.3180
G01 Z-1.8000
G01 Z0
G00 Z15.0000
G00 X5.2400 Y8.8580
G01 Z-1.8000
G01 Z0
G00 Z15.0000
G00 X5.2400 Y11.3980
G01 Z-1.8000
G01 Z0
G00 Z15.0000
G00 X9.3200 Y8.5880
G01 Z-1.8000
G01 Z0
G00 Z15.0000
G00 X9.3200 Y6.0480
G01 Z-1.8000
G01 Z0
G00 Z15.0000
G00 X18.7000 Y3.7780
G01 Z-1.8000
G01 Z0
G00 Z15.0000
G00 X21.2400 Y3.7780
G01 Z-1.8000
G01 Z0
G00 Z15.0000
G00 X21.2400 Y6.3180
G01 Z-1.8000
G01 Z0
G00 Z15.0000
G00 X18.7000 Y6.3180
G01 Z-1.8000
G01 Z0
G00 Z15.0000
G00 X18.7000 Y8.8580
G01 Z-1.8000
G01 Z0
G00 Z15.0000
G00 X21.2400 Y8.8580
G01 Z-1.8000
G01 Z0
G00 Z15.0000
G00 X25.3200 Y6.0480
G01 Z-1.8000
G01 Z0
G00 Z15.0000
G00 X25.3200 Y8.5880
G01 Z-1.8000
G01 Z0
G00 Z15.0000
G00 X21.2400 Y11.3980
G01 Z-1.8000
G01 Z0
G00 Z15.0000
G00 X18.7000 Y11.3980
G01 Z-1.8000
G01 Z0
G00 Z15.0000
G00 X21.2400 Y20.7780
G01 Z-1.8000
G01 Z0
G00 Z15.0000
G00 X18.7000 Y20.7780
G01 Z-1.8000
G01 Z0
G00 Z15.0000
G00 X18.7000 Y23.3180
G01 Z-1.8000
G01 Z0
G00 Z15.0000
G00 X21.2400 Y23.3180
G01 Z-1.8000
G01 Z0
G00 Z15.0000
G00 X21.2400 Y25.8580
G01 Z-1.8000
G01 Z0
G00 Z15.0000
G00 X21.2400 Y28.3980
G01 Z-1.8000
G01 Z0
G00 Z15.0000
G00 X25.3200 Y25.5880
G01 Z-1.8000
G01 Z0
G00 Z15.0000
G00 X25.3200 Y23.0480
G01 Z-1.8000
G01 Z0
G00 Z15.0000
G00 X34.7000 Y28.3980
G01 Z-1.8000
G01 Z0
G00 Z15.0000
G00 X37.2400 Y28.3980
G01 Z-1.8000
G01 Z0
G00 Z15.0000
G00 X37.2400 Y25.8580
G01 Z-1.8000
G01 Z0
G00 Z15.0000
G00 X34.7000 Y25.8580
G01 Z-1.8000
G01 Z0
G00 Z15.0000
G00 X34.7000 Y23.3180
G01 Z-1.8000
G01 Z0
G00 Z15.0000
G00 X37.2400 Y23.3180
G01 Z-1.8000
G01 Z0
G00 Z15.0000
G00 X41.3200 Y25.5880
G01 Z-1.8000
G01 Z0
G00 Z15.0000
G00 X41.3200 Y23.0480
G01 Z-1.8000
G01 Z0
G00 Z15.0000
G00 X37.2400 Y20.7780
G01 Z-1.8000
G01 Z0
G00 Z15.0000
G00 X34.7000 Y20.7780
G01 Z-1.8000
G01 Z0
G00 Z15.0000
G00 X34.7000 Y11.3980
G01 Z-1.8000
G01 Z0
G00 Z15.0000
G00 X34.7000 Y8.8580
G01 Z-1.8000
G01 Z0
G00 Z15.0000
G00 X34.7000 Y6.3180
G01 Z-1.8000
G01 Z0
G00 Z15.0000
G00 X34.7000 Y3.7780
G01 Z-1.8000
G01 Z0
G00 Z15.0000
G00 X37.2400 Y3.7780
G01 Z-1.8000
G01 Z0
G00 Z15.0000
G00 X37.2400 Y6.3180
G01 Z-1.8000
G01 Z0
G00 Z15.0000
G00 X37.2400 Y8.8580
G01 Z-1.8000
G01 Z0
G00 Z15.0000
G00 X37.2400 Y11.3980
G01 Z-1.8000
G01 Z0
G00 Z15.0000
G00 X41.3200 Y8.5880
G01 Z-1.8000
G01 Z0
G00 Z15.0000
G00 X41.3200 Y6.0480
G01 Z-1.8000
G01 Z0
G00 Z15.0000
G00 X50.7000 Y20.7780
G01 Z-1.8000
G01 Z0
G00 Z15.0000
G00 X50.7000 Y23.3180
G01 Z-1.8000
G01 Z0
G00 Z15.0000
G00 X50.7000 Y25.8580
G01 Z-1.8000
G01 Z0
G00 Z15.0000
G00 X50.7000 Y28.3980
G01 Z-1.8000
G01 Z0
G00 Z15.0000
G00 X53.2400 Y28.3980
G01 Z-1.8000
G01 Z0
G00 Z15.0000
G00 X53.2400 Y25.8580
G01 Z-1.8000
G01 Z0
G00 Z15.0000
G00 X53.2400 Y23.3180
G01 Z-1.8000
G01 Z0
G00 Z15.0000
G00 X53.2400 Y20.7780
G01 Z-1.8000
G01 Z0
G00 Z15.0000
G00 X57.3200 Y23.0480
G01 Z-1.8000
G01 Z0
G00 Z15.0000
G00 X57.3200 Y25.5880
G01 Z-1.8000
G01 Z0
G00 Z15.0000
G00 X66.7000 Y28.3980
G01 Z-1.8000
G01 Z0
G00 Z15.0000
G00 X69.2400 Y28.3980
G01 Z-1.8000
G01 Z0
G00 Z15.0000
G00 X73.3200 Y25.5880
G01 Z-1.8000
G01 Z0
G00 Z15.0000
G00 X73.3200 Y23.0480
G01 Z-1.8000
G01 Z0
G00 Z15.0000
G00 X69.2400 Y20.7780
G01 Z-1.8000
G01 Z0
G00 Z15.0000
G00 X69.2400 Y23.3180
G01 Z-1.8000
G01 Z0
G00 Z15.0000
G00 X69.2400 Y25.8580
G01 Z-1.8000
G01 Z0
G00 Z15.0000
G00 X66.7000 Y25.8580
G01 Z-1.8000
G01 Z0
G00 Z15.0000
G00 X66.7000 Y23.3180
G01 Z-1.8000
G01 Z0
G00 Z15.0000
G00 X66.7000 Y20.7780
G01 Z-1.8000
G01 Z0
G00 Z15.0000
G00 X53.2400 Y11.3980
G01 Z-1.8000
G01 Z0
G00 Z15.0000
G00 X50.7000 Y11.3980
G01 Z-1.8000
G01 Z0
G00 Z15.0000
G00 X50.7000 Y8.8580
G01 Z-1.8000
G01 Z0
G00 Z15.0000
G00 X50.7000 Y6.3180
G01 Z-1.8000
G01 Z0
G00 Z15.0000
G00 X50.7000 Y3.7780
G01 Z-1.8000
G01 Z0
G00 Z15.0000
G00 X53.2400 Y3.7780
G01 Z-1.8000
G01 Z0
G00 Z15.0000
G00 X53.2400 Y6.3180
G01 Z-1.8000
G01 Z0
G00 Z15.0000
G00 X53.2400 Y8.8580
G01 Z-1.8000
G01 Z0
G00 Z15.0000
G00 X57.3200 Y8.5880
G01 Z-1.8000
G01 Z0
G00 Z15.0000
G00 X57.3200 Y6.0480
G01 Z-1.8000
G01 Z0
G00 Z15.0000
G00 X66.7000 Y3.7780
G01 Z-1.8000
G01 Z0
G00 Z15.0000
G00 X69.2400 Y3.7780
G01 Z-1.8000
G01 Z0
G00 Z15.0000
G00 X69.2400 Y6.3180
G01 Z-1.8000
G01 Z0
G00 Z15.0000
G00 X66.7000 Y6.3180
G01 Z-1.8000
G01 Z0
G00 Z15.0000
G00 X66.7000 Y8.8580
G01 Z-1.8000
G01 Z0
G00 Z15.0000
G00 X66.7000 Y11.3980
G01 Z-1.8000
G01 Z0
G00 Z15.0000
G00 X69.2400 Y11.3980
G01 Z-1.8000
G01 Z0
G00 Z15.0000
G00 X69.2400 Y8.8580
G01 Z-1.8000
G01 Z0
G00 Z15.0000
G00 X73.3200 Y6.0480
G01 Z-1.8000
G01 Z0
G00 Z15.0000
G00 X73.3200 Y8.5880
G01 Z-1.8000
G01 Z0
G00 Z15.0000
G00 X81.5700 Y11.0480
G01 Z-1.8000
G01 Z0
G00 Z15.0000
G00 X81.5700 Y8.5080
G01 Z-1.8000
G01 Z0
G00 Z15.0000
G00 X81.5700 Y5.9680
G01 Z-1.8000
G01 Z0
G00 Z15.0000
G00 X81.5700 Y3.4280
G01 Z-1.8000
G01 Z0
G00 Z15.0000
G00 X84.1100 Y3.4280
G01 Z-1.8000
G01 Z0
G00 Z15.0000
G00 X84.1100 Y5.9680
G01 Z-1.8000
G01 Z0
G00 Z15.0000
G00 X84.1100 Y8.5080
G01 Z-1.8000
G01 Z0
G00 Z15.0000
M05
G00 Z90.00
G00 X0.0 Y0.0

