(G-CODE GENERATED BY FLATCAM v8.99 - www.flatcam.org - Version Date: 2019/12/15)

(Name: trilhas)
(Type: G-code from Geometry)
(Units: MM)

(Created on Thursday, 11 February 2021 at 14:43)

(TOOL DIAMETER: 0.1 mm)
(Feedrate: 450.0 mm/min)
(Feedrate_Z: 450.0 mm/min)
(Feedrate rapids 1500.0 mm/min)

(Z_Cut: -0.11 mm)
(DepthPerCut: 0.11 mm <=>1 passes)
(Z_Move: 15.0 mm)
(Z Toolchange: 15.0 mm)
(X,Y Toolchange: 0.0000, 0.0000 mm)
(Z Start: None mm)
(Z End: 90.0 mm)
(Steps per circle: 64)
(Preprocessor Geometry: default)

(X range:    1.8880 ...   89.7644  mm)
(Y range:    0.8537 ...   97.2100  mm)

(Spindle Speed: 12000 RPM)
G21
G90
G94




G01 F450.00
G00 Z15.0000

M03 S12000
G00 X9.4768 Y5.2356
G01 F450.00
G01 Z-0.1100
G01 F450.00
G01 X10.0832 Y5.2356
G01 X10.1616 Y5.2395
G01 X10.2405 Y5.2512
G01 X10.3178 Y5.2706
G01 X10.3906 Y5.2966
G01 X10.4650 Y5.3315
G01 X10.5333 Y5.3725
G01 X10.5954 Y5.4185
G01 X10.6581 Y5.4753
G01 X10.7100 Y5.5326
G01 X10.7575 Y5.5967
G01 X10.7985 Y5.6650
G01 X10.8325 Y5.7371
G01 X10.8594 Y5.8122
G01 X10.8788 Y5.8895
G01 X10.8905 Y5.9684
G01 X10.8943 Y6.0455
G01 X10.8905 Y6.1276
G01 X10.8792 Y6.2041
G01 X10.8586 Y6.2862
G01 X10.8325 Y6.3589
G01 X10.7985 Y6.4310
G01 X10.7575 Y6.4993
G01 X10.7100 Y6.5634
G01 X10.6564 Y6.6224
G01 X10.5974 Y6.6760
G01 X10.5333 Y6.7235
G01 X10.4650 Y6.7645
G01 X10.3929 Y6.7985
G01 X10.3178 Y6.8254
G01 X10.2405 Y6.8448
G01 X10.1616 Y6.8565
G01 X10.0820 Y6.8604
G01 X8.5568 Y6.8604
G01 X8.4784 Y6.8565
G01 X8.3995 Y6.8448
G01 X8.3222 Y6.8254
G01 X8.2471 Y6.7985
G01 X8.1750 Y6.7645
G01 X8.1067 Y6.7235
G01 X8.0426 Y6.6760
G01 X7.9836 Y6.6224
G01 X7.9300 Y6.5634
G01 X7.8825 Y6.4993
G01 X7.8415 Y6.4310
G01 X7.8075 Y6.3589
G01 X7.7799 Y6.2815
G01 X7.7612 Y6.2065
G01 X7.7498 Y6.1301
G01 X7.7456 Y6.0480
G01 X7.7495 Y5.9684
G01 X7.7618 Y5.8871
G01 X7.7806 Y5.8122
G01 X7.8066 Y5.7394
G01 X7.8415 Y5.6650
G01 X7.8812 Y5.5987
G01 X7.8897 Y5.5869
G01 X7.6446 Y5.3417
G01 X7.6002 Y5.2928
G01 X7.5616 Y5.2407
G01 X7.5256 Y5.1811
G01 X7.4968 Y5.1203
G01 X7.4742 Y5.0569
G01 X7.4579 Y4.9917
G01 X7.4480 Y4.9252
G01 X7.4447 Y4.8580
G01 X7.4447 Y2.5743
G01 X3.4139 Y2.5743
G01 X3.3853 Y2.6029
G01 X3.3853 Y3.3150
G01 X3.4990 Y3.4288
G01 X3.5022 Y3.4326
G01 X3.5072 Y3.4410
G01 X3.5091 Y3.4455
G01 X3.5115 Y3.4550
G01 X3.5120 Y3.4624
G01 X3.5120 Y4.0936
G01 X3.5115 Y4.1010
G01 X3.5091 Y4.1105
G01 X3.5049 Y4.1193
G01 X3.4990 Y4.1272
G01 X3.3853 Y4.2410
G01 X3.3853 Y5.8550
G01 X3.4990 Y5.9688
G01 X3.5022 Y5.9726
G01 X3.5072 Y5.9810
G01 X3.5105 Y5.9902
G01 X3.5115 Y5.9950
G01 X3.5120 Y6.0024
G01 X3.5120 Y6.6336
G01 X3.5115 Y6.6410
G01 X3.5091 Y6.6505
G01 X3.5049 Y6.6593
G01 X3.4990 Y6.6672
G01 X3.3853 Y6.7810
G01 X3.3853 Y8.3950
G01 X3.4990 Y8.5088
G01 X3.5022 Y8.5126
G01 X3.5072 Y8.5210
G01 X3.5091 Y8.5255
G01 X3.5115 Y8.5350
G01 X3.5120 Y8.5424
G01 X3.5120 Y9.1736
G01 X3.5115 Y9.1810
G01 X3.5091 Y9.1905
G01 X3.5049 Y9.1993
G01 X3.4990 Y9.2072
G01 X3.3853 Y9.3210
G01 X3.3853 Y10.9350
G01 X3.4990 Y11.0488
G01 X3.5022 Y11.0526
G01 X3.5072 Y11.0610
G01 X3.5091 Y11.0655
G01 X3.5115 Y11.0750
G01 X3.5120 Y11.0824
G01 X3.5120 Y11.7136
G01 X3.5115 Y11.7210
G01 X3.5091 Y11.7305
G01 X3.5072 Y11.7350
G01 X3.5022 Y11.7434
G01 X3.4974 Y11.7490
G01 X3.0510 Y12.1954
G01 X3.0454 Y12.2002
G01 X3.0413 Y12.2029
G01 X3.0325 Y12.2071
G01 X3.0230 Y12.2095
G01 X3.0156 Y12.2100
G01 X2.3844 Y12.2100
G01 X2.3770 Y12.2095
G01 X2.3722 Y12.2085
G01 X2.3630 Y12.2052
G01 X2.3546 Y12.2002
G01 X2.3490 Y12.1954
G01 X1.9010 Y11.7472
G01 X1.8951 Y11.7393
G01 X1.8909 Y11.7305
G01 X1.8885 Y11.7210
G01 X1.8880 Y11.7136
G01 X1.8880 Y11.0824
G01 X1.8885 Y11.0750
G01 X1.8895 Y11.0702
G01 X1.8928 Y11.0610
G01 X1.8951 Y11.0567
G01 X1.9010 Y11.0488
G01 X2.0147 Y10.9350
G01 X2.0147 Y9.3210
G01 X1.9010 Y9.2072
G01 X1.8978 Y9.2034
G01 X1.8928 Y9.1950
G01 X1.8895 Y9.1858
G01 X1.8885 Y9.1810
G01 X1.8880 Y9.1736
G01 X1.8880 Y8.5424
G01 X1.8885 Y8.5350
G01 X1.8909 Y8.5255
G01 X1.8951 Y8.5167
G01 X1.9010 Y8.5088
G01 X2.0147 Y8.3950
G01 X2.0147 Y6.7810
G01 X1.9010 Y6.6672
G01 X1.8978 Y6.6634
G01 X1.8928 Y6.6550
G01 X1.8895 Y6.6458
G01 X1.8885 Y6.6410
G01 X1.8880 Y6.6336
G01 X1.8880 Y6.0024
G01 X1.8885 Y5.9950
G01 X1.8909 Y5.9855
G01 X1.8951 Y5.9767
G01 X1.9010 Y5.9688
G01 X2.0147 Y5.8550
G01 X2.0147 Y4.2410
G01 X1.9010 Y4.1272
G01 X1.8978 Y4.1234
G01 X1.8928 Y4.1150
G01 X1.8895 Y4.1058
G01 X1.8885 Y4.1010
G01 X1.8880 Y4.0936
G01 X1.8881 Y3.4599
G01 X1.8885 Y3.4550
G01 X1.8909 Y3.4455
G01 X1.8951 Y3.4367
G01 X1.9010 Y3.4288
G01 X2.0147 Y3.3150
G01 X2.0147 Y2.3165
G01 X2.0180 Y2.2518
G01 X2.0279 Y2.1853
G01 X2.0442 Y2.1201
G01 X2.0660 Y2.0590
G01 X2.0956 Y1.9959
G01 X2.1289 Y1.9403
G01 X2.1718 Y1.8824
G01 X2.2154 Y1.8344
G01 X2.6454 Y1.4044
G01 X2.6952 Y1.3592
G01 X2.7493 Y1.3192
G01 X2.8048 Y1.2858
G01 X2.8700 Y1.2550
G01 X2.9311 Y1.2332
G01 X2.9963 Y1.2169
G01 X3.0628 Y1.2070
G01 X3.1288 Y1.2037
G01 X8.1312 Y1.2037
G01 X8.1996 Y1.2073
G01 X8.2637 Y1.2169
G01 X8.3266 Y1.2325
G01 X8.3923 Y1.2558
G01 X8.4552 Y1.2858
G01 X8.5107 Y1.3192
G01 X8.5628 Y1.3577
G01 X8.6128 Y1.4027
G01 X8.6598 Y1.4542
G01 X8.6998 Y1.5083
G01 X8.7344 Y1.5659
G01 X8.7640 Y1.6290
G01 X8.7858 Y1.6901
G01 X8.8016 Y1.7529
G01 X8.8120 Y1.8218
G01 X8.8153 Y1.8890
G01 X8.8153 Y4.5741
G01 X9.4768 Y5.2356
G00 Z15.0000
G00 X10.0820 Y7.7756
G01 F450.00
G01 Z-0.1100
G01 F450.00
G01 X10.1641 Y7.7798
G01 X10.2405 Y7.7912
G01 X10.3178 Y7.8106
G01 X10.3929 Y7.8375
G01 X10.4628 Y7.8704
G01 X10.5353 Y7.9139
G01 X10.5974 Y7.9600
G01 X10.6547 Y8.0119
G01 X10.7115 Y8.0746
G01 X10.7575 Y8.1367
G01 X10.7985 Y8.2050
G01 X10.8325 Y8.2771
G01 X10.8586 Y8.3498
G01 X10.8792 Y8.4319
G01 X10.8905 Y8.5084
G01 X10.8944 Y8.5880
G01 X10.8905 Y8.6676
G01 X10.8792 Y8.7441
G01 X10.8594 Y8.8238
G01 X10.8325 Y8.8989
G01 X10.7996 Y8.9688
G01 X10.7575 Y9.0393
G01 X10.7100 Y9.1034
G01 X10.6581 Y9.1607
G01 X10.5974 Y9.2160
G01 X10.5313 Y9.2648
G01 X10.4650 Y9.3045
G01 X10.3951 Y9.3375
G01 X10.3178 Y9.3654
G01 X10.2381 Y9.3852
G01 X10.1616 Y9.3965
G01 X10.0832 Y9.4004
G01 X9.4768 Y9.4004
G01 X6.9946 Y11.8826
G01 X6.9448 Y11.9278
G01 X6.8927 Y11.9664
G01 X6.8331 Y12.0024
G01 X6.7723 Y12.0312
G01 X6.7089 Y12.0538
G01 X6.6437 Y12.0701
G01 X6.5747 Y12.0802
G01 X6.5100 Y12.0833
G01 X5.7030 Y12.0833
G01 X5.5892 Y12.1970
G01 X5.5854 Y12.2002
G01 X5.5770 Y12.2052
G01 X5.5725 Y12.2071
G01 X5.5630 Y12.2095
G01 X5.5556 Y12.2100
G01 X4.9244 Y12.2100
G01 X4.9170 Y12.2095
G01 X4.9075 Y12.2071
G01 X4.8987 Y12.2029
G01 X4.8946 Y12.2002
G01 X4.8890 Y12.1954
G01 X4.4426 Y11.7490
G01 X4.4378 Y11.7434
G01 X4.4328 Y11.7350
G01 X4.4295 Y11.7258
G01 X4.4281 Y11.7161
G01 X4.4280 Y11.0824
G01 X4.4285 Y11.0750
G01 X4.4295 Y11.0702
G01 X4.4328 Y11.0610
G01 X4.4351 Y11.0567
G01 X4.4410 Y11.0488
G01 X4.5547 Y10.9350
G01 X4.5547 Y9.3210
G01 X4.4410 Y9.2072
G01 X4.4378 Y9.2034
G01 X4.4328 Y9.1950
G01 X4.4295 Y9.1858
G01 X4.4285 Y9.1810
G01 X4.4280 Y9.1736
G01 X4.4280 Y8.5424
G01 X4.4285 Y8.5350
G01 X4.4309 Y8.5255
G01 X4.4351 Y8.5167
G01 X4.4410 Y8.5088
G01 X4.5547 Y8.3950
G01 X4.5547 Y6.7810
G01 X4.4410 Y6.6672
G01 X4.4378 Y6.6634
G01 X4.4328 Y6.6550
G01 X4.4309 Y6.6505
G01 X4.4285 Y6.6410
G01 X4.4280 Y6.6336
G01 X4.4280 Y6.0024
G01 X4.4285 Y5.9950
G01 X4.4309 Y5.9855
G01 X4.4351 Y5.9767
G01 X4.4410 Y5.9688
G01 X4.5547 Y5.8550
G01 X4.5547 Y4.2410
G01 X4.4410 Y4.1272
G01 X4.4378 Y4.1234
G01 X4.4328 Y4.1150
G01 X4.4309 Y4.1105
G01 X4.4285 Y4.1010
G01 X4.4280 Y4.0936
G01 X4.4280 Y3.4624
G01 X4.4285 Y3.4550
G01 X4.4309 Y3.4455
G01 X4.4328 Y3.4410
G01 X4.4378 Y3.4326
G01 X4.4426 Y3.4270
G01 X4.8890 Y2.9806
G01 X4.8946 Y2.9758
G01 X4.9030 Y2.9708
G01 X4.9122 Y2.9675
G01 X4.9170 Y2.9665
G01 X4.9244 Y2.9660
G01 X5.5556 Y2.9660
G01 X5.5630 Y2.9665
G01 X5.5725 Y2.9689
G01 X5.5813 Y2.9731
G01 X5.5854 Y2.9758
G01 X5.5910 Y2.9806
G01 X6.0374 Y3.4270
G01 X6.0422 Y3.4326
G01 X6.0449 Y3.4367
G01 X6.0491 Y3.4455
G01 X6.0505 Y3.4502
G01 X6.0515 Y3.4550
G01 X6.0520 Y3.4624
G01 X6.0520 Y4.0936
G01 X6.0515 Y4.1010
G01 X6.0491 Y4.1105
G01 X6.0472 Y4.1150
G01 X6.0422 Y4.1234
G01 X6.0390 Y4.1272
G01 X5.9253 Y4.2410
G01 X5.9253 Y5.8550
G01 X6.0390 Y5.9688
G01 X6.0422 Y5.9726
G01 X6.0472 Y5.9810
G01 X6.0491 Y5.9855
G01 X6.0515 Y5.9950
G01 X6.0520 Y6.0024
G01 X6.0520 Y6.6336
G01 X6.0515 Y6.6410
G01 X6.0491 Y6.6505
G01 X6.0449 Y6.6593
G01 X6.0390 Y6.6672
G01 X5.9253 Y6.7810
G01 X5.9253 Y8.3950
G01 X6.0390 Y8.5088
G01 X6.0422 Y8.5126
G01 X6.0472 Y8.5210
G01 X6.0505 Y8.5302
G01 X6.0515 Y8.5350
G01 X6.0520 Y8.5424
G01 X6.0520 Y9.1736
G01 X6.0515 Y9.1810
G01 X6.0491 Y9.1905
G01 X6.0449 Y9.1993
G01 X6.0390 Y9.2072
G01 X5.9253 Y9.3210
G01 X5.9253 Y10.7127
G01 X6.2261 Y10.7127
G01 X7.8897 Y9.0491
G01 X7.8812 Y9.0373
G01 X7.8415 Y8.9710
G01 X7.8075 Y8.8989
G01 X7.7806 Y8.8238
G01 X7.7612 Y8.7465
G01 X7.7495 Y8.6676
G01 X7.7456 Y8.5880
G01 X7.7495 Y8.5084
G01 X7.7612 Y8.4295
G01 X7.7806 Y8.3522
G01 X7.8075 Y8.2771
G01 X7.8415 Y8.2050
G01 X7.8825 Y8.1367
G01 X7.9300 Y8.0726
G01 X7.9836 Y8.0136
G01 X8.0426 Y7.9600
G01 X8.1047 Y7.9139
G01 X8.1772 Y7.8704
G01 X8.2471 Y7.8375
G01 X8.3198 Y7.8114
G01 X8.3995 Y7.7912
G01 X8.4808 Y7.7794
G01 X8.5580 Y7.7756
G01 X10.0820 Y7.7756
G00 Z15.0000
G00 X9.4768 Y22.2356
G01 F450.00
G01 Z-0.1100
G01 F450.00
G01 X10.0832 Y22.2356
G01 X10.1616 Y22.2395
G01 X10.2405 Y22.2512
G01 X10.3202 Y22.2714
G01 X10.3929 Y22.2975
G01 X10.4650 Y22.3315
G01 X10.5333 Y22.3725
G01 X10.5954 Y22.4185
G01 X10.6581 Y22.4753
G01 X10.7100 Y22.5326
G01 X10.7575 Y22.5967
G01 X10.7985 Y22.6650
G01 X10.8325 Y22.7371
G01 X10.8594 Y22.8122
G01 X10.8788 Y22.8895
G01 X10.8905 Y22.9684
G01 X10.8943 Y23.0455
G01 X10.8905 Y23.1276
G01 X10.8792 Y23.2041
G01 X10.8586 Y23.2862
G01 X10.8325 Y23.3589
G01 X10.7985 Y23.4310
G01 X10.7575 Y23.4993
G01 X10.7100 Y23.5634
G01 X10.6564 Y23.6224
G01 X10.5974 Y23.6760
G01 X10.5333 Y23.7235
G01 X10.4650 Y23.7645
G01 X10.3929 Y23.7985
G01 X10.3178 Y23.8254
G01 X10.2405 Y23.8448
G01 X10.1616 Y23.8565
G01 X10.0820 Y23.8604
G01 X8.5568 Y23.8604
G01 X8.4784 Y23.8565
G01 X8.3995 Y23.8448
G01 X8.3222 Y23.8254
G01 X8.2471 Y23.7985
G01 X8.1750 Y23.7645
G01 X8.1067 Y23.7235
G01 X8.0426 Y23.6760
G01 X7.9836 Y23.6224
G01 X7.9300 Y23.5634
G01 X7.8825 Y23.4993
G01 X7.8415 Y23.4310
G01 X7.8075 Y23.3589
G01 X7.7799 Y23.2815
G01 X7.7612 Y23.2065
G01 X7.7498 Y23.1301
G01 X7.7456 Y23.0480
G01 X7.7495 Y22.9684
G01 X7.7618 Y22.8871
G01 X7.7806 Y22.8122
G01 X7.8066 Y22.7394
G01 X7.8415 Y22.6650
G01 X7.8812 Y22.5987
G01 X7.8897 Y22.5869
G01 X7.6446 Y22.3417
G01 X7.6002 Y22.2928
G01 X7.5616 Y22.2407
G01 X7.5256 Y22.1811
G01 X7.4968 Y22.1203
G01 X7.4742 Y22.0569
G01 X7.4579 Y21.9917
G01 X7.4480 Y21.9252
G01 X7.4447 Y21.8580
G01 X7.4447 Y19.5743
G01 X3.4139 Y19.5743
G01 X3.3853 Y19.6029
G01 X3.3853 Y20.3150
G01 X3.4990 Y20.4288
G01 X3.5022 Y20.4326
G01 X3.5072 Y20.4410
G01 X3.5105 Y20.4502
G01 X3.5115 Y20.4550
G01 X3.5120 Y20.4624
G01 X3.5120 Y21.0936
G01 X3.5115 Y21.1010
G01 X3.5091 Y21.1105
G01 X3.5049 Y21.1193
G01 X3.4990 Y21.1272
G01 X3.3853 Y21.2410
G01 X3.3853 Y22.8550
G01 X3.4990 Y22.9688
G01 X3.5022 Y22.9726
G01 X3.5072 Y22.9810
G01 X3.5105 Y22.9902
G01 X3.5115 Y22.9950
G01 X3.5120 Y23.0024
G01 X3.5120 Y23.6336
G01 X3.5115 Y23.6410
G01 X3.5091 Y23.6505
G01 X3.5049 Y23.6593
G01 X3.4990 Y23.6672
G01 X3.3853 Y23.7810
G01 X3.3853 Y25.3950
G01 X3.4990 Y25.5088
G01 X3.5022 Y25.5126
G01 X3.5072 Y25.5210
G01 X3.5105 Y25.5302
G01 X3.5115 Y25.5350
G01 X3.5120 Y25.5424
G01 X3.5120 Y26.1736
G01 X3.5115 Y26.1810
G01 X3.5091 Y26.1905
G01 X3.5049 Y26.1993
G01 X3.4990 Y26.2072
G01 X3.3853 Y26.3210
G01 X3.3853 Y27.9350
G01 X3.4990 Y28.0488
G01 X3.5022 Y28.0526
G01 X3.5072 Y28.0610
G01 X3.5105 Y28.0702
G01 X3.5115 Y28.0750
G01 X3.5120 Y28.0824
G01 X3.5120 Y28.7136
G01 X3.5115 Y28.7210
G01 X3.5105 Y28.7258
G01 X3.5072 Y28.7350
G01 X3.5022 Y28.7434
G01 X3.4974 Y28.7490
G01 X3.0510 Y29.1954
G01 X3.0454 Y29.2002
G01 X3.0413 Y29.2029
G01 X3.0325 Y29.2071
G01 X3.0230 Y29.2095
G01 X3.0156 Y29.2100
G01 X2.3844 Y29.2100
G01 X2.3770 Y29.2095
G01 X2.3722 Y29.2085
G01 X2.3630 Y29.2052
G01 X2.3546 Y29.2002
G01 X2.3490 Y29.1954
G01 X1.9010 Y28.7472
G01 X1.8951 Y28.7393
G01 X1.8909 Y28.7305
G01 X1.8885 Y28.7210
G01 X1.8880 Y28.7136
G01 X1.8880 Y28.0824
G01 X1.8885 Y28.0750
G01 X1.8895 Y28.0702
G01 X1.8928 Y28.0610
G01 X1.8978 Y28.0526
G01 X1.9010 Y28.0488
G01 X2.0147 Y27.9350
G01 X2.0147 Y26.3210
G01 X1.9010 Y26.2072
G01 X1.8978 Y26.2034
G01 X1.8928 Y26.1950
G01 X1.8895 Y26.1858
G01 X1.8885 Y26.1810
G01 X1.8880 Y26.1736
G01 X1.8880 Y25.5424
G01 X1.8885 Y25.5350
G01 X1.8909 Y25.5255
G01 X1.8951 Y25.5167
G01 X1.9010 Y25.5088
G01 X2.0147 Y25.3950
G01 X2.0147 Y23.7810
G01 X1.9010 Y23.6672
G01 X1.8978 Y23.6634
G01 X1.8928 Y23.6550
G01 X1.8895 Y23.6458
G01 X1.8885 Y23.6410
G01 X1.8880 Y23.6336
G01 X1.8880 Y23.0024
G01 X1.8885 Y22.9950
G01 X1.8909 Y22.9855
G01 X1.8951 Y22.9767
G01 X1.9010 Y22.9688
G01 X2.0147 Y22.8550
G01 X2.0147 Y21.2410
G01 X1.9010 Y21.1272
G01 X1.8978 Y21.1234
G01 X1.8928 Y21.1150
G01 X1.8895 Y21.1058
G01 X1.8885 Y21.1010
G01 X1.8880 Y21.0936
G01 X1.8881 Y20.4599
G01 X1.8885 Y20.4550
G01 X1.8909 Y20.4455
G01 X1.8951 Y20.4367
G01 X1.9010 Y20.4288
G01 X2.0147 Y20.3150
G01 X2.0147 Y19.3165
G01 X2.0180 Y19.2518
G01 X2.0279 Y19.1853
G01 X2.0442 Y19.1201
G01 X2.0660 Y19.0590
G01 X2.0956 Y18.9959
G01 X2.1289 Y18.9403
G01 X2.1718 Y18.8824
G01 X2.2154 Y18.8344
G01 X2.6454 Y18.4044
G01 X2.6952 Y18.3592
G01 X2.7493 Y18.3192
G01 X2.8048 Y18.2858
G01 X2.8700 Y18.2550
G01 X2.9311 Y18.2332
G01 X2.9963 Y18.2169
G01 X3.0628 Y18.2070
G01 X3.1288 Y18.2037
G01 X8.1312 Y18.2037
G01 X8.1996 Y18.2073
G01 X8.2637 Y18.2169
G01 X8.3266 Y18.2325
G01 X8.3923 Y18.2558
G01 X8.4552 Y18.2858
G01 X8.5107 Y18.3192
G01 X8.5628 Y18.3577
G01 X8.6128 Y18.4027
G01 X8.6598 Y18.4542
G01 X8.6998 Y18.5083
G01 X8.7344 Y18.5659
G01 X8.7640 Y18.6290
G01 X8.7858 Y18.6901
G01 X8.8016 Y18.7529
G01 X8.8120 Y18.8218
G01 X8.8153 Y18.8890
G01 X8.8153 Y21.5741
G01 X9.4768 Y22.2356
G00 Z15.0000
G00 X10.0820 Y24.7756
G01 F450.00
G01 Z-0.1100
G01 F450.00
G01 X10.1641 Y24.7798
G01 X10.2405 Y24.7912
G01 X10.3178 Y24.8106
G01 X10.3929 Y24.8375
G01 X10.4628 Y24.8704
G01 X10.5353 Y24.9139
G01 X10.5974 Y24.9600
G01 X10.6564 Y25.0136
G01 X10.7100 Y25.0726
G01 X10.7561 Y25.1347
G01 X10.7996 Y25.2072
G01 X10.8325 Y25.2771
G01 X10.8586 Y25.3498
G01 X10.8792 Y25.4319
G01 X10.8905 Y25.5084
G01 X10.8944 Y25.5880
G01 X10.8902 Y25.6701
G01 X10.8788 Y25.7465
G01 X10.8594 Y25.8238
G01 X10.8315 Y25.9011
G01 X10.7985 Y25.9710
G01 X10.7575 Y26.0393
G01 X10.7100 Y26.1034
G01 X10.6581 Y26.1607
G01 X10.5974 Y26.2160
G01 X10.5313 Y26.2648
G01 X10.4650 Y26.3045
G01 X10.3951 Y26.3375
G01 X10.3178 Y26.3654
G01 X10.2381 Y26.3852
G01 X10.1616 Y26.3965
G01 X10.0832 Y26.4004
G01 X9.4768 Y26.4004
G01 X6.9946 Y28.8826
G01 X6.9448 Y28.9278
G01 X6.8927 Y28.9664
G01 X6.8331 Y29.0024
G01 X6.7723 Y29.0312
G01 X6.7089 Y29.0538
G01 X6.6437 Y29.0701
G01 X6.5747 Y29.0802
G01 X6.5100 Y29.0833
G01 X5.7030 Y29.0833
G01 X5.5892 Y29.1970
G01 X5.5854 Y29.2002
G01 X5.5770 Y29.2052
G01 X5.5678 Y29.2085
G01 X5.5630 Y29.2095
G01 X5.5556 Y29.2100
G01 X4.9244 Y29.2100
G01 X4.9170 Y29.2095
G01 X4.9075 Y29.2071
G01 X4.8987 Y29.2029
G01 X4.8946 Y29.2002
G01 X4.8890 Y29.1954
G01 X4.4426 Y28.7490
G01 X4.4378 Y28.7434
G01 X4.4328 Y28.7350
G01 X4.4295 Y28.7258
G01 X4.4281 Y28.7161
G01 X4.4280 Y28.0824
G01 X4.4285 Y28.0750
G01 X4.4295 Y28.0702
G01 X4.4328 Y28.0610
G01 X4.4351 Y28.0567
G01 X4.4410 Y28.0488
G01 X4.5547 Y27.9350
G01 X4.5547 Y26.3210
G01 X4.4410 Y26.2072
G01 X4.4378 Y26.2034
G01 X4.4328 Y26.1950
G01 X4.4295 Y26.1858
G01 X4.4285 Y26.1810
G01 X4.4280 Y26.1736
G01 X4.4280 Y25.5424
G01 X4.4285 Y25.5350
G01 X4.4309 Y25.5255
G01 X4.4351 Y25.5167
G01 X4.4410 Y25.5088
G01 X4.5547 Y25.3950
G01 X4.5547 Y23.7810
G01 X4.4410 Y23.6672
G01 X4.4378 Y23.6634
G01 X4.4328 Y23.6550
G01 X4.4295 Y23.6458
G01 X4.4285 Y23.6410
G01 X4.4280 Y23.6336
G01 X4.4280 Y23.0024
G01 X4.4285 Y22.9950
G01 X4.4309 Y22.9855
G01 X4.4351 Y22.9767
G01 X4.4410 Y22.9688
G01 X4.5547 Y22.8550
G01 X4.5547 Y21.2410
G01 X4.4410 Y21.1272
G01 X4.4378 Y21.1234
G01 X4.4328 Y21.1150
G01 X4.4295 Y21.1058
G01 X4.4285 Y21.1010
G01 X4.4280 Y21.0936
G01 X4.4280 Y20.4624
G01 X4.4285 Y20.4550
G01 X4.4309 Y20.4455
G01 X4.4328 Y20.4410
G01 X4.4378 Y20.4326
G01 X4.4426 Y20.4270
G01 X4.8890 Y19.9806
G01 X4.8946 Y19.9758
G01 X4.9030 Y19.9708
G01 X4.9122 Y19.9675
G01 X4.9170 Y19.9665
G01 X4.9244 Y19.9660
G01 X5.5556 Y19.9660
G01 X5.5630 Y19.9665
G01 X5.5725 Y19.9689
G01 X5.5813 Y19.9731
G01 X5.5854 Y19.9758
G01 X5.5910 Y19.9806
G01 X6.0374 Y20.4270
G01 X6.0422 Y20.4326
G01 X6.0449 Y20.4367
G01 X6.0472 Y20.4410
G01 X6.0505 Y20.4502
G01 X6.0515 Y20.4550
G01 X6.0520 Y20.4624
G01 X6.0520 Y21.0936
G01 X6.0515 Y21.1010
G01 X6.0505 Y21.1058
G01 X6.0472 Y21.1150
G01 X6.0422 Y21.1234
G01 X6.0390 Y21.1272
G01 X5.9253 Y21.2410
G01 X5.9253 Y22.8550
G01 X6.0390 Y22.9688
G01 X6.0422 Y22.9726
G01 X6.0472 Y22.9810
G01 X6.0505 Y22.9902
G01 X6.0515 Y22.9950
G01 X6.0520 Y23.0024
G01 X6.0520 Y23.6336
G01 X6.0515 Y23.6410
G01 X6.0491 Y23.6505
G01 X6.0449 Y23.6593
G01 X6.0390 Y23.6672
G01 X5.9253 Y23.7810
G01 X5.9253 Y25.3950
G01 X6.0390 Y25.5088
G01 X6.0422 Y25.5126
G01 X6.0472 Y25.5210
G01 X6.0505 Y25.5302
G01 X6.0515 Y25.5350
G01 X6.0520 Y25.5424
G01 X6.0520 Y26.1736
G01 X6.0515 Y26.1810
G01 X6.0491 Y26.1905
G01 X6.0449 Y26.1993
G01 X6.0390 Y26.2072
G01 X5.9253 Y26.3210
G01 X5.9253 Y27.7127
G01 X6.2261 Y27.7127
G01 X7.8897 Y26.0491
G01 X7.8812 Y26.0373
G01 X7.8415 Y25.9710
G01 X7.8075 Y25.8989
G01 X7.7806 Y25.8238
G01 X7.7612 Y25.7465
G01 X7.7495 Y25.6676
G01 X7.7456 Y25.5880
G01 X7.7495 Y25.5084
G01 X7.7612 Y25.4295
G01 X7.7806 Y25.3522
G01 X7.8075 Y25.2771
G01 X7.8415 Y25.2050
G01 X7.8825 Y25.1367
G01 X7.9300 Y25.0726
G01 X7.9836 Y25.0136
G01 X8.0426 Y24.9600
G01 X8.1047 Y24.9139
G01 X8.1772 Y24.8704
G01 X8.2471 Y24.8375
G01 X8.3198 Y24.8114
G01 X8.3995 Y24.7912
G01 X8.4808 Y24.7794
G01 X8.5580 Y24.7756
G01 X10.0820 Y24.7756
G00 Z15.0000
G00 X9.4768 Y39.2356
G01 F450.00
G01 Z-0.1100
G01 F450.00
G01 X10.0832 Y39.2356
G01 X10.1616 Y39.2395
G01 X10.2405 Y39.2512
G01 X10.3202 Y39.2714
G01 X10.3929 Y39.2975
G01 X10.4650 Y39.3315
G01 X10.5333 Y39.3725
G01 X10.5954 Y39.4185
G01 X10.6581 Y39.4753
G01 X10.7100 Y39.5326
G01 X10.7575 Y39.5967
G01 X10.7985 Y39.6650
G01 X10.8325 Y39.7371
G01 X10.8594 Y39.8122
G01 X10.8788 Y39.8895
G01 X10.8905 Y39.9684
G01 X10.8943 Y40.0455
G01 X10.8905 Y40.1276
G01 X10.8792 Y40.2041
G01 X10.8586 Y40.2862
G01 X10.8325 Y40.3589
G01 X10.7985 Y40.4310
G01 X10.7575 Y40.4993
G01 X10.7100 Y40.5634
G01 X10.6564 Y40.6224
G01 X10.5974 Y40.6760
G01 X10.5333 Y40.7235
G01 X10.4650 Y40.7645
G01 X10.3929 Y40.7985
G01 X10.3178 Y40.8254
G01 X10.2405 Y40.8448
G01 X10.1616 Y40.8565
G01 X10.0820 Y40.8604
G01 X8.5568 Y40.8604
G01 X8.4784 Y40.8565
G01 X8.3995 Y40.8448
G01 X8.3222 Y40.8254
G01 X8.2471 Y40.7985
G01 X8.1750 Y40.7645
G01 X8.1067 Y40.7235
G01 X8.0426 Y40.6760
G01 X7.9836 Y40.6224
G01 X7.9300 Y40.5634
G01 X7.8825 Y40.4993
G01 X7.8415 Y40.4310
G01 X7.8075 Y40.3589
G01 X7.7806 Y40.2838
G01 X7.7608 Y40.2041
G01 X7.7495 Y40.1276
G01 X7.7457 Y40.0505
G01 X7.7495 Y39.9684
G01 X7.7618 Y39.8871
G01 X7.7806 Y39.8122
G01 X7.8066 Y39.7394
G01 X7.8415 Y39.6650
G01 X7.8812 Y39.5987
G01 X7.8897 Y39.5869
G01 X7.6445 Y39.3417
G01 X7.6002 Y39.2928
G01 X7.5616 Y39.2407
G01 X7.5256 Y39.1811
G01 X7.4968 Y39.1203
G01 X7.4742 Y39.0569
G01 X7.4579 Y38.9917
G01 X7.4480 Y38.9252
G01 X7.4447 Y38.8580
G01 X7.4447 Y36.5743
G01 X3.4139 Y36.5743
G01 X3.3853 Y36.6029
G01 X3.3853 Y37.3150
G01 X3.4990 Y37.4288
G01 X3.5022 Y37.4326
G01 X3.5072 Y37.4410
G01 X3.5091 Y37.4455
G01 X3.5115 Y37.4550
G01 X3.5120 Y37.4624
G01 X3.5120 Y38.0936
G01 X3.5115 Y38.1010
G01 X3.5091 Y38.1105
G01 X3.5049 Y38.1193
G01 X3.4990 Y38.1272
G01 X3.3853 Y38.2410
G01 X3.3853 Y39.8550
G01 X3.4990 Y39.9688
G01 X3.5022 Y39.9726
G01 X3.5072 Y39.9810
G01 X3.5091 Y39.9855
G01 X3.5115 Y39.9950
G01 X3.5120 Y40.0024
G01 X3.5120 Y40.6336
G01 X3.5115 Y40.6410
G01 X3.5091 Y40.6505
G01 X3.5049 Y40.6593
G01 X3.4990 Y40.6672
G01 X3.3853 Y40.7810
G01 X3.3853 Y42.3950
G01 X3.4990 Y42.5088
G01 X3.5022 Y42.5126
G01 X3.5072 Y42.5210
G01 X3.5091 Y42.5255
G01 X3.5115 Y42.5350
G01 X3.5120 Y42.5424
G01 X3.5120 Y43.1736
G01 X3.5115 Y43.1810
G01 X3.5091 Y43.1905
G01 X3.5049 Y43.1993
G01 X3.4990 Y43.2072
G01 X3.3853 Y43.3210
G01 X3.3853 Y44.9350
G01 X3.4990 Y45.0488
G01 X3.5022 Y45.0526
G01 X3.5072 Y45.0610
G01 X3.5091 Y45.0655
G01 X3.5115 Y45.0750
G01 X3.5120 Y45.0824
G01 X3.5120 Y45.7136
G01 X3.5115 Y45.7210
G01 X3.5091 Y45.7305
G01 X3.5072 Y45.7350
G01 X3.5022 Y45.7434
G01 X3.4974 Y45.7490
G01 X3.0510 Y46.1954
G01 X3.0454 Y46.2002
G01 X3.0370 Y46.2052
G01 X3.0278 Y46.2085
G01 X3.0230 Y46.2095
G01 X3.0156 Y46.2100
G01 X2.3844 Y46.2100
G01 X2.3770 Y46.2095
G01 X2.3722 Y46.2085
G01 X2.3630 Y46.2052
G01 X2.3546 Y46.2002
G01 X2.3490 Y46.1954
G01 X1.9010 Y45.7472
G01 X1.8951 Y45.7393
G01 X1.8909 Y45.7305
G01 X1.8885 Y45.7210
G01 X1.8880 Y45.7136
G01 X1.8880 Y45.0824
G01 X1.8885 Y45.0750
G01 X1.8909 Y45.0655
G01 X1.8928 Y45.0610
G01 X1.8951 Y45.0567
G01 X1.9010 Y45.0488
G01 X2.0147 Y44.9350
G01 X2.0147 Y43.3210
G01 X1.9010 Y43.2072
G01 X1.8978 Y43.2034
G01 X1.8928 Y43.1950
G01 X1.8909 Y43.1905
G01 X1.8885 Y43.1810
G01 X1.8880 Y43.1736
G01 X1.8880 Y42.5424
G01 X1.8885 Y42.5350
G01 X1.8909 Y42.5255
G01 X1.8951 Y42.5167
G01 X1.9010 Y42.5088
G01 X2.0147 Y42.3950
G01 X2.0147 Y40.7810
G01 X1.9010 Y40.6672
G01 X1.8978 Y40.6634
G01 X1.8928 Y40.6550
G01 X1.8909 Y40.6505
G01 X1.8885 Y40.6410
G01 X1.8880 Y40.6336
G01 X1.8880 Y40.0024
G01 X1.8885 Y39.9950
G01 X1.8909 Y39.9855
G01 X1.8951 Y39.9767
G01 X1.9010 Y39.9688
G01 X2.0147 Y39.8550
G01 X2.0147 Y38.2410
G01 X1.9010 Y38.1272
G01 X1.8978 Y38.1234
G01 X1.8928 Y38.1150
G01 X1.8909 Y38.1105
G01 X1.8885 Y38.1010
G01 X1.8880 Y38.0936
G01 X1.8881 Y37.4599
G01 X1.8885 Y37.4550
G01 X1.8909 Y37.4455
G01 X1.8951 Y37.4367
G01 X1.9010 Y37.4288
G01 X2.0147 Y37.3150
G01 X2.0147 Y36.3165
G01 X2.0180 Y36.2518
G01 X2.0279 Y36.1853
G01 X2.0442 Y36.1201
G01 X2.0660 Y36.0590
G01 X2.0956 Y35.9959
G01 X2.1289 Y35.9403
G01 X2.1718 Y35.8824
G01 X2.2154 Y35.8344
G01 X2.6454 Y35.4044
G01 X2.6952 Y35.3592
G01 X2.7493 Y35.3192
G01 X2.8048 Y35.2858
G01 X2.8700 Y35.2550
G01 X2.9311 Y35.2332
G01 X2.9963 Y35.2169
G01 X3.0628 Y35.2070
G01 X3.1288 Y35.2037
G01 X8.1312 Y35.2037
G01 X8.1996 Y35.2073
G01 X8.2637 Y35.2169
G01 X8.3266 Y35.2325
G01 X8.3923 Y35.2558
G01 X8.4552 Y35.2858
G01 X8.5107 Y35.3192
G01 X8.5628 Y35.3577
G01 X8.6128 Y35.4027
G01 X8.6598 Y35.4542
G01 X8.6998 Y35.5083
G01 X8.7344 Y35.5659
G01 X8.7640 Y35.6290
G01 X8.7858 Y35.6901
G01 X8.8016 Y35.7529
G01 X8.8120 Y35.8218
G01 X8.8153 Y35.8890
G01 X8.8153 Y38.5741
G01 X9.4768 Y39.2356
G00 Z15.0000
G00 X10.0820 Y41.7756
G01 F450.00
G01 Z-0.1100
G01 F450.00
G01 X10.1641 Y41.7798
G01 X10.2405 Y41.7912
G01 X10.3178 Y41.8106
G01 X10.3929 Y41.8375
G01 X10.4628 Y41.8704
G01 X10.5353 Y41.9139
G01 X10.5974 Y41.9600
G01 X10.6564 Y42.0136
G01 X10.7100 Y42.0726
G01 X10.7561 Y42.1347
G01 X10.7996 Y42.2072
G01 X10.8325 Y42.2771
G01 X10.8586 Y42.3498
G01 X10.8792 Y42.4319
G01 X10.8905 Y42.5084
G01 X10.8944 Y42.5880
G01 X10.8905 Y42.6676
G01 X10.8792 Y42.7441
G01 X10.8594 Y42.8238
G01 X10.8325 Y42.8989
G01 X10.7996 Y42.9688
G01 X10.7575 Y43.0393
G01 X10.7100 Y43.1034
G01 X10.6581 Y43.1607
G01 X10.5974 Y43.2160
G01 X10.5313 Y43.2648
G01 X10.4650 Y43.3045
G01 X10.3951 Y43.3375
G01 X10.3178 Y43.3654
G01 X10.2381 Y43.3852
G01 X10.1616 Y43.3965
G01 X10.0832 Y43.4004
G01 X9.4768 Y43.4004
G01 X6.9946 Y45.8826
G01 X6.9448 Y45.9278
G01 X6.8927 Y45.9664
G01 X6.8331 Y46.0024
G01 X6.7723 Y46.0312
G01 X6.7089 Y46.0538
G01 X6.6437 Y46.0701
G01 X6.5747 Y46.0802
G01 X6.5100 Y46.0833
G01 X5.7030 Y46.0833
G01 X5.5892 Y46.1970
G01 X5.5854 Y46.2002
G01 X5.5770 Y46.2052
G01 X5.5725 Y46.2071
G01 X5.5630 Y46.2095
G01 X5.5556 Y46.2100
G01 X4.9244 Y46.2100
G01 X4.9170 Y46.2095
G01 X4.9075 Y46.2071
G01 X4.9030 Y46.2052
G01 X4.8946 Y46.2002
G01 X4.8890 Y46.1954
G01 X4.4426 Y45.7490
G01 X4.4378 Y45.7434
G01 X4.4328 Y45.7350
G01 X4.4295 Y45.7258
G01 X4.4281 Y45.7161
G01 X4.4280 Y45.0824
G01 X4.4285 Y45.0750
G01 X4.4309 Y45.0655
G01 X4.4328 Y45.0610
G01 X4.4351 Y45.0567
G01 X4.4410 Y45.0488
G01 X4.5547 Y44.9350
G01 X4.5547 Y43.3210
G01 X4.4410 Y43.2072
G01 X4.4378 Y43.2034
G01 X4.4328 Y43.1950
G01 X4.4309 Y43.1905
G01 X4.4285 Y43.1810
G01 X4.4280 Y43.1736
G01 X4.4280 Y42.5424
G01 X4.4285 Y42.5350
G01 X4.4309 Y42.5255
G01 X4.4351 Y42.5167
G01 X4.4410 Y42.5088
G01 X4.5547 Y42.3950
G01 X4.5547 Y40.7810
G01 X4.4410 Y40.6672
G01 X4.4378 Y40.6634
G01 X4.4328 Y40.6550
G01 X4.4309 Y40.6505
G01 X4.4285 Y40.6410
G01 X4.4280 Y40.6336
G01 X4.4280 Y40.0024
G01 X4.4285 Y39.9950
G01 X4.4309 Y39.9855
G01 X4.4351 Y39.9767
G01 X4.4410 Y39.9688
G01 X4.5547 Y39.8550
G01 X4.5547 Y38.2410
G01 X4.4410 Y38.1272
G01 X4.4378 Y38.1234
G01 X4.4328 Y38.1150
G01 X4.4309 Y38.1105
G01 X4.4285 Y38.1010
G01 X4.4280 Y38.0936
G01 X4.4280 Y37.4624
G01 X4.4285 Y37.4550
G01 X4.4309 Y37.4455
G01 X4.4351 Y37.4367
G01 X4.4378 Y37.4326
G01 X4.4426 Y37.4270
G01 X4.8890 Y36.9806
G01 X4.8946 Y36.9758
G01 X4.9030 Y36.9708
G01 X4.9122 Y36.9675
G01 X4.9170 Y36.9665
G01 X4.9244 Y36.9660
G01 X5.5556 Y36.9660
G01 X5.5630 Y36.9665
G01 X5.5678 Y36.9675
G01 X5.5770 Y36.9708
G01 X5.5854 Y36.9758
G01 X5.5910 Y36.9806
G01 X6.0374 Y37.4270
G01 X6.0422 Y37.4326
G01 X6.0449 Y37.4367
G01 X6.0491 Y37.4455
G01 X6.0505 Y37.4502
G01 X6.0515 Y37.4550
G01 X6.0520 Y37.4624
G01 X6.0520 Y38.0936
G01 X6.0515 Y38.1010
G01 X6.0491 Y38.1105
G01 X6.0472 Y38.1150
G01 X6.0449 Y38.1193
G01 X6.0390 Y38.1272
G01 X5.9253 Y38.2410
G01 X5.9253 Y39.8550
G01 X6.0390 Y39.9688
G01 X6.0422 Y39.9726
G01 X6.0472 Y39.9810
G01 X6.0491 Y39.9855
G01 X6.0515 Y39.9950
G01 X6.0520 Y40.0024
G01 X6.0520 Y40.6336
G01 X6.0515 Y40.6410
G01 X6.0491 Y40.6505
G01 X6.0449 Y40.6593
G01 X6.0390 Y40.6672
G01 X5.9253 Y40.7810
G01 X5.9253 Y42.3950
G01 X6.0390 Y42.5088
G01 X6.0422 Y42.5126
G01 X6.0472 Y42.5210
G01 X6.0491 Y42.5255
G01 X6.0515 Y42.5350
G01 X6.0520 Y42.5424
G01 X6.0520 Y43.1736
G01 X6.0515 Y43.1810
G01 X6.0491 Y43.1905
G01 X6.0449 Y43.1993
G01 X6.0390 Y43.2072
G01 X5.9253 Y43.3210
G01 X5.9253 Y44.7127
G01 X6.2261 Y44.7127
G01 X7.8897 Y43.0491
G01 X7.8812 Y43.0373
G01 X7.8415 Y42.9710
G01 X7.8075 Y42.8989
G01 X7.7806 Y42.8238
G01 X7.7612 Y42.7465
G01 X7.7495 Y42.6676
G01 X7.7456 Y42.5880
G01 X7.7495 Y42.5084
G01 X7.7612 Y42.4295
G01 X7.7806 Y42.3522
G01 X7.8075 Y42.2771
G01 X7.8415 Y42.2050
G01 X7.8825 Y42.1367
G01 X7.9300 Y42.0726
G01 X7.9836 Y42.0136
G01 X8.0426 Y41.9600
G01 X8.1047 Y41.9139
G01 X8.1772 Y41.8704
G01 X8.2471 Y41.8375
G01 X8.3198 Y41.8114
G01 X8.3995 Y41.7912
G01 X8.4808 Y41.7794
G01 X8.5580 Y41.7756
G01 X10.0820 Y41.7756
G00 Z15.0000
G00 X9.4768 Y56.2356
G01 F450.00
G01 Z-0.1100
G01 F450.00
G01 X10.0832 Y56.2356
G01 X10.1616 Y56.2395
G01 X10.2405 Y56.2512
G01 X10.3202 Y56.2714
G01 X10.3929 Y56.2975
G01 X10.4650 Y56.3315
G01 X10.5333 Y56.3725
G01 X10.5954 Y56.4185
G01 X10.6581 Y56.4753
G01 X10.7100 Y56.5326
G01 X10.7575 Y56.5967
G01 X10.7985 Y56.6650
G01 X10.8325 Y56.7371
G01 X10.8594 Y56.8122
G01 X10.8788 Y56.8895
G01 X10.8905 Y56.9684
G01 X10.8943 Y57.0455
G01 X10.8905 Y57.1276
G01 X10.8792 Y57.2041
G01 X10.8586 Y57.2862
G01 X10.8325 Y57.3589
G01 X10.7985 Y57.4310
G01 X10.7575 Y57.4993
G01 X10.7100 Y57.5634
G01 X10.6564 Y57.6224
G01 X10.5974 Y57.6760
G01 X10.5333 Y57.7235
G01 X10.4650 Y57.7645
G01 X10.3929 Y57.7985
G01 X10.3178 Y57.8254
G01 X10.2405 Y57.8448
G01 X10.1616 Y57.8565
G01 X10.0820 Y57.8604
G01 X8.5568 Y57.8604
G01 X8.4784 Y57.8565
G01 X8.3995 Y57.8448
G01 X8.3222 Y57.8254
G01 X8.2471 Y57.7985
G01 X8.1750 Y57.7645
G01 X8.1067 Y57.7235
G01 X8.0426 Y57.6760
G01 X7.9836 Y57.6224
G01 X7.9300 Y57.5634
G01 X7.8825 Y57.4993
G01 X7.8415 Y57.4310
G01 X7.8075 Y57.3589
G01 X7.7806 Y57.2838
G01 X7.7608 Y57.2041
G01 X7.7495 Y57.1276
G01 X7.7457 Y57.0505
G01 X7.7495 Y56.9684
G01 X7.7618 Y56.8871
G01 X7.7806 Y56.8122
G01 X7.8066 Y56.7394
G01 X7.8415 Y56.6650
G01 X7.8812 Y56.5987
G01 X7.8897 Y56.5869
G01 X7.6445 Y56.3417
G01 X7.6002 Y56.2928
G01 X7.5616 Y56.2407
G01 X7.5256 Y56.1811
G01 X7.4968 Y56.1203
G01 X7.4742 Y56.0569
G01 X7.4579 Y55.9917
G01 X7.4480 Y55.9252
G01 X7.4447 Y55.8580
G01 X7.4447 Y53.5743
G01 X3.4139 Y53.5743
G01 X3.3853 Y53.6029
G01 X3.3853 Y54.3150
G01 X3.4990 Y54.4288
G01 X3.5022 Y54.4326
G01 X3.5072 Y54.4410
G01 X3.5091 Y54.4455
G01 X3.5115 Y54.4550
G01 X3.5120 Y54.4624
G01 X3.5120 Y55.0936
G01 X3.5115 Y55.1010
G01 X3.5091 Y55.1105
G01 X3.5049 Y55.1193
G01 X3.4990 Y55.1272
G01 X3.3853 Y55.2410
G01 X3.3853 Y56.8550
G01 X3.4990 Y56.9688
G01 X3.5022 Y56.9726
G01 X3.5072 Y56.9810
G01 X3.5091 Y56.9855
G01 X3.5115 Y56.9950
G01 X3.5120 Y57.0024
G01 X3.5120 Y57.6336
G01 X3.5115 Y57.6410
G01 X3.5091 Y57.6505
G01 X3.5049 Y57.6593
G01 X3.4990 Y57.6672
G01 X3.3853 Y57.7810
G01 X3.3853 Y59.3950
G01 X3.4990 Y59.5088
G01 X3.5022 Y59.5126
G01 X3.5072 Y59.5210
G01 X3.5091 Y59.5255
G01 X3.5115 Y59.5350
G01 X3.5120 Y59.5424
G01 X3.5120 Y60.1736
G01 X3.5115 Y60.1810
G01 X3.5091 Y60.1905
G01 X3.5049 Y60.1993
G01 X3.4990 Y60.2072
G01 X3.3853 Y60.3210
G01 X3.3853 Y61.9350
G01 X3.4990 Y62.0488
G01 X3.5022 Y62.0526
G01 X3.5072 Y62.0610
G01 X3.5091 Y62.0655
G01 X3.5115 Y62.0750
G01 X3.5120 Y62.0824
G01 X3.5120 Y62.7136
G01 X3.5115 Y62.7210
G01 X3.5091 Y62.7305
G01 X3.5072 Y62.7350
G01 X3.5022 Y62.7434
G01 X3.4974 Y62.7490
G01 X3.0510 Y63.1954
G01 X3.0454 Y63.2002
G01 X3.0370 Y63.2052
G01 X3.0278 Y63.2085
G01 X3.0230 Y63.2095
G01 X3.0156 Y63.2100
G01 X2.3844 Y63.2100
G01 X2.3770 Y63.2095
G01 X2.3722 Y63.2085
G01 X2.3630 Y63.2052
G01 X2.3546 Y63.2002
G01 X2.3490 Y63.1954
G01 X1.9010 Y62.7472
G01 X1.8951 Y62.7393
G01 X1.8909 Y62.7305
G01 X1.8885 Y62.7210
G01 X1.8880 Y62.7136
G01 X1.8880 Y62.0824
G01 X1.8885 Y62.0750
G01 X1.8909 Y62.0655
G01 X1.8928 Y62.0610
G01 X1.8951 Y62.0567
G01 X1.9010 Y62.0488
G01 X2.0147 Y61.9350
G01 X2.0147 Y60.3210
G01 X1.9010 Y60.2072
G01 X1.8978 Y60.2034
G01 X1.8928 Y60.1950
G01 X1.8909 Y60.1905
G01 X1.8885 Y60.1810
G01 X1.8880 Y60.1736
G01 X1.8880 Y59.5424
G01 X1.8885 Y59.5350
G01 X1.8909 Y59.5255
G01 X1.8951 Y59.5167
G01 X1.9010 Y59.5088
G01 X2.0147 Y59.3950
G01 X2.0147 Y57.7810
G01 X1.9010 Y57.6672
G01 X1.8978 Y57.6634
G01 X1.8928 Y57.6550
G01 X1.8909 Y57.6505
G01 X1.8885 Y57.6410
G01 X1.8880 Y57.6336
G01 X1.8880 Y57.0024
G01 X1.8885 Y56.9950
G01 X1.8909 Y56.9855
G01 X1.8951 Y56.9767
G01 X1.9010 Y56.9688
G01 X2.0147 Y56.8550
G01 X2.0147 Y55.2410
G01 X1.9010 Y55.1272
G01 X1.8978 Y55.1234
G01 X1.8928 Y55.1150
G01 X1.8909 Y55.1105
G01 X1.8885 Y55.1010
G01 X1.8880 Y55.0936
G01 X1.8881 Y54.4599
G01 X1.8885 Y54.4550
G01 X1.8909 Y54.4455
G01 X1.8951 Y54.4367
G01 X1.9010 Y54.4288
G01 X2.0147 Y54.3150
G01 X2.0147 Y53.3165
G01 X2.0180 Y53.2518
G01 X2.0279 Y53.1853
G01 X2.0442 Y53.1201
G01 X2.0660 Y53.0590
G01 X2.0956 Y52.9959
G01 X2.1289 Y52.9403
G01 X2.1718 Y52.8824
G01 X2.2154 Y52.8344
G01 X2.6454 Y52.4044
G01 X2.6952 Y52.3592
G01 X2.7493 Y52.3192
G01 X2.8048 Y52.2858
G01 X2.8700 Y52.2550
G01 X2.9311 Y52.2332
G01 X2.9963 Y52.2169
G01 X3.0628 Y52.2070
G01 X3.1288 Y52.2037
G01 X8.1312 Y52.2037
G01 X8.1996 Y52.2073
G01 X8.2637 Y52.2169
G01 X8.3266 Y52.2325
G01 X8.3923 Y52.2558
G01 X8.4552 Y52.2858
G01 X8.5107 Y52.3192
G01 X8.5628 Y52.3577
G01 X8.6128 Y52.4027
G01 X8.6598 Y52.4542
G01 X8.6998 Y52.5083
G01 X8.7344 Y52.5659
G01 X8.7640 Y52.6290
G01 X8.7858 Y52.6901
G01 X8.8016 Y52.7529
G01 X8.8120 Y52.8218
G01 X8.8153 Y52.8890
G01 X8.8153 Y55.5741
G01 X9.4768 Y56.2356
G00 Z15.0000
G00 X10.0820 Y58.7756
G01 F450.00
G01 Z-0.1100
G01 F450.00
G01 X10.1641 Y58.7798
G01 X10.2405 Y58.7912
G01 X10.3178 Y58.8106
G01 X10.3929 Y58.8375
G01 X10.4628 Y58.8704
G01 X10.5353 Y58.9139
G01 X10.5974 Y58.9600
G01 X10.6564 Y59.0136
G01 X10.7100 Y59.0726
G01 X10.7561 Y59.1347
G01 X10.7996 Y59.2072
G01 X10.8325 Y59.2771
G01 X10.8586 Y59.3498
G01 X10.8792 Y59.4319
G01 X10.8905 Y59.5084
G01 X10.8944 Y59.5880
G01 X10.8905 Y59.6676
G01 X10.8792 Y59.7441
G01 X10.8594 Y59.8238
G01 X10.8325 Y59.8989
G01 X10.7996 Y59.9688
G01 X10.7575 Y60.0393
G01 X10.7100 Y60.1034
G01 X10.6581 Y60.1607
G01 X10.5974 Y60.2160
G01 X10.5313 Y60.2648
G01 X10.4650 Y60.3045
G01 X10.3951 Y60.3375
G01 X10.3178 Y60.3654
G01 X10.2381 Y60.3852
G01 X10.1616 Y60.3965
G01 X10.0832 Y60.4004
G01 X9.4768 Y60.4004
G01 X6.9946 Y62.8826
G01 X6.9448 Y62.9278
G01 X6.8927 Y62.9664
G01 X6.8331 Y63.0024
G01 X6.7723 Y63.0312
G01 X6.7089 Y63.0538
G01 X6.6437 Y63.0701
G01 X6.5747 Y63.0802
G01 X6.5100 Y63.0833
G01 X5.7030 Y63.0833
G01 X5.5892 Y63.1970
G01 X5.5854 Y63.2002
G01 X5.5770 Y63.2052
G01 X5.5725 Y63.2071
G01 X5.5630 Y63.2095
G01 X5.5556 Y63.2100
G01 X4.9244 Y63.2100
G01 X4.9170 Y63.2095
G01 X4.9075 Y63.2071
G01 X4.9030 Y63.2052
G01 X4.8946 Y63.2002
G01 X4.8890 Y63.1954
G01 X4.4426 Y62.7490
G01 X4.4378 Y62.7434
G01 X4.4328 Y62.7350
G01 X4.4295 Y62.7258
G01 X4.4281 Y62.7161
G01 X4.4280 Y62.0824
G01 X4.4285 Y62.0750
G01 X4.4309 Y62.0655
G01 X4.4328 Y62.0610
G01 X4.4351 Y62.0567
G01 X4.4410 Y62.0488
G01 X4.5547 Y61.9350
G01 X4.5547 Y60.3210
G01 X4.4410 Y60.2072
G01 X4.4378 Y60.2034
G01 X4.4328 Y60.1950
G01 X4.4309 Y60.1905
G01 X4.4285 Y60.1810
G01 X4.4280 Y60.1736
G01 X4.4280 Y59.5424
G01 X4.4285 Y59.5350
G01 X4.4309 Y59.5255
G01 X4.4351 Y59.5167
G01 X4.4410 Y59.5088
G01 X4.5547 Y59.3950
G01 X4.5547 Y57.7810
G01 X4.4410 Y57.6672
G01 X4.4378 Y57.6634
G01 X4.4328 Y57.6550
G01 X4.4309 Y57.6505
G01 X4.4285 Y57.6410
G01 X4.4280 Y57.6336
G01 X4.4280 Y57.0024
G01 X4.4285 Y56.9950
G01 X4.4309 Y56.9855
G01 X4.4351 Y56.9767
G01 X4.4410 Y56.9688
G01 X4.5547 Y56.8550
G01 X4.5547 Y55.2410
G01 X4.4410 Y55.1272
G01 X4.4378 Y55.1234
G01 X4.4328 Y55.1150
G01 X4.4309 Y55.1105
G01 X4.4285 Y55.1010
G01 X4.4280 Y55.0936
G01 X4.4280 Y54.4624
G01 X4.4285 Y54.4550
G01 X4.4309 Y54.4455
G01 X4.4351 Y54.4367
G01 X4.4378 Y54.4326
G01 X4.4426 Y54.4270
G01 X4.8890 Y53.9806
G01 X4.8946 Y53.9758
G01 X4.9030 Y53.9708
G01 X4.9122 Y53.9675
G01 X4.9170 Y53.9665
G01 X4.9244 Y53.9660
G01 X5.5556 Y53.9660
G01 X5.5630 Y53.9665
G01 X5.5678 Y53.9675
G01 X5.5770 Y53.9708
G01 X5.5854 Y53.9758
G01 X5.5910 Y53.9806
G01 X6.0374 Y54.4270
G01 X6.0422 Y54.4326
G01 X6.0449 Y54.4367
G01 X6.0491 Y54.4455
G01 X6.0505 Y54.4502
G01 X6.0515 Y54.4550
G01 X6.0520 Y54.4624
G01 X6.0520 Y55.0936
G01 X6.0515 Y55.1010
G01 X6.0491 Y55.1105
G01 X6.0472 Y55.1150
G01 X6.0449 Y55.1193
G01 X6.0390 Y55.1272
G01 X5.9253 Y55.2410
G01 X5.9253 Y56.8550
G01 X6.0390 Y56.9688
G01 X6.0422 Y56.9726
G01 X6.0472 Y56.9810
G01 X6.0491 Y56.9855
G01 X6.0515 Y56.9950
G01 X6.0520 Y57.0024
G01 X6.0520 Y57.6336
G01 X6.0515 Y57.6410
G01 X6.0491 Y57.6505
G01 X6.0449 Y57.6593
G01 X6.0390 Y57.6672
G01 X5.9253 Y57.7810
G01 X5.9253 Y59.3950
G01 X6.0390 Y59.5088
G01 X6.0422 Y59.5126
G01 X6.0472 Y59.5210
G01 X6.0491 Y59.5255
G01 X6.0515 Y59.5350
G01 X6.0520 Y59.5424
G01 X6.0520 Y60.1736
G01 X6.0515 Y60.1810
G01 X6.0491 Y60.1905
G01 X6.0449 Y60.1993
G01 X6.0390 Y60.2072
G01 X5.9253 Y60.3210
G01 X5.9253 Y61.7127
G01 X6.2261 Y61.7127
G01 X7.8897 Y60.0491
G01 X7.8812 Y60.0373
G01 X7.8415 Y59.9710
G01 X7.8075 Y59.8989
G01 X7.7806 Y59.8238
G01 X7.7612 Y59.7465
G01 X7.7495 Y59.6676
G01 X7.7456 Y59.5880
G01 X7.7495 Y59.5084
G01 X7.7612 Y59.4295
G01 X7.7806 Y59.3522
G01 X7.8075 Y59.2771
G01 X7.8415 Y59.2050
G01 X7.8825 Y59.1367
G01 X7.9300 Y59.0726
G01 X7.9836 Y59.0136
G01 X8.0426 Y58.9600
G01 X8.1047 Y58.9139
G01 X8.1772 Y58.8704
G01 X8.2471 Y58.8375
G01 X8.3198 Y58.8114
G01 X8.3995 Y58.7912
G01 X8.4808 Y58.7794
G01 X8.5580 Y58.7756
G01 X10.0820 Y58.7756
G00 Z15.0000
G00 X9.4768 Y73.2356
G01 F450.00
G01 Z-0.1100
G01 F450.00
G01 X10.0832 Y73.2356
G01 X10.1616 Y73.2395
G01 X10.2405 Y73.2512
G01 X10.3202 Y73.2714
G01 X10.3929 Y73.2975
G01 X10.4650 Y73.3315
G01 X10.5333 Y73.3725
G01 X10.5954 Y73.4185
G01 X10.6581 Y73.4753
G01 X10.7100 Y73.5326
G01 X10.7575 Y73.5967
G01 X10.7985 Y73.6650
G01 X10.8325 Y73.7371
G01 X10.8594 Y73.8122
G01 X10.8788 Y73.8895
G01 X10.8905 Y73.9684
G01 X10.8943 Y74.0455
G01 X10.8905 Y74.1276
G01 X10.8792 Y74.2041
G01 X10.8586 Y74.2862
G01 X10.8325 Y74.3589
G01 X10.7985 Y74.4310
G01 X10.7575 Y74.4993
G01 X10.7100 Y74.5634
G01 X10.6564 Y74.6224
G01 X10.5974 Y74.6760
G01 X10.5333 Y74.7235
G01 X10.4650 Y74.7645
G01 X10.3929 Y74.7985
G01 X10.3178 Y74.8254
G01 X10.2405 Y74.8448
G01 X10.1616 Y74.8565
G01 X10.0820 Y74.8604
G01 X8.5568 Y74.8604
G01 X8.4784 Y74.8565
G01 X8.3995 Y74.8448
G01 X8.3222 Y74.8254
G01 X8.2471 Y74.7985
G01 X8.1750 Y74.7645
G01 X8.1067 Y74.7235
G01 X8.0426 Y74.6760
G01 X7.9836 Y74.6224
G01 X7.9300 Y74.5634
G01 X7.8825 Y74.4993
G01 X7.8415 Y74.4310
G01 X7.8075 Y74.3589
G01 X7.7799 Y74.2815
G01 X7.7612 Y74.2065
G01 X7.7498 Y74.1301
G01 X7.7456 Y74.0480
G01 X7.7495 Y73.9684
G01 X7.7618 Y73.8871
G01 X7.7806 Y73.8122
G01 X7.8066 Y73.7394
G01 X7.8415 Y73.6650
G01 X7.8812 Y73.5987
G01 X7.8897 Y73.5869
G01 X7.6446 Y73.3417
G01 X7.6002 Y73.2928
G01 X7.5616 Y73.2407
G01 X7.5256 Y73.1811
G01 X7.4968 Y73.1203
G01 X7.4742 Y73.0569
G01 X7.4579 Y72.9917
G01 X7.4480 Y72.9252
G01 X7.4447 Y72.8580
G01 X7.4447 Y70.5743
G01 X3.4139 Y70.5743
G01 X3.3853 Y70.6029
G01 X3.3853 Y71.3150
G01 X3.4990 Y71.4288
G01 X3.5022 Y71.4326
G01 X3.5072 Y71.4410
G01 X3.5091 Y71.4455
G01 X3.5115 Y71.4550
G01 X3.5120 Y71.4624
G01 X3.5120 Y72.0936
G01 X3.5115 Y72.1010
G01 X3.5091 Y72.1105
G01 X3.5049 Y72.1193
G01 X3.4990 Y72.1272
G01 X3.3853 Y72.2410
G01 X3.3853 Y73.8550
G01 X3.4990 Y73.9688
G01 X3.5022 Y73.9726
G01 X3.5072 Y73.9810
G01 X3.5091 Y73.9855
G01 X3.5115 Y73.9950
G01 X3.5120 Y74.0024
G01 X3.5120 Y74.6336
G01 X3.5115 Y74.6410
G01 X3.5091 Y74.6505
G01 X3.5049 Y74.6593
G01 X3.4990 Y74.6672
G01 X3.3853 Y74.7810
G01 X3.3853 Y76.3950
G01 X3.4990 Y76.5088
G01 X3.5022 Y76.5126
G01 X3.5072 Y76.5210
G01 X3.5091 Y76.5255
G01 X3.5115 Y76.5350
G01 X3.5120 Y76.5424
G01 X3.5120 Y77.1736
G01 X3.5115 Y77.1810
G01 X3.5091 Y77.1905
G01 X3.5049 Y77.1993
G01 X3.4990 Y77.2072
G01 X3.3853 Y77.3210
G01 X3.3853 Y78.9350
G01 X3.4990 Y79.0488
G01 X3.5022 Y79.0526
G01 X3.5072 Y79.0610
G01 X3.5091 Y79.0655
G01 X3.5115 Y79.0750
G01 X3.5120 Y79.0824
G01 X3.5120 Y79.7136
G01 X3.5115 Y79.7210
G01 X3.5091 Y79.7305
G01 X3.5072 Y79.7350
G01 X3.5022 Y79.7434
G01 X3.4974 Y79.7490
G01 X3.0510 Y80.1954
G01 X3.0454 Y80.2002
G01 X3.0413 Y80.2029
G01 X3.0325 Y80.2071
G01 X3.0230 Y80.2095
G01 X3.0156 Y80.2100
G01 X2.3844 Y80.2100
G01 X2.3770 Y80.2095
G01 X2.3722 Y80.2085
G01 X2.3630 Y80.2052
G01 X2.3546 Y80.2002
G01 X2.3490 Y80.1954
G01 X1.9010 Y79.7472
G01 X1.8951 Y79.7393
G01 X1.8909 Y79.7305
G01 X1.8885 Y79.7210
G01 X1.8880 Y79.7136
G01 X1.8880 Y79.0824
G01 X1.8885 Y79.0750
G01 X1.8909 Y79.0655
G01 X1.8928 Y79.0610
G01 X1.8978 Y79.0526
G01 X1.9010 Y79.0488
G01 X2.0147 Y78.9350
G01 X2.0147 Y77.3210
G01 X1.9010 Y77.2072
G01 X1.8978 Y77.2034
G01 X1.8928 Y77.1950
G01 X1.8909 Y77.1905
G01 X1.8885 Y77.1810
G01 X1.8880 Y77.1736
G01 X1.8880 Y76.5424
G01 X1.8885 Y76.5350
G01 X1.8909 Y76.5255
G01 X1.8951 Y76.5167
G01 X1.9010 Y76.5088
G01 X2.0147 Y76.3950
G01 X2.0147 Y74.7810
G01 X1.9010 Y74.6672
G01 X1.8978 Y74.6634
G01 X1.8928 Y74.6550
G01 X1.8909 Y74.6505
G01 X1.8885 Y74.6410
G01 X1.8880 Y74.6336
G01 X1.8880 Y74.0024
G01 X1.8885 Y73.9950
G01 X1.8909 Y73.9855
G01 X1.8951 Y73.9767
G01 X1.9010 Y73.9688
G01 X2.0147 Y73.8550
G01 X2.0147 Y72.2410
G01 X1.9010 Y72.1272
G01 X1.8978 Y72.1234
G01 X1.8928 Y72.1150
G01 X1.8909 Y72.1105
G01 X1.8885 Y72.1010
G01 X1.8880 Y72.0936
G01 X1.8881 Y71.4599
G01 X1.8885 Y71.4550
G01 X1.8909 Y71.4455
G01 X1.8951 Y71.4367
G01 X1.9010 Y71.4288
G01 X2.0147 Y71.3150
G01 X2.0147 Y70.3165
G01 X2.0180 Y70.2518
G01 X2.0279 Y70.1853
G01 X2.0442 Y70.1201
G01 X2.0660 Y70.0590
G01 X2.0956 Y69.9959
G01 X2.1289 Y69.9403
G01 X2.1718 Y69.8824
G01 X2.2154 Y69.8344
G01 X2.6454 Y69.4044
G01 X2.6952 Y69.3592
G01 X2.7493 Y69.3192
G01 X2.8048 Y69.2858
G01 X2.8700 Y69.2550
G01 X2.9311 Y69.2332
G01 X2.9963 Y69.2169
G01 X3.0628 Y69.2070
G01 X3.1288 Y69.2037
G01 X8.1312 Y69.2037
G01 X8.1996 Y69.2073
G01 X8.2637 Y69.2169
G01 X8.3266 Y69.2325
G01 X8.3923 Y69.2558
G01 X8.4552 Y69.2858
G01 X8.5107 Y69.3192
G01 X8.5628 Y69.3577
G01 X8.6128 Y69.4027
G01 X8.6598 Y69.4542
G01 X8.6998 Y69.5083
G01 X8.7344 Y69.5659
G01 X8.7640 Y69.6290
G01 X8.7858 Y69.6901
G01 X8.8016 Y69.7529
G01 X8.8120 Y69.8218
G01 X8.8153 Y69.8890
G01 X8.8153 Y72.5741
G01 X9.4768 Y73.2356
G00 Z15.0000
G00 X10.0820 Y75.7756
G01 F450.00
G01 Z-0.1100
G01 F450.00
G01 X10.1616 Y75.7795
G01 X10.2381 Y75.7908
G01 X10.3178 Y75.8106
G01 X10.3929 Y75.8375
G01 X10.4628 Y75.8704
G01 X10.5353 Y75.9139
G01 X10.5974 Y75.9600
G01 X10.6547 Y76.0119
G01 X10.7115 Y76.0746
G01 X10.7575 Y76.1367
G01 X10.7985 Y76.2050
G01 X10.8325 Y76.2771
G01 X10.8586 Y76.3498
G01 X10.8792 Y76.4319
G01 X10.8905 Y76.5084
G01 X10.8944 Y76.5880
G01 X10.8905 Y76.6676
G01 X10.8792 Y76.7441
G01 X10.8594 Y76.8238
G01 X10.8325 Y76.8989
G01 X10.7996 Y76.9688
G01 X10.7575 Y77.0393
G01 X10.7100 Y77.1034
G01 X10.6581 Y77.1607
G01 X10.5974 Y77.2160
G01 X10.5313 Y77.2648
G01 X10.4650 Y77.3045
G01 X10.3951 Y77.3375
G01 X10.3178 Y77.3654
G01 X10.2381 Y77.3852
G01 X10.1616 Y77.3965
G01 X10.0832 Y77.4004
G01 X9.4768 Y77.4004
G01 X6.9946 Y79.8826
G01 X6.9448 Y79.9278
G01 X6.8927 Y79.9664
G01 X6.8331 Y80.0024
G01 X6.7723 Y80.0312
G01 X6.7089 Y80.0538
G01 X6.6437 Y80.0701
G01 X6.5747 Y80.0802
G01 X6.5100 Y80.0833
G01 X5.7030 Y80.0833
G01 X5.5892 Y80.1970
G01 X5.5854 Y80.2002
G01 X5.5770 Y80.2052
G01 X5.5678 Y80.2085
G01 X5.5630 Y80.2095
G01 X5.5556 Y80.2100
G01 X4.9244 Y80.2100
G01 X4.9170 Y80.2095
G01 X4.9075 Y80.2071
G01 X4.8987 Y80.2029
G01 X4.8946 Y80.2002
G01 X4.8890 Y80.1954
G01 X4.4426 Y79.7490
G01 X4.4378 Y79.7434
G01 X4.4328 Y79.7350
G01 X4.4295 Y79.7258
G01 X4.4281 Y79.7161
G01 X4.4280 Y79.0824
G01 X4.4285 Y79.0750
G01 X4.4309 Y79.0655
G01 X4.4328 Y79.0610
G01 X4.4351 Y79.0567
G01 X4.4410 Y79.0488
G01 X4.5547 Y78.9350
G01 X4.5547 Y77.3210
G01 X4.4410 Y77.2072
G01 X4.4378 Y77.2034
G01 X4.4328 Y77.1950
G01 X4.4309 Y77.1905
G01 X4.4285 Y77.1810
G01 X4.4280 Y77.1736
G01 X4.4280 Y76.5424
G01 X4.4285 Y76.5350
G01 X4.4309 Y76.5255
G01 X4.4351 Y76.5167
G01 X4.4410 Y76.5088
G01 X4.5547 Y76.3950
G01 X4.5547 Y74.7810
G01 X4.4410 Y74.6672
G01 X4.4378 Y74.6634
G01 X4.4328 Y74.6550
G01 X4.4309 Y74.6505
G01 X4.4285 Y74.6410
G01 X4.4280 Y74.6336
G01 X4.4280 Y74.0024
G01 X4.4285 Y73.9950
G01 X4.4309 Y73.9855
G01 X4.4351 Y73.9767
G01 X4.4410 Y73.9688
G01 X4.5547 Y73.8550
G01 X4.5547 Y72.2410
G01 X4.4410 Y72.1272
G01 X4.4378 Y72.1234
G01 X4.4328 Y72.1150
G01 X4.4309 Y72.1105
G01 X4.4285 Y72.1010
G01 X4.4280 Y72.0936
G01 X4.4280 Y71.4624
G01 X4.4285 Y71.4550
G01 X4.4309 Y71.4455
G01 X4.4351 Y71.4367
G01 X4.4378 Y71.4326
G01 X4.4426 Y71.4270
G01 X4.8890 Y70.9806
G01 X4.8946 Y70.9758
G01 X4.9030 Y70.9708
G01 X4.9122 Y70.9675
G01 X4.9170 Y70.9665
G01 X4.9244 Y70.9660
G01 X5.5556 Y70.9660
G01 X5.5630 Y70.9665
G01 X5.5725 Y70.9689
G01 X5.5813 Y70.9731
G01 X5.5854 Y70.9758
G01 X5.5910 Y70.9806
G01 X6.0374 Y71.4270
G01 X6.0422 Y71.4326
G01 X6.0449 Y71.4367
G01 X6.0491 Y71.4455
G01 X6.0505 Y71.4502
G01 X6.0515 Y71.4550
G01 X6.0520 Y71.4624
G01 X6.0520 Y72.0936
G01 X6.0515 Y72.1010
G01 X6.0491 Y72.1105
G01 X6.0472 Y72.1150
G01 X6.0449 Y72.1193
G01 X6.0390 Y72.1272
G01 X5.9253 Y72.2410
G01 X5.9253 Y73.8550
G01 X6.0390 Y73.9688
G01 X6.0422 Y73.9726
G01 X6.0472 Y73.9810
G01 X6.0491 Y73.9855
G01 X6.0515 Y73.9950
G01 X6.0520 Y74.0024
G01 X6.0520 Y74.6336
G01 X6.0515 Y74.6410
G01 X6.0491 Y74.6505
G01 X6.0449 Y74.6593
G01 X6.0390 Y74.6672
G01 X5.9253 Y74.7810
G01 X5.9253 Y76.3950
G01 X6.0390 Y76.5088
G01 X6.0422 Y76.5126
G01 X6.0472 Y76.5210
G01 X6.0491 Y76.5255
G01 X6.0515 Y76.5350
G01 X6.0520 Y76.5424
G01 X6.0520 Y77.1736
G01 X6.0515 Y77.1810
G01 X6.0491 Y77.1905
G01 X6.0449 Y77.1993
G01 X6.0390 Y77.2072
G01 X5.9253 Y77.3210
G01 X5.9253 Y78.7127
G01 X6.2261 Y78.7127
G01 X7.8897 Y77.0491
G01 X7.8812 Y77.0373
G01 X7.8415 Y76.9710
G01 X7.8075 Y76.8989
G01 X7.7806 Y76.8238
G01 X7.7612 Y76.7465
G01 X7.7495 Y76.6676
G01 X7.7456 Y76.5880
G01 X7.7495 Y76.5084
G01 X7.7612 Y76.4295
G01 X7.7806 Y76.3522
G01 X7.8075 Y76.2771
G01 X7.8415 Y76.2050
G01 X7.8825 Y76.1367
G01 X7.9300 Y76.0726
G01 X7.9836 Y76.0136
G01 X8.0426 Y75.9600
G01 X8.1047 Y75.9139
G01 X8.1750 Y75.8715
G01 X8.2494 Y75.8366
G01 X8.3222 Y75.8106
G01 X8.3971 Y75.7918
G01 X8.4808 Y75.7794
G01 X8.5580 Y75.7756
G01 X10.0820 Y75.7756
G00 Z15.0000
G00 X9.4768 Y90.2356
G01 F450.00
G01 Z-0.1100
G01 F450.00
G01 X10.0832 Y90.2356
G01 X10.1616 Y90.2395
G01 X10.2405 Y90.2512
G01 X10.3202 Y90.2714
G01 X10.3929 Y90.2975
G01 X10.4650 Y90.3315
G01 X10.5333 Y90.3725
G01 X10.5954 Y90.4185
G01 X10.6581 Y90.4753
G01 X10.7100 Y90.5326
G01 X10.7575 Y90.5967
G01 X10.7985 Y90.6650
G01 X10.8325 Y90.7371
G01 X10.8594 Y90.8122
G01 X10.8788 Y90.8895
G01 X10.8905 Y90.9684
G01 X10.8943 Y91.0455
G01 X10.8905 Y91.1276
G01 X10.8792 Y91.2041
G01 X10.8586 Y91.2862
G01 X10.8325 Y91.3589
G01 X10.7985 Y91.4310
G01 X10.7575 Y91.4993
G01 X10.7100 Y91.5634
G01 X10.6564 Y91.6224
G01 X10.5974 Y91.6760
G01 X10.5333 Y91.7235
G01 X10.4650 Y91.7645
G01 X10.3929 Y91.7985
G01 X10.3178 Y91.8254
G01 X10.2405 Y91.8448
G01 X10.1616 Y91.8565
G01 X10.0820 Y91.8604
G01 X8.5568 Y91.8604
G01 X8.4784 Y91.8565
G01 X8.3995 Y91.8448
G01 X8.3222 Y91.8254
G01 X8.2471 Y91.7985
G01 X8.1750 Y91.7645
G01 X8.1067 Y91.7235
G01 X8.0426 Y91.6760
G01 X7.9836 Y91.6224
G01 X7.9300 Y91.5634
G01 X7.8825 Y91.4993
G01 X7.8415 Y91.4310
G01 X7.8075 Y91.3589
G01 X7.7799 Y91.2815
G01 X7.7612 Y91.2065
G01 X7.7498 Y91.1301
G01 X7.7456 Y91.0480
G01 X7.7495 Y90.9684
G01 X7.7618 Y90.8871
G01 X7.7806 Y90.8122
G01 X7.8066 Y90.7394
G01 X7.8415 Y90.6650
G01 X7.8812 Y90.5987
G01 X7.8897 Y90.5869
G01 X7.6446 Y90.3417
G01 X7.6002 Y90.2928
G01 X7.5616 Y90.2407
G01 X7.5256 Y90.1811
G01 X7.4968 Y90.1203
G01 X7.4742 Y90.0569
G01 X7.4579 Y89.9917
G01 X7.4480 Y89.9252
G01 X7.4447 Y89.8580
G01 X7.4447 Y87.5743
G01 X3.4139 Y87.5743
G01 X3.3853 Y87.6029
G01 X3.3853 Y88.3150
G01 X3.4990 Y88.4288
G01 X3.5022 Y88.4326
G01 X3.5072 Y88.4410
G01 X3.5091 Y88.4455
G01 X3.5115 Y88.4550
G01 X3.5120 Y88.4624
G01 X3.5120 Y89.0936
G01 X3.5115 Y89.1010
G01 X3.5091 Y89.1105
G01 X3.5049 Y89.1193
G01 X3.4990 Y89.1272
G01 X3.3853 Y89.2410
G01 X3.3853 Y90.8550
G01 X3.4990 Y90.9688
G01 X3.5022 Y90.9726
G01 X3.5072 Y90.9810
G01 X3.5091 Y90.9855
G01 X3.5115 Y90.9950
G01 X3.5120 Y91.0024
G01 X3.5120 Y91.6336
G01 X3.5115 Y91.6410
G01 X3.5091 Y91.6505
G01 X3.5049 Y91.6593
G01 X3.4990 Y91.6672
G01 X3.3853 Y91.7810
G01 X3.3853 Y93.3950
G01 X3.4990 Y93.5088
G01 X3.5022 Y93.5126
G01 X3.5072 Y93.5210
G01 X3.5091 Y93.5255
G01 X3.5115 Y93.5350
G01 X3.5120 Y93.5424
G01 X3.5120 Y94.1736
G01 X3.5115 Y94.1810
G01 X3.5091 Y94.1905
G01 X3.5049 Y94.1993
G01 X3.4990 Y94.2072
G01 X3.3853 Y94.3210
G01 X3.3853 Y95.9350
G01 X3.4990 Y96.0488
G01 X3.5022 Y96.0526
G01 X3.5072 Y96.0610
G01 X3.5091 Y96.0655
G01 X3.5115 Y96.0750
G01 X3.5120 Y96.0824
G01 X3.5120 Y96.7136
G01 X3.5115 Y96.7210
G01 X3.5091 Y96.7305
G01 X3.5072 Y96.7350
G01 X3.5022 Y96.7434
G01 X3.4974 Y96.7490
G01 X3.0510 Y97.1954
G01 X3.0454 Y97.2002
G01 X3.0413 Y97.2029
G01 X3.0325 Y97.2071
G01 X3.0230 Y97.2095
G01 X3.0156 Y97.2100
G01 X2.3844 Y97.2100
G01 X2.3770 Y97.2095
G01 X2.3722 Y97.2085
G01 X2.3630 Y97.2052
G01 X2.3546 Y97.2002
G01 X2.3490 Y97.1954
G01 X1.9010 Y96.7472
G01 X1.8951 Y96.7393
G01 X1.8909 Y96.7305
G01 X1.8885 Y96.7210
G01 X1.8880 Y96.7136
G01 X1.8880 Y96.0824
G01 X1.8885 Y96.0750
G01 X1.8909 Y96.0655
G01 X1.8928 Y96.0610
G01 X1.8978 Y96.0526
G01 X1.9010 Y96.0488
G01 X2.0147 Y95.9350
G01 X2.0147 Y94.3210
G01 X1.9010 Y94.2072
G01 X1.8978 Y94.2034
G01 X1.8928 Y94.1950
G01 X1.8909 Y94.1905
G01 X1.8885 Y94.1810
G01 X1.8880 Y94.1736
G01 X1.8880 Y93.5424
G01 X1.8885 Y93.5350
G01 X1.8909 Y93.5255
G01 X1.8951 Y93.5167
G01 X1.9010 Y93.5088
G01 X2.0147 Y93.3950
G01 X2.0147 Y91.7810
G01 X1.9010 Y91.6672
G01 X1.8978 Y91.6634
G01 X1.8928 Y91.6550
G01 X1.8909 Y91.6505
G01 X1.8885 Y91.6410
G01 X1.8880 Y91.6336
G01 X1.8880 Y91.0024
G01 X1.8885 Y90.9950
G01 X1.8909 Y90.9855
G01 X1.8951 Y90.9767
G01 X1.9010 Y90.9688
G01 X2.0147 Y90.8550
G01 X2.0147 Y89.2410
G01 X1.9010 Y89.1272
G01 X1.8978 Y89.1234
G01 X1.8928 Y89.1150
G01 X1.8909 Y89.1105
G01 X1.8885 Y89.1010
G01 X1.8880 Y89.0936
G01 X1.8881 Y88.4599
G01 X1.8885 Y88.4550
G01 X1.8909 Y88.4455
G01 X1.8951 Y88.4367
G01 X1.9010 Y88.4288
G01 X2.0147 Y88.3150
G01 X2.0147 Y87.3165
G01 X2.0180 Y87.2518
G01 X2.0279 Y87.1853
G01 X2.0442 Y87.1201
G01 X2.0660 Y87.0590
G01 X2.0956 Y86.9959
G01 X2.1289 Y86.9403
G01 X2.1718 Y86.8824
G01 X2.2154 Y86.8344
G01 X2.6454 Y86.4044
G01 X2.6952 Y86.3592
G01 X2.7493 Y86.3192
G01 X2.8048 Y86.2858
G01 X2.8700 Y86.2550
G01 X2.9311 Y86.2332
G01 X2.9963 Y86.2169
G01 X3.0628 Y86.2070
G01 X3.1288 Y86.2037
G01 X8.1312 Y86.2037
G01 X8.1996 Y86.2073
G01 X8.2637 Y86.2169
G01 X8.3266 Y86.2325
G01 X8.3923 Y86.2558
G01 X8.4552 Y86.2858
G01 X8.5107 Y86.3192
G01 X8.5628 Y86.3577
G01 X8.6128 Y86.4027
G01 X8.6598 Y86.4542
G01 X8.6998 Y86.5083
G01 X8.7344 Y86.5659
G01 X8.7640 Y86.6290
G01 X8.7858 Y86.6901
G01 X8.8016 Y86.7529
G01 X8.8120 Y86.8218
G01 X8.8153 Y86.8890
G01 X8.8153 Y89.5741
G01 X9.4768 Y90.2356
G00 Z15.0000
G00 X10.0820 Y92.7756
G01 F450.00
G01 Z-0.1100
G01 F450.00
G01 X10.1616 Y92.7795
G01 X10.2381 Y92.7908
G01 X10.3178 Y92.8106
G01 X10.3929 Y92.8375
G01 X10.4628 Y92.8704
G01 X10.5353 Y92.9139
G01 X10.5974 Y92.9600
G01 X10.6547 Y93.0119
G01 X10.7115 Y93.0746
G01 X10.7575 Y93.1367
G01 X10.7985 Y93.2050
G01 X10.8325 Y93.2771
G01 X10.8586 Y93.3498
G01 X10.8792 Y93.4319
G01 X10.8905 Y93.5084
G01 X10.8944 Y93.5880
G01 X10.8905 Y93.6676
G01 X10.8792 Y93.7441
G01 X10.8594 Y93.8238
G01 X10.8325 Y93.8989
G01 X10.7996 Y93.9688
G01 X10.7575 Y94.0393
G01 X10.7100 Y94.1034
G01 X10.6581 Y94.1607
G01 X10.5974 Y94.2160
G01 X10.5313 Y94.2648
G01 X10.4650 Y94.3045
G01 X10.3951 Y94.3375
G01 X10.3178 Y94.3654
G01 X10.2381 Y94.3852
G01 X10.1616 Y94.3965
G01 X10.0832 Y94.4004
G01 X9.4768 Y94.4004
G01 X6.9946 Y96.8826
G01 X6.9448 Y96.9278
G01 X6.8927 Y96.9664
G01 X6.8331 Y97.0024
G01 X6.7723 Y97.0312
G01 X6.7089 Y97.0538
G01 X6.6437 Y97.0701
G01 X6.5747 Y97.0802
G01 X6.5100 Y97.0833
G01 X5.7030 Y97.0833
G01 X5.5892 Y97.1970
G01 X5.5854 Y97.2002
G01 X5.5770 Y97.2052
G01 X5.5678 Y97.2085
G01 X5.5630 Y97.2095
G01 X5.5556 Y97.2100
G01 X4.9244 Y97.2100
G01 X4.9170 Y97.2095
G01 X4.9075 Y97.2071
G01 X4.8987 Y97.2029
G01 X4.8946 Y97.2002
G01 X4.8890 Y97.1954
G01 X4.4426 Y96.7490
G01 X4.4378 Y96.7434
G01 X4.4328 Y96.7350
G01 X4.4295 Y96.7258
G01 X4.4281 Y96.7161
G01 X4.4280 Y96.0824
G01 X4.4285 Y96.0750
G01 X4.4309 Y96.0655
G01 X4.4328 Y96.0610
G01 X4.4351 Y96.0567
G01 X4.4410 Y96.0488
G01 X4.5547 Y95.9350
G01 X4.5547 Y94.3210
G01 X4.4410 Y94.2072
G01 X4.4378 Y94.2034
G01 X4.4328 Y94.1950
G01 X4.4309 Y94.1905
G01 X4.4285 Y94.1810
G01 X4.4280 Y94.1736
G01 X4.4280 Y93.5424
G01 X4.4285 Y93.5350
G01 X4.4309 Y93.5255
G01 X4.4351 Y93.5167
G01 X4.4410 Y93.5088
G01 X4.5547 Y93.3950
G01 X4.5547 Y91.7810
G01 X4.4410 Y91.6672
G01 X4.4378 Y91.6634
G01 X4.4328 Y91.6550
G01 X4.4309 Y91.6505
G01 X4.4285 Y91.6410
G01 X4.4280 Y91.6336
G01 X4.4280 Y91.0024
G01 X4.4285 Y90.9950
G01 X4.4309 Y90.9855
G01 X4.4351 Y90.9767
G01 X4.4410 Y90.9688
G01 X4.5547 Y90.8550
G01 X4.5547 Y89.2410
G01 X4.4410 Y89.1272
G01 X4.4378 Y89.1234
G01 X4.4328 Y89.1150
G01 X4.4309 Y89.1105
G01 X4.4285 Y89.1010
G01 X4.4280 Y89.0936
G01 X4.4280 Y88.4624
G01 X4.4285 Y88.4550
G01 X4.4309 Y88.4455
G01 X4.4351 Y88.4367
G01 X4.4378 Y88.4326
G01 X4.4426 Y88.4270
G01 X4.8890 Y87.9806
G01 X4.8946 Y87.9758
G01 X4.9030 Y87.9708
G01 X4.9122 Y87.9675
G01 X4.9170 Y87.9665
G01 X4.9244 Y87.9660
G01 X5.5556 Y87.9660
G01 X5.5630 Y87.9665
G01 X5.5725 Y87.9689
G01 X5.5813 Y87.9731
G01 X5.5854 Y87.9758
G01 X5.5910 Y87.9806
G01 X6.0374 Y88.4270
G01 X6.0422 Y88.4326
G01 X6.0449 Y88.4367
G01 X6.0491 Y88.4455
G01 X6.0505 Y88.4502
G01 X6.0515 Y88.4550
G01 X6.0520 Y88.4624
G01 X6.0520 Y89.0936
G01 X6.0515 Y89.1010
G01 X6.0491 Y89.1105
G01 X6.0472 Y89.1150
G01 X6.0449 Y89.1193
G01 X6.0390 Y89.1272
G01 X5.9253 Y89.2410
G01 X5.9253 Y90.8550
G01 X6.0390 Y90.9688
G01 X6.0422 Y90.9726
G01 X6.0472 Y90.9810
G01 X6.0491 Y90.9855
G01 X6.0515 Y90.9950
G01 X6.0520 Y91.0024
G01 X6.0520 Y91.6336
G01 X6.0515 Y91.6410
G01 X6.0491 Y91.6505
G01 X6.0449 Y91.6593
G01 X6.0390 Y91.6672
G01 X5.9253 Y91.7810
G01 X5.9253 Y93.3950
G01 X6.0390 Y93.5088
G01 X6.0422 Y93.5126
G01 X6.0472 Y93.5210
G01 X6.0491 Y93.5255
G01 X6.0515 Y93.5350
G01 X6.0520 Y93.5424
G01 X6.0520 Y94.1736
G01 X6.0515 Y94.1810
G01 X6.0491 Y94.1905
G01 X6.0449 Y94.1993
G01 X6.0390 Y94.2072
G01 X5.9253 Y94.3210
G01 X5.9253 Y95.7127
G01 X6.2261 Y95.7127
G01 X7.8897 Y94.0491
G01 X7.8812 Y94.0373
G01 X7.8415 Y93.9710
G01 X7.8075 Y93.8989
G01 X7.7806 Y93.8238
G01 X7.7612 Y93.7465
G01 X7.7495 Y93.6676
G01 X7.7456 Y93.5880
G01 X7.7495 Y93.5084
G01 X7.7612 Y93.4295
G01 X7.7806 Y93.3522
G01 X7.8075 Y93.2771
G01 X7.8415 Y93.2050
G01 X7.8825 Y93.1367
G01 X7.9300 Y93.0726
G01 X7.9836 Y93.0136
G01 X8.0426 Y92.9600
G01 X8.1047 Y92.9139
G01 X8.1750 Y92.8715
G01 X8.2494 Y92.8366
G01 X8.3222 Y92.8106
G01 X8.3971 Y92.7918
G01 X8.4808 Y92.7794
G01 X8.5580 Y92.7756
G01 X10.0820 Y92.7756
G00 Z15.0000
G00 X25.4768 Y90.2356
G01 F450.00
G01 Z-0.1100
G01 F450.00
G01 X26.0832 Y90.2356
G01 X26.1616 Y90.2395
G01 X26.2405 Y90.2512
G01 X26.3202 Y90.2714
G01 X26.3929 Y90.2975
G01 X26.4650 Y90.3315
G01 X26.5333 Y90.3725
G01 X26.5954 Y90.4185
G01 X26.6581 Y90.4753
G01 X26.7100 Y90.5326
G01 X26.7575 Y90.5967
G01 X26.7985 Y90.6650
G01 X26.8325 Y90.7371
G01 X26.8594 Y90.8122
G01 X26.8788 Y90.8895
G01 X26.8905 Y90.9684
G01 X26.8943 Y91.0455
G01 X26.8905 Y91.1276
G01 X26.8792 Y91.2041
G01 X26.8586 Y91.2862
G01 X26.8325 Y91.3589
G01 X26.7985 Y91.4310
G01 X26.7575 Y91.4993
G01 X26.7100 Y91.5634
G01 X26.6564 Y91.6224
G01 X26.5974 Y91.6760
G01 X26.5333 Y91.7235
G01 X26.4650 Y91.7645
G01 X26.3929 Y91.7985
G01 X26.3178 Y91.8254
G01 X26.2405 Y91.8448
G01 X26.1616 Y91.8565
G01 X26.0820 Y91.8604
G01 X24.5568 Y91.8604
G01 X24.4784 Y91.8565
G01 X24.3995 Y91.8448
G01 X24.3222 Y91.8254
G01 X24.2471 Y91.7985
G01 X24.1750 Y91.7645
G01 X24.1067 Y91.7235
G01 X24.0426 Y91.6760
G01 X23.9836 Y91.6224
G01 X23.9300 Y91.5634
G01 X23.8825 Y91.4993
G01 X23.8415 Y91.4310
G01 X23.8075 Y91.3589
G01 X23.7799 Y91.2815
G01 X23.7612 Y91.2065
G01 X23.7498 Y91.1301
G01 X23.7456 Y91.0480
G01 X23.7495 Y90.9684
G01 X23.7618 Y90.8871
G01 X23.7806 Y90.8122
G01 X23.8066 Y90.7394
G01 X23.8415 Y90.6650
G01 X23.8812 Y90.5987
G01 X23.8897 Y90.5869
G01 X23.6446 Y90.3417
G01 X23.6002 Y90.2928
G01 X23.5616 Y90.2407
G01 X23.5256 Y90.1811
G01 X23.4968 Y90.1203
G01 X23.4742 Y90.0569
G01 X23.4579 Y89.9917
G01 X23.4480 Y89.9252
G01 X23.4447 Y89.8580
G01 X23.4447 Y87.5743
G01 X19.4139 Y87.5743
G01 X19.3853 Y87.6029
G01 X19.3853 Y88.3150
G01 X19.4990 Y88.4288
G01 X19.5022 Y88.4326
G01 X19.5072 Y88.4410
G01 X19.5105 Y88.4502
G01 X19.5115 Y88.4550
G01 X19.5120 Y88.4624
G01 X19.5120 Y89.0936
G01 X19.5115 Y89.1010
G01 X19.5091 Y89.1105
G01 X19.5049 Y89.1193
G01 X19.4990 Y89.1272
G01 X19.3853 Y89.2410
G01 X19.3853 Y90.8550
G01 X19.4990 Y90.9688
G01 X19.5022 Y90.9726
G01 X19.5072 Y90.9810
G01 X19.5105 Y90.9902
G01 X19.5115 Y90.9950
G01 X19.5120 Y91.0024
G01 X19.5120 Y91.6336
G01 X19.5115 Y91.6410
G01 X19.5091 Y91.6505
G01 X19.5049 Y91.6593
G01 X19.4990 Y91.6672
G01 X19.3853 Y91.7810
G01 X19.3853 Y93.3950
G01 X19.4990 Y93.5088
G01 X19.5022 Y93.5126
G01 X19.5072 Y93.5210
G01 X19.5105 Y93.5302
G01 X19.5115 Y93.5350
G01 X19.5120 Y93.5424
G01 X19.5120 Y94.1736
G01 X19.5115 Y94.1810
G01 X19.5091 Y94.1905
G01 X19.5049 Y94.1993
G01 X19.4990 Y94.2072
G01 X19.3853 Y94.3210
G01 X19.3853 Y95.9350
G01 X19.4990 Y96.0488
G01 X19.5022 Y96.0526
G01 X19.5072 Y96.0610
G01 X19.5105 Y96.0702
G01 X19.5115 Y96.0750
G01 X19.5120 Y96.0824
G01 X19.5120 Y96.7136
G01 X19.5115 Y96.7210
G01 X19.5105 Y96.7258
G01 X19.5072 Y96.7350
G01 X19.5022 Y96.7434
G01 X19.4974 Y96.7490
G01 X19.0510 Y97.1954
G01 X19.0454 Y97.2002
G01 X19.0413 Y97.2029
G01 X19.0325 Y97.2071
G01 X19.0230 Y97.2095
G01 X19.0156 Y97.2100
G01 X18.3844 Y97.2100
G01 X18.3770 Y97.2095
G01 X18.3722 Y97.2085
G01 X18.3630 Y97.2052
G01 X18.3546 Y97.2002
G01 X18.3490 Y97.1954
G01 X17.9010 Y96.7472
G01 X17.8951 Y96.7393
G01 X17.8909 Y96.7305
G01 X17.8885 Y96.7210
G01 X17.8880 Y96.7136
G01 X17.8880 Y96.0824
G01 X17.8885 Y96.0750
G01 X17.8895 Y96.0702
G01 X17.8928 Y96.0610
G01 X17.8978 Y96.0526
G01 X17.9010 Y96.0488
G01 X18.0147 Y95.9350
G01 X18.0147 Y94.3210
G01 X17.9010 Y94.2072
G01 X17.8978 Y94.2034
G01 X17.8928 Y94.1950
G01 X17.8895 Y94.1858
G01 X17.8885 Y94.1810
G01 X17.8880 Y94.1736
G01 X17.8880 Y93.5424
G01 X17.8885 Y93.5350
G01 X17.8909 Y93.5255
G01 X17.8951 Y93.5167
G01 X17.9010 Y93.5088
G01 X18.0147 Y93.3950
G01 X18.0147 Y91.7810
G01 X17.9010 Y91.6672
G01 X17.8978 Y91.6634
G01 X17.8928 Y91.6550
G01 X17.8895 Y91.6458
G01 X17.8885 Y91.6410
G01 X17.8880 Y91.6336
G01 X17.8880 Y91.0024
G01 X17.8885 Y90.9950
G01 X17.8909 Y90.9855
G01 X17.8951 Y90.9767
G01 X17.9010 Y90.9688
G01 X18.0147 Y90.8550
G01 X18.0147 Y89.2410
G01 X17.9010 Y89.1272
G01 X17.8978 Y89.1234
G01 X17.8928 Y89.1150
G01 X17.8895 Y89.1058
G01 X17.8885 Y89.1010
G01 X17.8880 Y89.0936
G01 X17.8881 Y88.4599
G01 X17.8885 Y88.4550
G01 X17.8909 Y88.4455
G01 X17.8951 Y88.4367
G01 X17.9010 Y88.4288
G01 X18.0147 Y88.3150
G01 X18.0147 Y87.3165
G01 X18.0180 Y87.2518
G01 X18.0279 Y87.1853
G01 X18.0442 Y87.1201
G01 X18.0660 Y87.0590
G01 X18.0956 Y86.9959
G01 X18.1289 Y86.9403
G01 X18.1718 Y86.8824
G01 X18.2154 Y86.8344
G01 X18.6454 Y86.4044
G01 X18.6952 Y86.3592
G01 X18.7493 Y86.3192
G01 X18.8048 Y86.2858
G01 X18.8700 Y86.2550
G01 X18.9311 Y86.2332
G01 X18.9963 Y86.2169
G01 X19.0628 Y86.2070
G01 X19.1288 Y86.2037
G01 X24.1312 Y86.2037
G01 X24.1996 Y86.2073
G01 X24.2637 Y86.2169
G01 X24.3266 Y86.2325
G01 X24.3923 Y86.2558
G01 X24.4552 Y86.2858
G01 X24.5107 Y86.3192
G01 X24.5628 Y86.3577
G01 X24.6128 Y86.4027
G01 X24.6598 Y86.4542
G01 X24.6998 Y86.5083
G01 X24.7344 Y86.5659
G01 X24.7640 Y86.6290
G01 X24.7858 Y86.6901
G01 X24.8016 Y86.7529
G01 X24.8120 Y86.8218
G01 X24.8153 Y86.8890
G01 X24.8153 Y89.5741
G01 X25.4768 Y90.2356
G00 Z15.0000
G00 X26.0820 Y92.7756
G01 F450.00
G01 Z-0.1100
G01 F450.00
G01 X26.1616 Y92.7795
G01 X26.2381 Y92.7908
G01 X26.3178 Y92.8106
G01 X26.3929 Y92.8375
G01 X26.4628 Y92.8704
G01 X26.5353 Y92.9139
G01 X26.5974 Y92.9600
G01 X26.6547 Y93.0119
G01 X26.7115 Y93.0746
G01 X26.7575 Y93.1367
G01 X26.7985 Y93.2050
G01 X26.8325 Y93.2771
G01 X26.8586 Y93.3498
G01 X26.8792 Y93.4319
G01 X26.8905 Y93.5084
G01 X26.8944 Y93.5880
G01 X26.8905 Y93.6676
G01 X26.8792 Y93.7441
G01 X26.8594 Y93.8238
G01 X26.8325 Y93.8989
G01 X26.7996 Y93.9688
G01 X26.7575 Y94.0393
G01 X26.7100 Y94.1034
G01 X26.6581 Y94.1607
G01 X26.5974 Y94.2160
G01 X26.5313 Y94.2648
G01 X26.4650 Y94.3045
G01 X26.3951 Y94.3375
G01 X26.3178 Y94.3654
G01 X26.2381 Y94.3852
G01 X26.1616 Y94.3965
G01 X26.0832 Y94.4004
G01 X25.4768 Y94.4004
G01 X22.9946 Y96.8826
G01 X22.9448 Y96.9278
G01 X22.8927 Y96.9664
G01 X22.8331 Y97.0024
G01 X22.7723 Y97.0312
G01 X22.7089 Y97.0538
G01 X22.6437 Y97.0701
G01 X22.5747 Y97.0802
G01 X22.5100 Y97.0833
G01 X21.7030 Y97.0833
G01 X21.5892 Y97.1970
G01 X21.5854 Y97.2002
G01 X21.5770 Y97.2052
G01 X21.5678 Y97.2085
G01 X21.5630 Y97.2095
G01 X21.5556 Y97.2100
G01 X20.9244 Y97.2100
G01 X20.9170 Y97.2095
G01 X20.9075 Y97.2071
G01 X20.8987 Y97.2029
G01 X20.8946 Y97.2002
G01 X20.8890 Y97.1954
G01 X20.4426 Y96.7490
G01 X20.4378 Y96.7434
G01 X20.4328 Y96.7350
G01 X20.4295 Y96.7258
G01 X20.4281 Y96.7161
G01 X20.4280 Y96.0824
G01 X20.4285 Y96.0750
G01 X20.4295 Y96.0702
G01 X20.4328 Y96.0610
G01 X20.4378 Y96.0526
G01 X20.4410 Y96.0488
G01 X20.5547 Y95.9350
G01 X20.5547 Y94.3210
G01 X20.4410 Y94.2072
G01 X20.4378 Y94.2034
G01 X20.4328 Y94.1950
G01 X20.4295 Y94.1858
G01 X20.4285 Y94.1810
G01 X20.4280 Y94.1736
G01 X20.4280 Y93.5424
G01 X20.4285 Y93.5350
G01 X20.4309 Y93.5255
G01 X20.4351 Y93.5167
G01 X20.4410 Y93.5088
G01 X20.5547 Y93.3950
G01 X20.5547 Y91.7810
G01 X20.4410 Y91.6672
G01 X20.4378 Y91.6634
G01 X20.4328 Y91.6550
G01 X20.4295 Y91.6458
G01 X20.4285 Y91.6410
G01 X20.4280 Y91.6336
G01 X20.4280 Y91.0024
G01 X20.4285 Y90.9950
G01 X20.4309 Y90.9855
G01 X20.4351 Y90.9767
G01 X20.4410 Y90.9688
G01 X20.5547 Y90.8550
G01 X20.5547 Y89.2410
G01 X20.4410 Y89.1272
G01 X20.4378 Y89.1234
G01 X20.4328 Y89.1150
G01 X20.4295 Y89.1058
G01 X20.4285 Y89.1010
G01 X20.4280 Y89.0936
G01 X20.4280 Y88.4624
G01 X20.4285 Y88.4550
G01 X20.4309 Y88.4455
G01 X20.4351 Y88.4367
G01 X20.4378 Y88.4326
G01 X20.4426 Y88.4270
G01 X20.8890 Y87.9806
G01 X20.8946 Y87.9758
G01 X20.9030 Y87.9708
G01 X20.9122 Y87.9675
G01 X20.9170 Y87.9665
G01 X20.9244 Y87.9660
G01 X21.5556 Y87.9660
G01 X21.5630 Y87.9665
G01 X21.5725 Y87.9689
G01 X21.5813 Y87.9731
G01 X21.5854 Y87.9758
G01 X21.5910 Y87.9806
G01 X22.0374 Y88.4270
G01 X22.0422 Y88.4326
G01 X22.0449 Y88.4367
G01 X22.0491 Y88.4455
G01 X22.0505 Y88.4502
G01 X22.0515 Y88.4550
G01 X22.0520 Y88.4624
G01 X22.0520 Y89.0936
G01 X22.0515 Y89.1010
G01 X22.0505 Y89.1058
G01 X22.0472 Y89.1150
G01 X22.0422 Y89.1234
G01 X22.0390 Y89.1272
G01 X21.9253 Y89.2410
G01 X21.9253 Y90.8550
G01 X22.0390 Y90.9688
G01 X22.0422 Y90.9726
G01 X22.0472 Y90.9810
G01 X22.0505 Y90.9902
G01 X22.0515 Y90.9950
G01 X22.0520 Y91.0024
G01 X22.0520 Y91.6336
G01 X22.0515 Y91.6410
G01 X22.0491 Y91.6505
G01 X22.0449 Y91.6593
G01 X22.0390 Y91.6672
G01 X21.9253 Y91.7810
G01 X21.9253 Y93.3950
G01 X22.0390 Y93.5088
G01 X22.0422 Y93.5126
G01 X22.0472 Y93.5210
G01 X22.0505 Y93.5302
G01 X22.0515 Y93.5350
G01 X22.0520 Y93.5424
G01 X22.0520 Y94.1736
G01 X22.0515 Y94.1810
G01 X22.0491 Y94.1905
G01 X22.0449 Y94.1993
G01 X22.0390 Y94.2072
G01 X21.9253 Y94.3210
G01 X21.9253 Y95.7127
G01 X22.2261 Y95.7127
G01 X23.8897 Y94.0491
G01 X23.8812 Y94.0373
G01 X23.8415 Y93.9710
G01 X23.8075 Y93.8989
G01 X23.7806 Y93.8238
G01 X23.7612 Y93.7465
G01 X23.7495 Y93.6676
G01 X23.7456 Y93.5880
G01 X23.7495 Y93.5084
G01 X23.7612 Y93.4295
G01 X23.7806 Y93.3522
G01 X23.8075 Y93.2771
G01 X23.8415 Y93.2050
G01 X23.8825 Y93.1367
G01 X23.9300 Y93.0726
G01 X23.9836 Y93.0136
G01 X24.0426 Y92.9600
G01 X24.1047 Y92.9139
G01 X24.1750 Y92.8715
G01 X24.2494 Y92.8366
G01 X24.3222 Y92.8106
G01 X24.3971 Y92.7918
G01 X24.4808 Y92.7794
G01 X24.5580 Y92.7756
G01 X26.0820 Y92.7756
G00 Z15.0000
G00 X41.4768 Y90.2356
G01 F450.00
G01 Z-0.1100
G01 F450.00
G01 X42.0832 Y90.2356
G01 X42.1616 Y90.2395
G01 X42.2405 Y90.2512
G01 X42.3202 Y90.2714
G01 X42.3929 Y90.2975
G01 X42.4650 Y90.3315
G01 X42.5333 Y90.3725
G01 X42.5954 Y90.4185
G01 X42.6581 Y90.4753
G01 X42.7100 Y90.5326
G01 X42.7575 Y90.5967
G01 X42.7985 Y90.6650
G01 X42.8325 Y90.7371
G01 X42.8594 Y90.8122
G01 X42.8788 Y90.8895
G01 X42.8905 Y90.9684
G01 X42.8943 Y91.0455
G01 X42.8905 Y91.1276
G01 X42.8792 Y91.2041
G01 X42.8586 Y91.2862
G01 X42.8325 Y91.3589
G01 X42.7985 Y91.4310
G01 X42.7575 Y91.4993
G01 X42.7100 Y91.5634
G01 X42.6564 Y91.6224
G01 X42.5974 Y91.6760
G01 X42.5333 Y91.7235
G01 X42.4650 Y91.7645
G01 X42.3929 Y91.7985
G01 X42.3178 Y91.8254
G01 X42.2405 Y91.8448
G01 X42.1616 Y91.8565
G01 X42.0820 Y91.8604
G01 X40.5568 Y91.8604
G01 X40.4784 Y91.8565
G01 X40.3995 Y91.8448
G01 X40.3222 Y91.8254
G01 X40.2471 Y91.7985
G01 X40.1750 Y91.7645
G01 X40.1067 Y91.7235
G01 X40.0426 Y91.6760
G01 X39.9836 Y91.6224
G01 X39.9300 Y91.5634
G01 X39.8825 Y91.4993
G01 X39.8415 Y91.4310
G01 X39.8075 Y91.3589
G01 X39.7799 Y91.2815
G01 X39.7612 Y91.2065
G01 X39.7498 Y91.1301
G01 X39.7456 Y91.0480
G01 X39.7495 Y90.9684
G01 X39.7618 Y90.8871
G01 X39.7806 Y90.8122
G01 X39.8066 Y90.7394
G01 X39.8415 Y90.6650
G01 X39.8812 Y90.5987
G01 X39.8897 Y90.5869
G01 X39.6446 Y90.3417
G01 X39.6002 Y90.2928
G01 X39.5616 Y90.2407
G01 X39.5256 Y90.1811
G01 X39.4968 Y90.1203
G01 X39.4742 Y90.0569
G01 X39.4579 Y89.9917
G01 X39.4480 Y89.9252
G01 X39.4447 Y89.8580
G01 X39.4447 Y87.5743
G01 X35.4139 Y87.5743
G01 X35.3853 Y87.6029
G01 X35.3853 Y88.3150
G01 X35.4990 Y88.4288
G01 X35.5022 Y88.4326
G01 X35.5072 Y88.4410
G01 X35.5091 Y88.4455
G01 X35.5115 Y88.4550
G01 X35.5120 Y88.4624
G01 X35.5120 Y89.0936
G01 X35.5115 Y89.1010
G01 X35.5091 Y89.1105
G01 X35.5049 Y89.1193
G01 X35.4990 Y89.1272
G01 X35.3853 Y89.2410
G01 X35.3853 Y90.8550
G01 X35.4990 Y90.9688
G01 X35.5022 Y90.9726
G01 X35.5072 Y90.9810
G01 X35.5091 Y90.9855
G01 X35.5115 Y90.9950
G01 X35.5120 Y91.0024
G01 X35.5120 Y91.6336
G01 X35.5115 Y91.6410
G01 X35.5091 Y91.6505
G01 X35.5049 Y91.6593
G01 X35.4990 Y91.6672
G01 X35.3853 Y91.7810
G01 X35.3853 Y93.3950
G01 X35.4990 Y93.5088
G01 X35.5022 Y93.5126
G01 X35.5072 Y93.5210
G01 X35.5091 Y93.5255
G01 X35.5115 Y93.5350
G01 X35.5120 Y93.5424
G01 X35.5120 Y94.1736
G01 X35.5115 Y94.1810
G01 X35.5091 Y94.1905
G01 X35.5049 Y94.1993
G01 X35.4990 Y94.2072
G01 X35.3853 Y94.3210
G01 X35.3853 Y95.9350
G01 X35.4990 Y96.0488
G01 X35.5022 Y96.0526
G01 X35.5072 Y96.0610
G01 X35.5091 Y96.0655
G01 X35.5115 Y96.0750
G01 X35.5120 Y96.0824
G01 X35.5120 Y96.7136
G01 X35.5115 Y96.7210
G01 X35.5091 Y96.7305
G01 X35.5072 Y96.7350
G01 X35.5022 Y96.7434
G01 X35.4974 Y96.7490
G01 X35.0510 Y97.1954
G01 X35.0454 Y97.2002
G01 X35.0413 Y97.2029
G01 X35.0325 Y97.2071
G01 X35.0230 Y97.2095
G01 X35.0156 Y97.2100
G01 X34.3844 Y97.2100
G01 X34.3770 Y97.2095
G01 X34.3722 Y97.2085
G01 X34.3630 Y97.2052
G01 X34.3546 Y97.2002
G01 X34.3490 Y97.1954
G01 X33.9010 Y96.7472
G01 X33.8951 Y96.7393
G01 X33.8909 Y96.7305
G01 X33.8885 Y96.7210
G01 X33.8880 Y96.7136
G01 X33.8880 Y96.0824
G01 X33.8885 Y96.0750
G01 X33.8909 Y96.0655
G01 X33.8928 Y96.0610
G01 X33.8978 Y96.0526
G01 X33.9010 Y96.0488
G01 X34.0147 Y95.9350
G01 X34.0147 Y94.3210
G01 X33.9010 Y94.2072
G01 X33.8978 Y94.2034
G01 X33.8928 Y94.1950
G01 X33.8909 Y94.1905
G01 X33.8885 Y94.1810
G01 X33.8880 Y94.1736
G01 X33.8880 Y93.5424
G01 X33.8885 Y93.5350
G01 X33.8909 Y93.5255
G01 X33.8951 Y93.5167
G01 X33.9010 Y93.5088
G01 X34.0147 Y93.3950
G01 X34.0147 Y91.7810
G01 X33.9010 Y91.6672
G01 X33.8978 Y91.6634
G01 X33.8928 Y91.6550
G01 X33.8909 Y91.6505
G01 X33.8885 Y91.6410
G01 X33.8880 Y91.6336
G01 X33.8880 Y91.0024
G01 X33.8885 Y90.9950
G01 X33.8909 Y90.9855
G01 X33.8951 Y90.9767
G01 X33.9010 Y90.9688
G01 X34.0147 Y90.8550
G01 X34.0147 Y89.2410
G01 X33.9010 Y89.1272
G01 X33.8978 Y89.1234
G01 X33.8928 Y89.1150
G01 X33.8909 Y89.1105
G01 X33.8885 Y89.1010
G01 X33.8880 Y89.0936
G01 X33.8881 Y88.4599
G01 X33.8885 Y88.4550
G01 X33.8909 Y88.4455
G01 X33.8951 Y88.4367
G01 X33.9010 Y88.4288
G01 X34.0147 Y88.3150
G01 X34.0147 Y87.3165
G01 X34.0180 Y87.2518
G01 X34.0279 Y87.1853
G01 X34.0442 Y87.1201
G01 X34.0660 Y87.0590
G01 X34.0968 Y86.9938
G01 X34.1302 Y86.9383
G01 X34.1718 Y86.8824
G01 X34.2154 Y86.8344
G01 X34.6454 Y86.4044
G01 X34.6952 Y86.3592
G01 X34.7493 Y86.3192
G01 X34.8048 Y86.2858
G01 X34.8700 Y86.2550
G01 X34.9311 Y86.2332
G01 X34.9963 Y86.2169
G01 X35.0628 Y86.2070
G01 X35.1288 Y86.2037
G01 X40.1312 Y86.2037
G01 X40.1996 Y86.2073
G01 X40.2637 Y86.2169
G01 X40.3266 Y86.2325
G01 X40.3923 Y86.2558
G01 X40.4552 Y86.2858
G01 X40.5127 Y86.3206
G01 X40.5648 Y86.3592
G01 X40.6128 Y86.4027
G01 X40.6598 Y86.4542
G01 X40.6998 Y86.5083
G01 X40.7344 Y86.5659
G01 X40.7640 Y86.6290
G01 X40.7858 Y86.6901
G01 X40.8016 Y86.7529
G01 X40.8120 Y86.8218
G01 X40.8153 Y86.8890
G01 X40.8153 Y89.5741
G01 X41.4768 Y90.2356
G00 Z15.0000
G00 X42.0820 Y92.7756
G01 F450.00
G01 Z-0.1100
G01 F450.00
G01 X42.1616 Y92.7795
G01 X42.2381 Y92.7908
G01 X42.3178 Y92.8106
G01 X42.3929 Y92.8375
G01 X42.4628 Y92.8704
G01 X42.5333 Y92.9125
G01 X42.5974 Y92.9600
G01 X42.6547 Y93.0119
G01 X42.7100 Y93.0726
G01 X42.7575 Y93.1367
G01 X42.7972 Y93.2029
G01 X42.8334 Y93.2794
G01 X42.8594 Y93.3522
G01 X42.8788 Y93.4295
G01 X42.8905 Y93.5084
G01 X42.8943 Y93.5855
G01 X42.8902 Y93.6701
G01 X42.8788 Y93.7465
G01 X42.8601 Y93.8215
G01 X42.8315 Y93.9011
G01 X42.7985 Y93.9710
G01 X42.7575 Y94.0393
G01 X42.7084 Y94.1052
G01 X42.6564 Y94.1624
G01 X42.5974 Y94.2160
G01 X42.5313 Y94.2648
G01 X42.4650 Y94.3045
G01 X42.3951 Y94.3375
G01 X42.3178 Y94.3654
G01 X42.2381 Y94.3852
G01 X42.1616 Y94.3965
G01 X42.0832 Y94.4004
G01 X41.4768 Y94.4004
G01 X38.9946 Y96.8826
G01 X38.9448 Y96.9278
G01 X38.8927 Y96.9664
G01 X38.8331 Y97.0024
G01 X38.7723 Y97.0312
G01 X38.7089 Y97.0538
G01 X38.6437 Y97.0701
G01 X38.5747 Y97.0802
G01 X38.5100 Y97.0833
G01 X37.7030 Y97.0833
G01 X37.5892 Y97.1970
G01 X37.5854 Y97.2002
G01 X37.5770 Y97.2052
G01 X37.5678 Y97.2085
G01 X37.5630 Y97.2095
G01 X37.5556 Y97.2100
G01 X36.9244 Y97.2100
G01 X36.9170 Y97.2095
G01 X36.9075 Y97.2071
G01 X36.9030 Y97.2052
G01 X36.8946 Y97.2002
G01 X36.8890 Y97.1954
G01 X36.4426 Y96.7490
G01 X36.4378 Y96.7434
G01 X36.4328 Y96.7350
G01 X36.4295 Y96.7258
G01 X36.4281 Y96.7161
G01 X36.4280 Y96.0824
G01 X36.4285 Y96.0750
G01 X36.4309 Y96.0655
G01 X36.4328 Y96.0610
G01 X36.4378 Y96.0526
G01 X36.4410 Y96.0488
G01 X36.5547 Y95.9350
G01 X36.5547 Y94.3210
G01 X36.4410 Y94.2072
G01 X36.4378 Y94.2034
G01 X36.4328 Y94.1950
G01 X36.4309 Y94.1905
G01 X36.4285 Y94.1810
G01 X36.4280 Y94.1736
G01 X36.4280 Y93.5424
G01 X36.4285 Y93.5350
G01 X36.4309 Y93.5255
G01 X36.4351 Y93.5167
G01 X36.4410 Y93.5088
G01 X36.5547 Y93.3950
G01 X36.5547 Y91.7810
G01 X36.4410 Y91.6672
G01 X36.4378 Y91.6634
G01 X36.4328 Y91.6550
G01 X36.4309 Y91.6505
G01 X36.4285 Y91.6410
G01 X36.4280 Y91.6336
G01 X36.4280 Y91.0024
G01 X36.4285 Y90.9950
G01 X36.4309 Y90.9855
G01 X36.4351 Y90.9767
G01 X36.4410 Y90.9688
G01 X36.5547 Y90.8550
G01 X36.5547 Y89.2410
G01 X36.4410 Y89.1272
G01 X36.4378 Y89.1234
G01 X36.4328 Y89.1150
G01 X36.4309 Y89.1105
G01 X36.4285 Y89.1010
G01 X36.4280 Y89.0936
G01 X36.4280 Y88.4624
G01 X36.4285 Y88.4550
G01 X36.4309 Y88.4455
G01 X36.4328 Y88.4410
G01 X36.4378 Y88.4326
G01 X36.4426 Y88.4270
G01 X36.8890 Y87.9806
G01 X36.8946 Y87.9758
G01 X36.9030 Y87.9708
G01 X36.9122 Y87.9675
G01 X36.9170 Y87.9665
G01 X36.9244 Y87.9660
G01 X37.5556 Y87.9660
G01 X37.5630 Y87.9665
G01 X37.5725 Y87.9689
G01 X37.5813 Y87.9731
G01 X37.5854 Y87.9758
G01 X37.5910 Y87.9806
G01 X38.0374 Y88.4270
G01 X38.0422 Y88.4326
G01 X38.0449 Y88.4367
G01 X38.0472 Y88.4410
G01 X38.0505 Y88.4502
G01 X38.0515 Y88.4550
G01 X38.0520 Y88.4624
G01 X38.0520 Y89.0936
G01 X38.0515 Y89.1010
G01 X38.0491 Y89.1105
G01 X38.0472 Y89.1150
G01 X38.0422 Y89.1234
G01 X38.0390 Y89.1272
G01 X37.9253 Y89.2410
G01 X37.9253 Y90.8550
G01 X38.0390 Y90.9688
G01 X38.0422 Y90.9726
G01 X38.0472 Y90.9810
G01 X38.0491 Y90.9855
G01 X38.0515 Y90.9950
G01 X38.0520 Y91.0024
G01 X38.0520 Y91.6336
G01 X38.0515 Y91.6410
G01 X38.0491 Y91.6505
G01 X38.0449 Y91.6593
G01 X38.0390 Y91.6672
G01 X37.9253 Y91.7810
G01 X37.9253 Y93.3950
G01 X38.0390 Y93.5088
G01 X38.0422 Y93.5126
G01 X38.0472 Y93.5210
G01 X38.0491 Y93.5255
G01 X38.0515 Y93.5350
G01 X38.0520 Y93.5424
G01 X38.0520 Y94.1736
G01 X38.0515 Y94.1810
G01 X38.0491 Y94.1905
G01 X38.0449 Y94.1993
G01 X38.0390 Y94.2072
G01 X37.9253 Y94.3210
G01 X37.9253 Y95.7127
G01 X38.2261 Y95.7127
G01 X39.8897 Y94.0491
G01 X39.8812 Y94.0373
G01 X39.8415 Y93.9710
G01 X39.8075 Y93.8989
G01 X39.7806 Y93.8238
G01 X39.7612 Y93.7465
G01 X39.7495 Y93.6676
G01 X39.7456 Y93.5880
G01 X39.7495 Y93.5084
G01 X39.7612 Y93.4295
G01 X39.7806 Y93.3522
G01 X39.8075 Y93.2771
G01 X39.8415 Y93.2050
G01 X39.8825 Y93.1367
G01 X39.9300 Y93.0726
G01 X39.9836 Y93.0136
G01 X40.0426 Y92.9600
G01 X40.1047 Y92.9139
G01 X40.1750 Y92.8715
G01 X40.2494 Y92.8366
G01 X40.3222 Y92.8106
G01 X40.3971 Y92.7918
G01 X40.4808 Y92.7794
G01 X40.5580 Y92.7756
G01 X42.0820 Y92.7756
G00 Z15.0000
G00 X57.4768 Y90.2356
G01 F450.00
G01 Z-0.1100
G01 F450.00
G01 X58.0832 Y90.2356
G01 X58.1616 Y90.2395
G01 X58.2405 Y90.2512
G01 X58.3202 Y90.2714
G01 X58.3929 Y90.2975
G01 X58.4650 Y90.3315
G01 X58.5333 Y90.3725
G01 X58.5954 Y90.4185
G01 X58.6581 Y90.4753
G01 X58.7100 Y90.5326
G01 X58.7575 Y90.5967
G01 X58.7985 Y90.6650
G01 X58.8325 Y90.7371
G01 X58.8594 Y90.8122
G01 X58.8788 Y90.8895
G01 X58.8905 Y90.9684
G01 X58.8943 Y91.0455
G01 X58.8905 Y91.1276
G01 X58.8792 Y91.2041
G01 X58.8586 Y91.2862
G01 X58.8325 Y91.3589
G01 X58.7985 Y91.4310
G01 X58.7575 Y91.4993
G01 X58.7100 Y91.5634
G01 X58.6564 Y91.6224
G01 X58.5974 Y91.6760
G01 X58.5333 Y91.7235
G01 X58.4650 Y91.7645
G01 X58.3929 Y91.7985
G01 X58.3178 Y91.8254
G01 X58.2405 Y91.8448
G01 X58.1616 Y91.8565
G01 X58.0820 Y91.8604
G01 X56.5568 Y91.8604
G01 X56.4784 Y91.8565
G01 X56.3995 Y91.8448
G01 X56.3222 Y91.8254
G01 X56.2471 Y91.7985
G01 X56.1750 Y91.7645
G01 X56.1067 Y91.7235
G01 X56.0426 Y91.6760
G01 X55.9836 Y91.6224
G01 X55.9300 Y91.5634
G01 X55.8825 Y91.4993
G01 X55.8415 Y91.4310
G01 X55.8075 Y91.3589
G01 X55.7799 Y91.2815
G01 X55.7612 Y91.2065
G01 X55.7498 Y91.1301
G01 X55.7456 Y91.0480
G01 X55.7495 Y90.9684
G01 X55.7618 Y90.8871
G01 X55.7806 Y90.8122
G01 X55.8066 Y90.7394
G01 X55.8415 Y90.6650
G01 X55.8812 Y90.5987
G01 X55.8897 Y90.5869
G01 X55.6446 Y90.3417
G01 X55.6002 Y90.2928
G01 X55.5616 Y90.2407
G01 X55.5256 Y90.1811
G01 X55.4968 Y90.1203
G01 X55.4742 Y90.0569
G01 X55.4579 Y89.9917
G01 X55.4480 Y89.9252
G01 X55.4447 Y89.8580
G01 X55.4447 Y87.5743
G01 X51.4139 Y87.5743
G01 X51.3853 Y87.6029
G01 X51.3853 Y88.3150
G01 X51.4990 Y88.4288
G01 X51.5022 Y88.4326
G01 X51.5072 Y88.4410
G01 X51.5091 Y88.4455
G01 X51.5115 Y88.4550
G01 X51.5120 Y88.4624
G01 X51.5120 Y89.0936
G01 X51.5115 Y89.1010
G01 X51.5091 Y89.1105
G01 X51.5049 Y89.1193
G01 X51.4990 Y89.1272
G01 X51.3853 Y89.2410
G01 X51.3853 Y90.8550
G01 X51.4990 Y90.9688
G01 X51.5022 Y90.9726
G01 X51.5072 Y90.9810
G01 X51.5091 Y90.9855
G01 X51.5115 Y90.9950
G01 X51.5120 Y91.0024
G01 X51.5120 Y91.6336
G01 X51.5115 Y91.6410
G01 X51.5091 Y91.6505
G01 X51.5049 Y91.6593
G01 X51.4990 Y91.6672
G01 X51.3853 Y91.7810
G01 X51.3853 Y93.3950
G01 X51.4990 Y93.5088
G01 X51.5022 Y93.5126
G01 X51.5072 Y93.5210
G01 X51.5091 Y93.5255
G01 X51.5115 Y93.5350
G01 X51.5120 Y93.5424
G01 X51.5120 Y94.1736
G01 X51.5115 Y94.1810
G01 X51.5091 Y94.1905
G01 X51.5049 Y94.1993
G01 X51.4990 Y94.2072
G01 X51.3853 Y94.3210
G01 X51.3853 Y95.9350
G01 X51.4990 Y96.0488
G01 X51.5022 Y96.0526
G01 X51.5072 Y96.0610
G01 X51.5091 Y96.0655
G01 X51.5115 Y96.0750
G01 X51.5120 Y96.0824
G01 X51.5120 Y96.7136
G01 X51.5115 Y96.7210
G01 X51.5091 Y96.7305
G01 X51.5072 Y96.7350
G01 X51.5022 Y96.7434
G01 X51.4974 Y96.7490
G01 X51.0510 Y97.1954
G01 X51.0454 Y97.2002
G01 X51.0413 Y97.2029
G01 X51.0325 Y97.2071
G01 X51.0230 Y97.2095
G01 X51.0156 Y97.2100
G01 X50.3844 Y97.2100
G01 X50.3770 Y97.2095
G01 X50.3722 Y97.2085
G01 X50.3630 Y97.2052
G01 X50.3546 Y97.2002
G01 X50.3490 Y97.1954
G01 X49.9010 Y96.7472
G01 X49.8951 Y96.7393
G01 X49.8909 Y96.7305
G01 X49.8885 Y96.7210
G01 X49.8880 Y96.7136
G01 X49.8880 Y96.0824
G01 X49.8885 Y96.0750
G01 X49.8909 Y96.0655
G01 X49.8928 Y96.0610
G01 X49.8978 Y96.0526
G01 X49.9010 Y96.0488
G01 X50.0147 Y95.9350
G01 X50.0147 Y94.3210
G01 X49.9010 Y94.2072
G01 X49.8978 Y94.2034
G01 X49.8928 Y94.1950
G01 X49.8909 Y94.1905
G01 X49.8885 Y94.1810
G01 X49.8880 Y94.1736
G01 X49.8880 Y93.5424
G01 X49.8885 Y93.5350
G01 X49.8909 Y93.5255
G01 X49.8951 Y93.5167
G01 X49.9010 Y93.5088
G01 X50.0147 Y93.3950
G01 X50.0147 Y91.7810
G01 X49.9010 Y91.6672
G01 X49.8978 Y91.6634
G01 X49.8928 Y91.6550
G01 X49.8909 Y91.6505
G01 X49.8885 Y91.6410
G01 X49.8880 Y91.6336
G01 X49.8880 Y91.0024
G01 X49.8885 Y90.9950
G01 X49.8909 Y90.9855
G01 X49.8951 Y90.9767
G01 X49.9010 Y90.9688
G01 X50.0147 Y90.8550
G01 X50.0147 Y89.2410
G01 X49.9010 Y89.1272
G01 X49.8978 Y89.1234
G01 X49.8928 Y89.1150
G01 X49.8909 Y89.1105
G01 X49.8885 Y89.1010
G01 X49.8880 Y89.0936
G01 X49.8881 Y88.4599
G01 X49.8885 Y88.4550
G01 X49.8909 Y88.4455
G01 X49.8951 Y88.4367
G01 X49.9010 Y88.4288
G01 X50.0147 Y88.3150
G01 X50.0147 Y87.3165
G01 X50.0180 Y87.2518
G01 X50.0279 Y87.1853
G01 X50.0442 Y87.1201
G01 X50.0660 Y87.0590
G01 X50.0968 Y86.9938
G01 X50.1302 Y86.9383
G01 X50.1718 Y86.8824
G01 X50.2154 Y86.8344
G01 X50.6454 Y86.4044
G01 X50.6952 Y86.3592
G01 X50.7493 Y86.3192
G01 X50.8048 Y86.2858
G01 X50.8700 Y86.2550
G01 X50.9311 Y86.2332
G01 X50.9963 Y86.2169
G01 X51.0628 Y86.2070
G01 X51.1288 Y86.2037
G01 X56.1312 Y86.2037
G01 X56.1996 Y86.2073
G01 X56.2637 Y86.2169
G01 X56.3266 Y86.2325
G01 X56.3923 Y86.2558
G01 X56.4552 Y86.2858
G01 X56.5127 Y86.3206
G01 X56.5648 Y86.3592
G01 X56.6128 Y86.4027
G01 X56.6598 Y86.4542
G01 X56.6998 Y86.5083
G01 X56.7344 Y86.5659
G01 X56.7640 Y86.6290
G01 X56.7858 Y86.6901
G01 X56.8016 Y86.7529
G01 X56.8120 Y86.8218
G01 X56.8153 Y86.8890
G01 X56.8153 Y89.5741
G01 X57.4768 Y90.2356
G00 Z15.0000
G00 X58.0820 Y92.7756
G01 F450.00
G01 Z-0.1100
G01 F450.00
G01 X58.1616 Y92.7795
G01 X58.2381 Y92.7908
G01 X58.3178 Y92.8106
G01 X58.3929 Y92.8375
G01 X58.4628 Y92.8704
G01 X58.5333 Y92.9125
G01 X58.5974 Y92.9600
G01 X58.6547 Y93.0119
G01 X58.7100 Y93.0726
G01 X58.7575 Y93.1367
G01 X58.7972 Y93.2029
G01 X58.8334 Y93.2794
G01 X58.8594 Y93.3522
G01 X58.8788 Y93.4295
G01 X58.8905 Y93.5084
G01 X58.8943 Y93.5855
G01 X58.8902 Y93.6701
G01 X58.8788 Y93.7465
G01 X58.8601 Y93.8215
G01 X58.8315 Y93.9011
G01 X58.7985 Y93.9710
G01 X58.7575 Y94.0393
G01 X58.7084 Y94.1052
G01 X58.6564 Y94.1624
G01 X58.5974 Y94.2160
G01 X58.5313 Y94.2648
G01 X58.4650 Y94.3045
G01 X58.3951 Y94.3375
G01 X58.3178 Y94.3654
G01 X58.2381 Y94.3852
G01 X58.1616 Y94.3965
G01 X58.0832 Y94.4004
G01 X57.4768 Y94.4004
G01 X54.9946 Y96.8826
G01 X54.9448 Y96.9278
G01 X54.8927 Y96.9664
G01 X54.8331 Y97.0024
G01 X54.7723 Y97.0312
G01 X54.7089 Y97.0538
G01 X54.6437 Y97.0701
G01 X54.5747 Y97.0802
G01 X54.5100 Y97.0833
G01 X53.7030 Y97.0833
G01 X53.5892 Y97.1970
G01 X53.5854 Y97.2002
G01 X53.5770 Y97.2052
G01 X53.5678 Y97.2085
G01 X53.5630 Y97.2095
G01 X53.5556 Y97.2100
G01 X52.9244 Y97.2100
G01 X52.9170 Y97.2095
G01 X52.9075 Y97.2071
G01 X52.9030 Y97.2052
G01 X52.8946 Y97.2002
G01 X52.8890 Y97.1954
G01 X52.4426 Y96.7490
G01 X52.4378 Y96.7434
G01 X52.4328 Y96.7350
G01 X52.4295 Y96.7258
G01 X52.4281 Y96.7161
G01 X52.4280 Y96.0824
G01 X52.4285 Y96.0750
G01 X52.4309 Y96.0655
G01 X52.4328 Y96.0610
G01 X52.4378 Y96.0526
G01 X52.4410 Y96.0488
G01 X52.5547 Y95.9350
G01 X52.5547 Y94.3210
G01 X52.4410 Y94.2072
G01 X52.4378 Y94.2034
G01 X52.4328 Y94.1950
G01 X52.4309 Y94.1905
G01 X52.4285 Y94.1810
G01 X52.4280 Y94.1736
G01 X52.4280 Y93.5424
G01 X52.4285 Y93.5350
G01 X52.4309 Y93.5255
G01 X52.4351 Y93.5167
G01 X52.4410 Y93.5088
G01 X52.5547 Y93.3950
G01 X52.5547 Y91.7810
G01 X52.4410 Y91.6672
G01 X52.4378 Y91.6634
G01 X52.4328 Y91.6550
G01 X52.4309 Y91.6505
G01 X52.4285 Y91.6410
G01 X52.4280 Y91.6336
G01 X52.4280 Y91.0024
G01 X52.4285 Y90.9950
G01 X52.4309 Y90.9855
G01 X52.4351 Y90.9767
G01 X52.4410 Y90.9688
G01 X52.5547 Y90.8550
G01 X52.5547 Y89.2410
G01 X52.4410 Y89.1272
G01 X52.4378 Y89.1234
G01 X52.4328 Y89.1150
G01 X52.4309 Y89.1105
G01 X52.4285 Y89.1010
G01 X52.4280 Y89.0936
G01 X52.4280 Y88.4624
G01 X52.4285 Y88.4550
G01 X52.4309 Y88.4455
G01 X52.4328 Y88.4410
G01 X52.4378 Y88.4326
G01 X52.4426 Y88.4270
G01 X52.8890 Y87.9806
G01 X52.8946 Y87.9758
G01 X52.9030 Y87.9708
G01 X52.9122 Y87.9675
G01 X52.9170 Y87.9665
G01 X52.9244 Y87.9660
G01 X53.5556 Y87.9660
G01 X53.5630 Y87.9665
G01 X53.5725 Y87.9689
G01 X53.5813 Y87.9731
G01 X53.5854 Y87.9758
G01 X53.5910 Y87.9806
G01 X54.0374 Y88.4270
G01 X54.0422 Y88.4326
G01 X54.0449 Y88.4367
G01 X54.0472 Y88.4410
G01 X54.0505 Y88.4502
G01 X54.0515 Y88.4550
G01 X54.0520 Y88.4624
G01 X54.0520 Y89.0936
G01 X54.0515 Y89.1010
G01 X54.0491 Y89.1105
G01 X54.0472 Y89.1150
G01 X54.0422 Y89.1234
G01 X54.0390 Y89.1272
G01 X53.9253 Y89.2410
G01 X53.9253 Y90.8550
G01 X54.0390 Y90.9688
G01 X54.0422 Y90.9726
G01 X54.0472 Y90.9810
G01 X54.0491 Y90.9855
G01 X54.0515 Y90.9950
G01 X54.0520 Y91.0024
G01 X54.0520 Y91.6336
G01 X54.0515 Y91.6410
G01 X54.0491 Y91.6505
G01 X54.0449 Y91.6593
G01 X54.0390 Y91.6672
G01 X53.9253 Y91.7810
G01 X53.9253 Y93.3950
G01 X54.0390 Y93.5088
G01 X54.0422 Y93.5126
G01 X54.0472 Y93.5210
G01 X54.0491 Y93.5255
G01 X54.0515 Y93.5350
G01 X54.0520 Y93.5424
G01 X54.0520 Y94.1736
G01 X54.0515 Y94.1810
G01 X54.0491 Y94.1905
G01 X54.0449 Y94.1993
G01 X54.0390 Y94.2072
G01 X53.9253 Y94.3210
G01 X53.9253 Y95.7127
G01 X54.2261 Y95.7127
G01 X55.8897 Y94.0491
G01 X55.8812 Y94.0373
G01 X55.8415 Y93.9710
G01 X55.8075 Y93.8989
G01 X55.7806 Y93.8238
G01 X55.7612 Y93.7465
G01 X55.7495 Y93.6676
G01 X55.7456 Y93.5880
G01 X55.7495 Y93.5084
G01 X55.7612 Y93.4295
G01 X55.7806 Y93.3522
G01 X55.8075 Y93.2771
G01 X55.8415 Y93.2050
G01 X55.8825 Y93.1367
G01 X55.9300 Y93.0726
G01 X55.9836 Y93.0136
G01 X56.0426 Y92.9600
G01 X56.1047 Y92.9139
G01 X56.1750 Y92.8715
G01 X56.2494 Y92.8366
G01 X56.3222 Y92.8106
G01 X56.3971 Y92.7918
G01 X56.4808 Y92.7794
G01 X56.5580 Y92.7756
G01 X58.0820 Y92.7756
G00 Z15.0000
G00 X73.4768 Y90.2356
G01 F450.00
G01 Z-0.1100
G01 F450.00
G01 X74.0832 Y90.2356
G01 X74.1616 Y90.2395
G01 X74.2405 Y90.2512
G01 X74.3202 Y90.2714
G01 X74.3929 Y90.2975
G01 X74.4650 Y90.3315
G01 X74.5333 Y90.3725
G01 X74.5954 Y90.4185
G01 X74.6581 Y90.4753
G01 X74.7100 Y90.5326
G01 X74.7575 Y90.5967
G01 X74.7985 Y90.6650
G01 X74.8325 Y90.7371
G01 X74.8594 Y90.8122
G01 X74.8788 Y90.8895
G01 X74.8905 Y90.9684
G01 X74.8943 Y91.0455
G01 X74.8902 Y91.1301
G01 X74.8788 Y91.2065
G01 X74.8586 Y91.2862
G01 X74.8325 Y91.3589
G01 X74.7985 Y91.4310
G01 X74.7575 Y91.4993
G01 X74.7100 Y91.5634
G01 X74.6564 Y91.6224
G01 X74.5974 Y91.6760
G01 X74.5333 Y91.7235
G01 X74.4650 Y91.7645
G01 X74.3929 Y91.7985
G01 X74.3178 Y91.8254
G01 X74.2405 Y91.8448
G01 X74.1616 Y91.8565
G01 X74.0820 Y91.8604
G01 X72.5568 Y91.8604
G01 X72.4784 Y91.8565
G01 X72.3995 Y91.8448
G01 X72.3222 Y91.8254
G01 X72.2471 Y91.7985
G01 X72.1750 Y91.7645
G01 X72.1067 Y91.7235
G01 X72.0426 Y91.6760
G01 X71.9836 Y91.6224
G01 X71.9300 Y91.5634
G01 X71.8825 Y91.4993
G01 X71.8415 Y91.4310
G01 X71.8075 Y91.3589
G01 X71.7806 Y91.2838
G01 X71.7608 Y91.2041
G01 X71.7495 Y91.1276
G01 X71.7457 Y91.0505
G01 X71.7495 Y90.9684
G01 X71.7618 Y90.8871
G01 X71.7806 Y90.8122
G01 X71.8066 Y90.7394
G01 X71.8415 Y90.6650
G01 X71.8812 Y90.5987
G01 X71.8897 Y90.5869
G01 X71.6446 Y90.3417
G01 X71.6002 Y90.2928
G01 X71.5616 Y90.2407
G01 X71.5256 Y90.1811
G01 X71.4968 Y90.1203
G01 X71.4742 Y90.0569
G01 X71.4579 Y89.9917
G01 X71.4480 Y89.9252
G01 X71.4447 Y89.8580
G01 X71.4447 Y87.5743
G01 X67.4139 Y87.5743
G01 X67.3853 Y87.6029
G01 X67.3853 Y88.3150
G01 X67.4990 Y88.4288
G01 X67.5022 Y88.4326
G01 X67.5072 Y88.4410
G01 X67.5105 Y88.4502
G01 X67.5115 Y88.4550
G01 X67.5120 Y88.4624
G01 X67.5120 Y89.0936
G01 X67.5115 Y89.1010
G01 X67.5091 Y89.1105
G01 X67.5049 Y89.1193
G01 X67.4990 Y89.1272
G01 X67.3853 Y89.2410
G01 X67.3853 Y90.8550
G01 X67.4990 Y90.9688
G01 X67.5022 Y90.9726
G01 X67.5072 Y90.9810
G01 X67.5105 Y90.9902
G01 X67.5115 Y90.9950
G01 X67.5120 Y91.0024
G01 X67.5120 Y91.6336
G01 X67.5115 Y91.6410
G01 X67.5091 Y91.6505
G01 X67.5049 Y91.6593
G01 X67.4990 Y91.6672
G01 X67.3853 Y91.7810
G01 X67.3853 Y93.3950
G01 X67.4990 Y93.5088
G01 X67.5022 Y93.5126
G01 X67.5072 Y93.5210
G01 X67.5105 Y93.5302
G01 X67.5115 Y93.5350
G01 X67.5120 Y93.5424
G01 X67.5120 Y94.1736
G01 X67.5115 Y94.1810
G01 X67.5091 Y94.1905
G01 X67.5049 Y94.1993
G01 X67.4990 Y94.2072
G01 X67.3853 Y94.3210
G01 X67.3853 Y95.9350
G01 X67.4990 Y96.0488
G01 X67.5022 Y96.0526
G01 X67.5072 Y96.0610
G01 X67.5105 Y96.0702
G01 X67.5115 Y96.0750
G01 X67.5120 Y96.0824
G01 X67.5120 Y96.7136
G01 X67.5115 Y96.7210
G01 X67.5105 Y96.7258
G01 X67.5072 Y96.7350
G01 X67.5022 Y96.7434
G01 X67.4974 Y96.7490
G01 X67.0510 Y97.1954
G01 X67.0454 Y97.2002
G01 X67.0413 Y97.2029
G01 X67.0325 Y97.2071
G01 X67.0230 Y97.2095
G01 X67.0156 Y97.2100
G01 X66.3844 Y97.2100
G01 X66.3770 Y97.2095
G01 X66.3722 Y97.2085
G01 X66.3630 Y97.2052
G01 X66.3546 Y97.2002
G01 X66.3490 Y97.1954
G01 X65.9010 Y96.7472
G01 X65.8951 Y96.7393
G01 X65.8909 Y96.7305
G01 X65.8885 Y96.7210
G01 X65.8880 Y96.7136
G01 X65.8880 Y96.0824
G01 X65.8885 Y96.0750
G01 X65.8895 Y96.0702
G01 X65.8928 Y96.0610
G01 X65.8978 Y96.0526
G01 X65.9010 Y96.0488
G01 X66.0147 Y95.9350
G01 X66.0147 Y94.3210
G01 X65.9010 Y94.2072
G01 X65.8978 Y94.2034
G01 X65.8928 Y94.1950
G01 X65.8895 Y94.1858
G01 X65.8885 Y94.1810
G01 X65.8880 Y94.1736
G01 X65.8880 Y93.5424
G01 X65.8885 Y93.5350
G01 X65.8909 Y93.5255
G01 X65.8951 Y93.5167
G01 X65.9010 Y93.5088
G01 X66.0147 Y93.3950
G01 X66.0147 Y91.7810
G01 X65.9010 Y91.6672
G01 X65.8978 Y91.6634
G01 X65.8928 Y91.6550
G01 X65.8895 Y91.6458
G01 X65.8885 Y91.6410
G01 X65.8880 Y91.6336
G01 X65.8880 Y91.0024
G01 X65.8885 Y90.9950
G01 X65.8909 Y90.9855
G01 X65.8951 Y90.9767
G01 X65.9010 Y90.9688
G01 X66.0147 Y90.8550
G01 X66.0147 Y89.2410
G01 X65.9010 Y89.1272
G01 X65.8978 Y89.1234
G01 X65.8928 Y89.1150
G01 X65.8895 Y89.1058
G01 X65.8885 Y89.1010
G01 X65.8880 Y89.0936
G01 X65.8881 Y88.4599
G01 X65.8885 Y88.4550
G01 X65.8909 Y88.4455
G01 X65.8951 Y88.4367
G01 X65.9010 Y88.4288
G01 X66.0147 Y88.3150
G01 X66.0147 Y87.3165
G01 X66.0180 Y87.2518
G01 X66.0279 Y87.1853
G01 X66.0442 Y87.1201
G01 X66.0660 Y87.0590
G01 X66.0956 Y86.9959
G01 X66.1289 Y86.9403
G01 X66.1718 Y86.8824
G01 X66.2154 Y86.8344
G01 X66.6454 Y86.4044
G01 X66.6952 Y86.3592
G01 X66.7493 Y86.3192
G01 X66.8048 Y86.2858
G01 X66.8700 Y86.2550
G01 X66.9311 Y86.2332
G01 X66.9963 Y86.2169
G01 X67.0628 Y86.2070
G01 X67.1288 Y86.2037
G01 X72.1312 Y86.2037
G01 X72.1996 Y86.2073
G01 X72.2637 Y86.2169
G01 X72.3266 Y86.2325
G01 X72.3923 Y86.2558
G01 X72.4552 Y86.2858
G01 X72.5127 Y86.3206
G01 X72.5648 Y86.3592
G01 X72.6128 Y86.4027
G01 X72.6598 Y86.4542
G01 X72.6998 Y86.5083
G01 X72.7344 Y86.5659
G01 X72.7640 Y86.6290
G01 X72.7858 Y86.6901
G01 X72.8016 Y86.7529
G01 X72.8120 Y86.8218
G01 X72.8153 Y86.8890
G01 X72.8153 Y89.5741
G01 X73.4768 Y90.2356
G00 Z15.0000
G00 X74.0820 Y92.7756
G01 F450.00
G01 Z-0.1100
G01 F450.00
G01 X74.1641 Y92.7798
G01 X74.2405 Y92.7912
G01 X74.3178 Y92.8106
G01 X74.3929 Y92.8375
G01 X74.4628 Y92.8704
G01 X74.5353 Y92.9139
G01 X74.5974 Y92.9600
G01 X74.6547 Y93.0119
G01 X74.7115 Y93.0746
G01 X74.7575 Y93.1367
G01 X74.7985 Y93.2050
G01 X74.8325 Y93.2771
G01 X74.8586 Y93.3498
G01 X74.8792 Y93.4319
G01 X74.8905 Y93.5084
G01 X74.8944 Y93.5880
G01 X74.8902 Y93.6701
G01 X74.8788 Y93.7465
G01 X74.8594 Y93.8238
G01 X74.8325 Y93.8989
G01 X74.7996 Y93.9688
G01 X74.7575 Y94.0393
G01 X74.7100 Y94.1034
G01 X74.6581 Y94.1607
G01 X74.5974 Y94.2160
G01 X74.5313 Y94.2648
G01 X74.4650 Y94.3045
G01 X74.3951 Y94.3375
G01 X74.3178 Y94.3654
G01 X74.2381 Y94.3852
G01 X74.1616 Y94.3965
G01 X74.0832 Y94.4004
G01 X73.4768 Y94.4004
G01 X70.9946 Y96.8826
G01 X70.9428 Y96.9293
G01 X70.8907 Y96.9678
G01 X70.8331 Y97.0024
G01 X70.7723 Y97.0312
G01 X70.7089 Y97.0538
G01 X70.6437 Y97.0701
G01 X70.5747 Y97.0802
G01 X70.5100 Y97.0833
G01 X69.7030 Y97.0833
G01 X69.5892 Y97.1970
G01 X69.5854 Y97.2002
G01 X69.5770 Y97.2052
G01 X69.5725 Y97.2071
G01 X69.5630 Y97.2095
G01 X69.5556 Y97.2100
G01 X68.9244 Y97.2100
G01 X68.9170 Y97.2095
G01 X68.9075 Y97.2071
G01 X68.9030 Y97.2052
G01 X68.8946 Y97.2002
G01 X68.8890 Y97.1954
G01 X68.4426 Y96.7490
G01 X68.4378 Y96.7434
G01 X68.4328 Y96.7350
G01 X68.4295 Y96.7258
G01 X68.4281 Y96.7161
G01 X68.4280 Y96.0824
G01 X68.4285 Y96.0750
G01 X68.4295 Y96.0702
G01 X68.4328 Y96.0610
G01 X68.4378 Y96.0526
G01 X68.4410 Y96.0488
G01 X68.5547 Y95.9350
G01 X68.5547 Y94.3210
G01 X68.4410 Y94.2072
G01 X68.4378 Y94.2034
G01 X68.4328 Y94.1950
G01 X68.4295 Y94.1858
G01 X68.4285 Y94.1810
G01 X68.4280 Y94.1736
G01 X68.4280 Y93.5424
G01 X68.4285 Y93.5350
G01 X68.4309 Y93.5255
G01 X68.4351 Y93.5167
G01 X68.4410 Y93.5088
G01 X68.5547 Y93.3950
G01 X68.5547 Y91.7810
G01 X68.4410 Y91.6672
G01 X68.4378 Y91.6634
G01 X68.4328 Y91.6550
G01 X68.4295 Y91.6458
G01 X68.4285 Y91.6410
G01 X68.4280 Y91.6336
G01 X68.4280 Y91.0024
G01 X68.4285 Y90.9950
G01 X68.4309 Y90.9855
G01 X68.4351 Y90.9767
G01 X68.4410 Y90.9688
G01 X68.5547 Y90.8550
G01 X68.5547 Y89.2410
G01 X68.4410 Y89.1272
G01 X68.4378 Y89.1234
G01 X68.4328 Y89.1150
G01 X68.4295 Y89.1058
G01 X68.4285 Y89.1010
G01 X68.4280 Y89.0936
G01 X68.4280 Y88.4624
G01 X68.4285 Y88.4550
G01 X68.4309 Y88.4455
G01 X68.4328 Y88.4410
G01 X68.4378 Y88.4326
G01 X68.4426 Y88.4270
G01 X68.8890 Y87.9806
G01 X68.8946 Y87.9758
G01 X68.9030 Y87.9708
G01 X68.9122 Y87.9675
G01 X68.9170 Y87.9665
G01 X68.9244 Y87.9660
G01 X69.5556 Y87.9660
G01 X69.5630 Y87.9665
G01 X69.5725 Y87.9689
G01 X69.5813 Y87.9731
G01 X69.5854 Y87.9758
G01 X69.5910 Y87.9806
G01 X70.0374 Y88.4270
G01 X70.0422 Y88.4326
G01 X70.0449 Y88.4367
G01 X70.0472 Y88.4410
G01 X70.0505 Y88.4502
G01 X70.0515 Y88.4550
G01 X70.0520 Y88.4624
G01 X70.0520 Y89.0936
G01 X70.0515 Y89.1010
G01 X70.0505 Y89.1058
G01 X70.0472 Y89.1150
G01 X70.0422 Y89.1234
G01 X70.0390 Y89.1272
G01 X69.9253 Y89.2410
G01 X69.9253 Y90.8550
G01 X70.0390 Y90.9688
G01 X70.0422 Y90.9726
G01 X70.0472 Y90.9810
G01 X70.0505 Y90.9902
G01 X70.0515 Y90.9950
G01 X70.0520 Y91.0024
G01 X70.0520 Y91.6336
G01 X70.0515 Y91.6410
G01 X70.0491 Y91.6505
G01 X70.0449 Y91.6593
G01 X70.0390 Y91.6672
G01 X69.9253 Y91.7810
G01 X69.9253 Y93.3950
G01 X70.0390 Y93.5088
G01 X70.0422 Y93.5126
G01 X70.0472 Y93.5210
G01 X70.0505 Y93.5302
G01 X70.0515 Y93.5350
G01 X70.0520 Y93.5424
G01 X70.0520 Y94.1736
G01 X70.0515 Y94.1810
G01 X70.0491 Y94.1905
G01 X70.0449 Y94.1993
G01 X70.0390 Y94.2072
G01 X69.9253 Y94.3210
G01 X69.9253 Y95.7127
G01 X70.2261 Y95.7127
G01 X71.8897 Y94.0491
G01 X71.8812 Y94.0373
G01 X71.8415 Y93.9710
G01 X71.8075 Y93.8989
G01 X71.7806 Y93.8238
G01 X71.7612 Y93.7465
G01 X71.7495 Y93.6676
G01 X71.7456 Y93.5880
G01 X71.7495 Y93.5084
G01 X71.7612 Y93.4295
G01 X71.7806 Y93.3522
G01 X71.8075 Y93.2771
G01 X71.8415 Y93.2050
G01 X71.8825 Y93.1367
G01 X71.9300 Y93.0726
G01 X71.9836 Y93.0136
G01 X72.0426 Y92.9600
G01 X72.1047 Y92.9139
G01 X72.1772 Y92.8704
G01 X72.2471 Y92.8375
G01 X72.3198 Y92.8114
G01 X72.3995 Y92.7912
G01 X72.4808 Y92.7794
G01 X72.5580 Y92.7756
G01 X74.0820 Y92.7756
G00 Z15.0000
G00 X88.3468 Y94.0504
G01 F450.00
G01 Z-0.1100
G01 F450.00
G01 X85.8637 Y96.5334
G01 X85.8148 Y96.5778
G01 X85.7607 Y96.6178
G01 X85.7031 Y96.6524
G01 X85.6445 Y96.6802
G01 X85.5766 Y96.7045
G01 X85.5137 Y96.7201
G01 X85.4447 Y96.7302
G01 X85.3800 Y96.7333
G01 X84.5730 Y96.7333
G01 X84.4592 Y96.8470
G01 X84.4554 Y96.8502
G01 X84.4470 Y96.8552
G01 X84.4378 Y96.8585
G01 X84.4281 Y96.8599
G01 X83.7944 Y96.8600
G01 X83.7870 Y96.8595
G01 X83.7775 Y96.8571
G01 X83.7730 Y96.8552
G01 X83.7646 Y96.8502
G01 X83.7590 Y96.8454
G01 X83.3126 Y96.3990
G01 X83.3078 Y96.3934
G01 X83.3028 Y96.3850
G01 X83.3009 Y96.3805
G01 X83.2985 Y96.3710
G01 X83.2980 Y96.3636
G01 X83.2980 Y95.7324
G01 X83.2985 Y95.7250
G01 X83.2995 Y95.7202
G01 X83.3028 Y95.7110
G01 X83.3078 Y95.7026
G01 X83.3110 Y95.6988
G01 X83.4247 Y95.5850
G01 X83.4247 Y93.9710
G01 X83.3110 Y93.8572
G01 X83.3078 Y93.8534
G01 X83.3028 Y93.8450
G01 X83.2995 Y93.8358
G01 X83.2985 Y93.8310
G01 X83.2980 Y93.8236
G01 X83.2980 Y93.1924
G01 X83.2985 Y93.1850
G01 X83.3009 Y93.1755
G01 X83.3051 Y93.1667
G01 X83.3110 Y93.1588
G01 X83.4247 Y93.0450
G01 X83.4247 Y91.4310
G01 X83.3110 Y91.3172
G01 X83.3078 Y91.3134
G01 X83.3028 Y91.3050
G01 X83.2995 Y91.2958
G01 X83.2985 Y91.2910
G01 X83.2980 Y91.2836
G01 X83.2980 Y90.6524
G01 X83.2985 Y90.6450
G01 X83.3009 Y90.6355
G01 X83.3051 Y90.6267
G01 X83.3110 Y90.6188
G01 X83.4247 Y90.5050
G01 X83.4247 Y88.8910
G01 X83.3110 Y88.7772
G01 X83.3078 Y88.7734
G01 X83.3028 Y88.7650
G01 X83.2995 Y88.7558
G01 X83.2985 Y88.7510
G01 X83.2980 Y88.7436
G01 X83.2981 Y88.1099
G01 X83.2995 Y88.1002
G01 X83.3028 Y88.0910
G01 X83.3078 Y88.0826
G01 X83.3126 Y88.0770
G01 X83.7590 Y87.6306
G01 X83.7646 Y87.6258
G01 X83.7730 Y87.6208
G01 X83.7775 Y87.6189
G01 X83.7870 Y87.6165
G01 X83.7944 Y87.6160
G01 X84.4256 Y87.6160
G01 X84.4330 Y87.6165
G01 X84.4378 Y87.6175
G01 X84.4470 Y87.6208
G01 X84.4554 Y87.6258
G01 X84.4610 Y87.6306
G01 X84.9074 Y88.0770
G01 X84.9122 Y88.0826
G01 X84.9172 Y88.0910
G01 X84.9205 Y88.1002
G01 X84.9215 Y88.1050
G01 X84.9220 Y88.1124
G01 X84.9220 Y88.7436
G01 X84.9215 Y88.7510
G01 X84.9205 Y88.7558
G01 X84.9172 Y88.7650
G01 X84.9122 Y88.7734
G01 X84.9090 Y88.7772
G01 X84.7953 Y88.8910
G01 X84.7953 Y90.5050
G01 X84.9090 Y90.6188
G01 X84.9122 Y90.6226
G01 X84.9172 Y90.6310
G01 X84.9205 Y90.6402
G01 X84.9215 Y90.6450
G01 X84.9220 Y90.6524
G01 X84.9220 Y91.2836
G01 X84.9215 Y91.2910
G01 X84.9191 Y91.3005
G01 X84.9149 Y91.3093
G01 X84.9090 Y91.3172
G01 X84.7953 Y91.4310
G01 X84.7953 Y93.0450
G01 X84.9090 Y93.1588
G01 X84.9122 Y93.1626
G01 X84.9172 Y93.1710
G01 X84.9205 Y93.1802
G01 X84.9215 Y93.1850
G01 X84.9220 Y93.1924
G01 X84.9220 Y93.8236
G01 X84.9215 Y93.8310
G01 X84.9191 Y93.8405
G01 X84.9149 Y93.8493
G01 X84.9090 Y93.8572
G01 X84.7953 Y93.9710
G01 X84.7953 Y95.3627
G01 X85.0961 Y95.3627
G01 X86.7597 Y93.6991
G01 X86.7512 Y93.6873
G01 X86.7115 Y93.6210
G01 X86.6775 Y93.5489
G01 X86.6506 Y93.4738
G01 X86.6308 Y93.3941
G01 X86.6194 Y93.3152
G01 X86.6156 Y93.2380
G01 X86.6194 Y93.1608
G01 X86.6312 Y93.0795
G01 X86.6506 Y93.0022
G01 X86.6775 Y92.9271
G01 X86.7128 Y92.8529
G01 X86.7525 Y92.7867
G01 X86.7985 Y92.7246
G01 X86.8519 Y92.6653
G01 X86.9126 Y92.6100
G01 X86.9767 Y92.5625
G01 X87.0450 Y92.5215
G01 X87.1194 Y92.4866
G01 X87.1922 Y92.4606
G01 X87.2695 Y92.4412
G01 X87.3484 Y92.4295
G01 X87.4268 Y92.4256
G01 X88.9520 Y92.4256
G01 X89.0316 Y92.4295
G01 X89.1105 Y92.4412
G01 X89.1878 Y92.4606
G01 X89.2629 Y92.4875
G01 X89.3350 Y92.5215
G01 X89.4033 Y92.5625
G01 X89.4674 Y92.6100
G01 X89.5264 Y92.6636
G01 X89.5800 Y92.7226
G01 X89.6275 Y92.7867
G01 X89.6685 Y92.8550
G01 X89.7025 Y92.9271
G01 X89.7286 Y92.9998
G01 X89.7488 Y93.0795
G01 X89.7602 Y93.1559
G01 X89.7643 Y93.2405
G01 X89.7605 Y93.3176
G01 X89.7488 Y93.3965
G01 X89.7294 Y93.4738
G01 X89.7025 Y93.5489
G01 X89.6685 Y93.6210
G01 X89.6275 Y93.6893
G01 X89.5800 Y93.7534
G01 X89.5281 Y93.8107
G01 X89.4654 Y93.8675
G01 X89.4033 Y93.9135
G01 X89.3350 Y93.9545
G01 X89.2629 Y93.9885
G01 X89.1902 Y94.0146
G01 X89.1105 Y94.0348
G01 X89.0316 Y94.0465
G01 X88.9532 Y94.0504
G01 X88.3468 Y94.0504
G00 Z15.0000
G00 X88.9520 Y89.8856
G01 F450.00
G01 Z-0.1100
G01 F450.00
G01 X89.0341 Y89.8898
G01 X89.1105 Y89.9012
G01 X89.1878 Y89.9206
G01 X89.2651 Y89.9485
G01 X89.3350 Y89.9815
G01 X89.4033 Y90.0225
G01 X89.4674 Y90.0700
G01 X89.5247 Y90.1219
G01 X89.5800 Y90.1826
G01 X89.6275 Y90.2467
G01 X89.6672 Y90.3129
G01 X89.7034 Y90.3894
G01 X89.7294 Y90.4622
G01 X89.7488 Y90.5395
G01 X89.7605 Y90.6184
G01 X89.7643 Y90.6955
G01 X89.7602 Y90.7801
G01 X89.7488 Y90.8565
G01 X89.7301 Y90.9315
G01 X89.7015 Y91.0111
G01 X89.6685 Y91.0810
G01 X89.6275 Y91.1493
G01 X89.5800 Y91.2134
G01 X89.5281 Y91.2707
G01 X89.4674 Y91.3260
G01 X89.4013 Y91.3748
G01 X89.3350 Y91.4145
G01 X89.2629 Y91.4485
G01 X89.1878 Y91.4754
G01 X89.1129 Y91.4942
G01 X89.0292 Y91.5066
G01 X88.9520 Y91.5104
G01 X87.4268 Y91.5104
G01 X87.3484 Y91.5065
G01 X87.2695 Y91.4948
G01 X87.1922 Y91.4754
G01 X87.1171 Y91.4485
G01 X87.0450 Y91.4145
G01 X86.9767 Y91.3735
G01 X86.9126 Y91.3260
G01 X86.8536 Y91.2724
G01 X86.8000 Y91.2134
G01 X86.7525 Y91.1493
G01 X86.7115 Y91.0810
G01 X86.6775 Y91.0089
G01 X86.6499 Y90.9315
G01 X86.6312 Y90.8565
G01 X86.6198 Y90.7801
G01 X86.6156 Y90.6980
G01 X86.6195 Y90.6184
G01 X86.6318 Y90.5371
G01 X86.6506 Y90.4622
G01 X86.6766 Y90.3894
G01 X86.7115 Y90.3150
G01 X86.7512 Y90.2487
G01 X86.7597 Y90.2369
G01 X86.5146 Y89.9917
G01 X86.4702 Y89.9428
G01 X86.4316 Y89.8907
G01 X86.3956 Y89.8311
G01 X86.3668 Y89.7703
G01 X86.3442 Y89.7069
G01 X86.3279 Y89.6417
G01 X86.3180 Y89.5752
G01 X86.3147 Y89.5080
G01 X86.3147 Y87.2243
G01 X82.2839 Y87.2243
G01 X82.2553 Y87.2529
G01 X82.2553 Y87.9650
G01 X82.3690 Y88.0788
G01 X82.3722 Y88.0826
G01 X82.3772 Y88.0910
G01 X82.3805 Y88.1002
G01 X82.3815 Y88.1050
G01 X82.3820 Y88.1124
G01 X82.3820 Y88.7436
G01 X82.3815 Y88.7510
G01 X82.3791 Y88.7605
G01 X82.3749 Y88.7693
G01 X82.3690 Y88.7772
G01 X82.2553 Y88.8910
G01 X82.2553 Y90.5050
G01 X82.3690 Y90.6188
G01 X82.3722 Y90.6226
G01 X82.3772 Y90.6310
G01 X82.3805 Y90.6402
G01 X82.3815 Y90.6450
G01 X82.3820 Y90.6524
G01 X82.3820 Y91.2836
G01 X82.3815 Y91.2910
G01 X82.3791 Y91.3005
G01 X82.3749 Y91.3093
G01 X82.3690 Y91.3172
G01 X82.2553 Y91.4310
G01 X82.2553 Y93.0450
G01 X82.3690 Y93.1588
G01 X82.3722 Y93.1626
G01 X82.3772 Y93.1710
G01 X82.3805 Y93.1802
G01 X82.3815 Y93.1850
G01 X82.3820 Y93.1924
G01 X82.3820 Y93.8236
G01 X82.3815 Y93.8310
G01 X82.3791 Y93.8405
G01 X82.3749 Y93.8493
G01 X82.3690 Y93.8572
G01 X82.2553 Y93.9710
G01 X82.2553 Y95.5850
G01 X82.3690 Y95.6988
G01 X82.3722 Y95.7026
G01 X82.3772 Y95.7110
G01 X82.3805 Y95.7202
G01 X82.3815 Y95.7250
G01 X82.3820 Y95.7324
G01 X82.3820 Y96.3636
G01 X82.3815 Y96.3710
G01 X82.3805 Y96.3758
G01 X82.3772 Y96.3850
G01 X82.3722 Y96.3934
G01 X82.3674 Y96.3990
G01 X81.9210 Y96.8454
G01 X81.9154 Y96.8502
G01 X81.9113 Y96.8529
G01 X81.9025 Y96.8571
G01 X81.8930 Y96.8595
G01 X81.8856 Y96.8600
G01 X81.2544 Y96.8600
G01 X81.2470 Y96.8595
G01 X81.2422 Y96.8585
G01 X81.2330 Y96.8552
G01 X81.2246 Y96.8502
G01 X81.2190 Y96.8454
G01 X80.7726 Y96.3990
G01 X80.7678 Y96.3934
G01 X80.7651 Y96.3893
G01 X80.7609 Y96.3805
G01 X80.7585 Y96.3710
G01 X80.7580 Y96.3636
G01 X80.7580 Y95.7324
G01 X80.7585 Y95.7250
G01 X80.7595 Y95.7202
G01 X80.7628 Y95.7110
G01 X80.7651 Y95.7067
G01 X80.7710 Y95.6988
G01 X80.8847 Y95.5850
G01 X80.8847 Y93.9710
G01 X80.7710 Y93.8572
G01 X80.7678 Y93.8534
G01 X80.7628 Y93.8450
G01 X80.7595 Y93.8358
G01 X80.7585 Y93.8310
G01 X80.7580 Y93.8236
G01 X80.7580 Y93.1924
G01 X80.7585 Y93.1850
G01 X80.7609 Y93.1755
G01 X80.7651 Y93.1667
G01 X80.7710 Y93.1588
G01 X80.8847 Y93.0450
G01 X80.8847 Y91.4310
G01 X80.7710 Y91.3172
G01 X80.7678 Y91.3134
G01 X80.7628 Y91.3050
G01 X80.7595 Y91.2958
G01 X80.7585 Y91.2910
G01 X80.7580 Y91.2836
G01 X80.7580 Y90.6524
G01 X80.7585 Y90.6450
G01 X80.7609 Y90.6355
G01 X80.7651 Y90.6267
G01 X80.7710 Y90.6188
G01 X80.8847 Y90.5050
G01 X80.8847 Y88.8910
G01 X80.7710 Y88.7772
G01 X80.7678 Y88.7734
G01 X80.7628 Y88.7650
G01 X80.7595 Y88.7558
G01 X80.7585 Y88.7510
G01 X80.7580 Y88.7436
G01 X80.7581 Y88.1099
G01 X80.7585 Y88.1050
G01 X80.7609 Y88.0955
G01 X80.7651 Y88.0867
G01 X80.7710 Y88.0788
G01 X80.8847 Y87.9650
G01 X80.8847 Y86.9665
G01 X80.8880 Y86.9018
G01 X80.8979 Y86.8353
G01 X80.9142 Y86.7701
G01 X80.9360 Y86.7090
G01 X80.9668 Y86.6438
G01 X81.0002 Y86.5883
G01 X81.0418 Y86.5324
G01 X81.0854 Y86.4844
G01 X81.5154 Y86.0544
G01 X81.5652 Y86.0092
G01 X81.6193 Y85.9692
G01 X81.6748 Y85.9358
G01 X81.7400 Y85.9050
G01 X81.8011 Y85.8832
G01 X81.8663 Y85.8669
G01 X81.9328 Y85.8570
G01 X81.9988 Y85.8537
G01 X87.0012 Y85.8537
G01 X87.0696 Y85.8573
G01 X87.1337 Y85.8669
G01 X87.1966 Y85.8825
G01 X87.2623 Y85.9058
G01 X87.3231 Y85.9346
G01 X87.3827 Y85.9706
G01 X87.4348 Y86.0092
G01 X87.4828 Y86.0527
G01 X87.5298 Y86.1042
G01 X87.5698 Y86.1583
G01 X87.6055 Y86.2181
G01 X87.6332 Y86.2767
G01 X87.6550 Y86.3377
G01 X87.6721 Y86.4053
G01 X87.6820 Y86.4718
G01 X87.6853 Y86.5390
G01 X87.6853 Y89.2241
G01 X88.3468 Y89.8856
G01 X88.9520 Y89.8856
G00 Z15.0000
G00 X88.3468 Y77.0504
G01 F450.00
G01 Z-0.1100
G01 F450.00
G01 X85.8637 Y79.5334
G01 X85.8148 Y79.5778
G01 X85.7607 Y79.6178
G01 X85.7031 Y79.6524
G01 X85.6445 Y79.6802
G01 X85.5766 Y79.7045
G01 X85.5137 Y79.7201
G01 X85.4447 Y79.7302
G01 X85.3800 Y79.7333
G01 X84.5730 Y79.7333
G01 X84.4592 Y79.8470
G01 X84.4554 Y79.8502
G01 X84.4470 Y79.8552
G01 X84.4378 Y79.8585
G01 X84.4281 Y79.8599
G01 X83.7944 Y79.8600
G01 X83.7870 Y79.8595
G01 X83.7775 Y79.8571
G01 X83.7730 Y79.8552
G01 X83.7646 Y79.8502
G01 X83.7590 Y79.8454
G01 X83.3126 Y79.3990
G01 X83.3078 Y79.3934
G01 X83.3028 Y79.3850
G01 X83.3009 Y79.3805
G01 X83.2985 Y79.3710
G01 X83.2980 Y79.3636
G01 X83.2980 Y78.7324
G01 X83.2985 Y78.7250
G01 X83.2995 Y78.7202
G01 X83.3028 Y78.7110
G01 X83.3078 Y78.7026
G01 X83.3110 Y78.6988
G01 X83.4247 Y78.5850
G01 X83.4247 Y76.9710
G01 X83.3110 Y76.8572
G01 X83.3078 Y76.8534
G01 X83.3028 Y76.8450
G01 X83.2995 Y76.8358
G01 X83.2985 Y76.8310
G01 X83.2980 Y76.8236
G01 X83.2980 Y76.1924
G01 X83.2985 Y76.1850
G01 X83.3009 Y76.1755
G01 X83.3051 Y76.1667
G01 X83.3110 Y76.1588
G01 X83.4247 Y76.0450
G01 X83.4247 Y74.4310
G01 X83.3110 Y74.3172
G01 X83.3078 Y74.3134
G01 X83.3028 Y74.3050
G01 X83.2995 Y74.2958
G01 X83.2985 Y74.2910
G01 X83.2980 Y74.2836
G01 X83.2980 Y73.6524
G01 X83.2985 Y73.6450
G01 X83.3009 Y73.6355
G01 X83.3051 Y73.6267
G01 X83.3110 Y73.6188
G01 X83.4247 Y73.5050
G01 X83.4247 Y71.8910
G01 X83.3110 Y71.7772
G01 X83.3078 Y71.7734
G01 X83.3028 Y71.7650
G01 X83.2995 Y71.7558
G01 X83.2985 Y71.7510
G01 X83.2980 Y71.7436
G01 X83.2981 Y71.1099
G01 X83.2995 Y71.1002
G01 X83.3028 Y71.0910
G01 X83.3078 Y71.0826
G01 X83.3126 Y71.0770
G01 X83.7590 Y70.6306
G01 X83.7646 Y70.6258
G01 X83.7730 Y70.6208
G01 X83.7775 Y70.6189
G01 X83.7870 Y70.6165
G01 X83.7944 Y70.6160
G01 X84.4256 Y70.6160
G01 X84.4330 Y70.6165
G01 X84.4378 Y70.6175
G01 X84.4470 Y70.6208
G01 X84.4554 Y70.6258
